(HAZZY SPLASH G-CODE)
(GENERATED BY F-ENGRAVE)
(DATE: 04/07/17)

(MSG, ENGRAVING HAZZY)
G90
G20
G17 G64 P0.001 M3 S3000
F50.00
G0 Z0.2500
G0 X0.5035 Y0.9027
G1 Z-0.0050
G1 X0.5035 Y0.9027
G1 X0.5249 Y0.9340
G1 X0.5692 Y0.9897
G1 X0.6156 Y1.0366
G1 X0.6395 Y1.0568
G1 X0.6640 Y1.0747
G1 X0.6890 Y1.0904
G1 X0.7147 Y1.1041
G1 X0.7681 Y1.1260
G1 X0.8244 Y1.1405
G1 X0.8836 Y1.1478
G1 X0.9334 Y1.1484
G1 X0.9864 Y1.1435
G1 X1.0327 Y1.1328
G1 X1.0724 Y1.1170
G1 X1.1062 Y1.0966
G1 X1.1342 Y1.0716
G1 X1.1565 Y1.0421
G1 X1.1685 Y1.0199
G1 X1.1782 Y0.9958
G1 X1.1885 Y0.9568
G1 X1.1931 Y0.9293
G1 X1.1967 Y0.8704
G1 X1.1925 Y0.7954
G1 X1.1800 Y0.7151
G1 X1.0414 Y0.0000
G1 X0.7495
G1 X0.8791 Y0.6659
G1 X0.8889 Y0.7347
G1 X0.8913 Y0.7808
G1 X0.8882 Y0.8224
G1 X0.8814 Y0.8508
G1 X0.8706 Y0.8750
G1 X0.8559 Y0.8949
G1 X0.8358 Y0.9106
G1 X0.8097 Y0.9214
G1 X0.7775 Y0.9274
G1 X0.7495 Y0.9288
G1 X0.7104 Y0.9254
G1 X0.6727 Y0.9153
G1 X0.6365 Y0.8988
G1 X0.6025 Y0.8767
G1 X0.5709 Y0.8487
G1 X0.5421 Y0.8156
G1 X0.5246 Y0.7909
G1 X0.5083 Y0.7640
G1 X0.4931 Y0.7349
G1 X0.4798 Y0.7044
G1 X0.4683 Y0.6724
G1 X0.4585 Y0.6387
G1 X0.4503 Y0.6036
G1 X0.3325 Y0.0000
G1 X0.0396
G1 X0.3398 Y1.5470
G1 X0.6328
G1 X0.5482 Y1.1080
G1 X0.5259 Y1.0087
G1 X0.4993 Y0.9027
G1 X0.5035
G0 Z0.2500
G0 X1.9131 Y-0.0208
G1 Z-0.0050
G1 X1.9131 Y-0.0208
G1 X1.8630 Y-0.0186
G1 X1.8173 Y-0.0118
G1 X1.7761 Y-0.0004
G1 X1.7394 Y0.0155
G1 X1.7071 Y0.0360
G1 X1.6882 Y0.0521
G1 X1.6645 Y0.0797
G1 X1.6460 Y0.1115
G1 X1.6328 Y0.1474
G1 X1.6249 Y0.1873
G1 X1.6223 Y0.2314
G1 X1.6246 Y0.2736
G1 X1.6317 Y0.3190
G1 X1.6432 Y0.3670
G1 X1.6580 Y0.4110
G1 X1.6760 Y0.4509
G1 X1.6973 Y0.4868
G1 X1.7220 Y0.5195
G1 X1.7492 Y0.5488
G1 X1.7788 Y0.5748
G1 X1.8110 Y0.5973
G1 X1.8454 Y0.6172
G1 X1.8818 Y0.6341
G1 X1.9204 Y0.6479
G1 X1.9611 Y0.6588
G1 X2.0034 Y0.6675
G1 X2.0468 Y0.6739
G1 X2.0914 Y0.6780
G1 X2.3707 Y0.6838
G1 X2.3856 Y0.7654
G1 X2.3898 Y0.7988
G1 X2.3916 Y0.8287
G1 X2.3904 Y0.8542
G1 X2.3852 Y0.8835
G1 X2.3786 Y0.9019
G1 X2.3661 Y0.9219
G1 X2.3498 Y0.9367
G1 X2.3306 Y0.9476
G1 X2.3085 Y0.9549
G1 X2.2833 Y0.9586
G1 X2.2537
G1 X2.2235 Y0.9549
G1 X2.1954 Y0.9474
G1 X2.1693 Y0.9343
G1 X2.1458 Y0.9160
G1 X2.1300 Y0.8982
G1 X2.1107 Y0.8689
G1 X2.0935 Y0.8324
G1 X2.0820 Y0.7995
G1 X1.7797 Y0.8141
G1 X1.7938 Y0.8503
G1 X1.8102 Y0.8848
G1 X1.8287 Y0.9175
G1 X1.8608 Y0.9637
G1 X1.8854 Y0.9924
G1 X1.9275 Y1.0315
G1 X1.9590 Y1.0549
G1 X1.9933 Y1.0760
G1 X2.0304 Y1.0946
G1 X2.0704 Y1.1104
G1 X2.1361 Y1.1296
G1 X2.2094 Y1.1425
G1 X2.2624 Y1.1472
G1 X2.3186 Y1.1488
G1 X2.3832 Y1.1461
G1 X2.4228 Y1.1413
G1 X2.4771 Y1.1297
G1 X2.5098 Y1.1190
G1 X2.5539 Y1.0985
G1 X2.5798 Y1.0819
G1 X2.6031 Y1.0630
G1 X2.6236 Y1.0420
G1 X2.6412 Y1.0187
G1 X2.6559 Y0.9932
G1 X2.6676 Y0.9655
G1 X2.6764 Y0.9355
G1 X2.6823 Y0.9032
G1 X2.6856 Y0.8506
G1 X2.6827 Y0.7995
G1 X2.6791 Y0.7717
G1 X2.5924 Y0.3207
G1 X2.5852 Y0.2739
G1 X2.5834 Y0.2450
G1 X2.5856 Y0.2187
G1 X2.5908 Y0.2008
G1 X2.6012 Y0.1842
G1 X2.6148 Y0.1745
G1 X2.6328 Y0.1687
G1 X2.6553 Y0.1668
G1 X2.6884 Y0.1684
G1 X2.7210 Y0.1730
G1 X2.6908 Y0.0146
G1 X2.6308 Y0.0007
G1 X2.5980 Y-0.0052
G1 X2.5532 Y-0.0104
G1 X2.5131 Y-0.0124
G1 X2.4740 Y-0.0118
G1 X2.4414 Y-0.0083
G1 X2.4127 Y-0.0018
G1 X2.3879 Y0.0077
G1 X2.3669 Y0.0202
G1 X2.3498 Y0.0359
G1 X2.3360 Y0.0547
G1 X2.3252 Y0.0763
G1 X2.3175 Y0.1008
G1 X2.3129 Y0.1282
G1 X2.3113 Y0.1793
G1 X2.3134 Y0.2012
G1 X2.3072
G1 X2.2872 Y0.1758
G1 X2.2460 Y0.1289
G1 X2.2248 Y0.1074
G1 X2.1815 Y0.0696
G1 X2.1352 Y0.0375
G1 X2.0854 Y0.0128
G1 X2.0591 Y0.0029
G1 X2.0042 Y-0.0121
G1 X1.9751 Y-0.0169
G1 X1.9448 Y-0.0199
G1 X1.9131 Y-0.0208
G0 Z0.2500
G0 X2.3384 Y0.5223
G1 Z-0.0050
G1 X2.3384 Y0.5223
G1 X2.1756 Y0.5193
G1 X2.1313 Y0.5157
G1 X2.0998 Y0.5114
G1 X2.0703 Y0.5043
G1 X2.0517 Y0.4974
G1 X2.0258 Y0.4842
G1 X2.0103 Y0.4731
G1 X1.9893 Y0.4523
G1 X1.9712 Y0.4267
G1 X1.9566 Y0.3951
G1 X1.9454 Y0.3564
G1 X1.9376 Y0.3122
G1 X1.9364 Y0.2733
G1 X1.9408 Y0.2458
G1 X1.9458 Y0.2318
G1 X1.9526 Y0.2195
G1 X1.9643 Y0.2059
G1 X1.9834 Y0.1934
G1 X2.0073 Y0.1860
G1 X2.0361 Y0.1835
G1 X2.0772 Y0.1868
G1 X2.1032 Y0.1928
G1 X2.1283 Y0.2018
G1 X2.1642 Y0.2203
G1 X2.1865 Y0.2351
G1 X2.2074 Y0.2516
G1 X2.2269 Y0.2700
G1 X2.2454 Y0.2905
G1 X2.2623 Y0.3125
G1 X2.2777 Y0.3359
G1 X2.3036 Y0.3864
G1 X2.3137 Y0.4123
G1 X2.3280 Y0.4649
G1 X2.3384 Y0.5223
G0 Z0.2500
G0 X3.1278 Y0.0000
G1 Z-0.0050
G1 X3.1278 Y0.0000
G1 X3.1685 Y0.2074
G1 X3.9003 Y0.9163
G1 X3.3488
G1 X3.3895 Y1.1279
G1 X4.2745
G1 X4.2338 Y0.9184
G1 X3.5062 Y0.2137
G1 X4.1484
G1 X4.1067 Y0.0000
G1 X3.1278
G0 Z0.2500
G0 X4.6813 Y0.0000
G1 Z-0.0050
G1 X4.6813
G1 X4.7220 Y0.2074
G1 X5.4537 Y0.9163
G1 X4.9023
G1 X4.9429 Y1.1279
G1 X5.8280
G1 X5.7873 Y0.9184
G1 X5.0597 Y0.2137
G1 X5.7018
G1 X5.6601 Y0.0000
G1 X4.6813
G0 Z0.2500
G0 X6.8529 Y-0.0594
G1 Z-0.0050
G1 X6.8529 Y-0.0594
G1 X6.7951 Y-0.1517
G1 X6.7665 Y-0.1927
G1 X6.7103 Y-0.2652
G1 X6.6817 Y-0.2968
G1 X6.6525 Y-0.3252
G1 X6.6226 Y-0.3503
G1 X6.5923 Y-0.3722
G1 X6.5608 Y-0.3912
G1 X6.5282 Y-0.4071
G1 X6.4772 Y-0.4255
G1 X6.4413 Y-0.4341
G1 X6.4035 Y-0.4398
G1 X6.3432 Y-0.4430
G1 X6.2720 Y-0.4413
G1 X6.1996 Y-0.4357
G1 X6.1566 Y-0.4295
G1 X6.1973 Y-0.2210
G1 X6.2556 Y-0.2271
G1 X6.2900 Y-0.2291
G1 X6.3421 Y-0.2270
G1 X6.3609 Y-0.2241
G1 X6.3874 Y-0.2174
G1 X6.4046 Y-0.2112
G1 X6.4295 Y-0.1988
G1 X6.4534 Y-0.1830
G1 X6.4693 Y-0.1702
G1 X6.4849 Y-0.1556
G1 X6.5157 Y-0.1209
G1 X6.5315 Y-0.1003
G1 X6.5634 Y-0.0521
G1 X6.5996 Y0.0115
G1 X6.3494 Y1.1279
G1 X6.6590
G1 X6.7525 Y0.5678
G1 X6.7716 Y0.4045
G1 X6.7883 Y0.2304
G1 X6.8998 Y0.4722
G1 X6.9488 Y0.5744
G1 X7.2439 Y1.1279
G1 X7.5503
G1 X6.8529 Y-0.0594
G0 Z0.2500
M5
M2
