%
(BEZEL)
(T2  D=6.35 CR=0. - ZMIN=-28.852 - FLAT END MILL)
(T7  D=6.35 CR=3.175 - ZMIN=-28.362 - BALL END MILL)
G90 G94 G17 G91.1
G21
G53 G0 Z0.
(ADAPTIVE2)
M9
T2 M6
S6000 M3
G54
M8
G0 X-50.642 Y-79.758
G43 Z15. H2
G0 Z5.
Z-8.73
G1 Z-9.365 F2000
X-50.641 Y-79.757 Z-9.415
X-50.64 Y-79.751 Z-9.464
X-50.637 Y-79.742 Z-9.513
X-50.634 Y-79.728 Z-9.561
X-50.63 Y-79.712 Z-9.608
X-50.624 Y-79.691 Z-9.653
X-50.618 Y-79.668 Z-9.697
X-50.611 Y-79.641 Z-9.738
X-50.604 Y-79.611 Z-9.777
X-50.595 Y-79.578 Z-9.814
X-50.586 Y-79.543 Z-9.848
X-50.577 Y-79.505 Z-9.879
X-50.566 Y-79.465 Z-9.906
X-50.556 Y-79.423 Z-9.931
X-50.544 Y-79.379 Z-9.952
X-50.533 Y-79.333 Z-9.969
X-50.521 Y-79.287 Z-9.982
X-50.509 Y-79.24 Z-9.992
X-50.496 Y-79.192 Z-9.998
X-50.484 Y-79.143 Z-10.
G3 X-49.987 Y-75.686 I-15.704 J4.023
G1 Y-75.551
X-50.168 Y-74.638
X-50.297 Y-73.715
X-50.388 Y-72.788
X-50.452 Y-71.859
X-50.498 Y-70.929
X-50.552 Y-69.067
X-50.587 Y-66.272
X-50.604 Y-59.752
X-50.61 Y-25.288
X-50.616 Y25.011
X-50.621 Y69.489
X-50.585 Y69.719
X-50.441 Y70.162
X-49.934 Y70.943
X-49.215 Y71.535
X-48.391 Y71.97
X-47.515 Y72.286
X-46.612 Y72.513
X-45.694 Y72.675
X-44.77 Y72.789
X-43.842 Y72.871
X-42.912 Y72.928
X-41.982 Y72.968
X-40.119 Y73.017
X-37.325 Y73.048
X-29.873 Y73.064
X4.591 Y73.07
X46.972 Y73.077
X47.435 Y73.018
X47.856 Y72.82
X48.605 Y72.266
X49.168 Y71.524
X49.581 Y70.689
X49.88 Y69.807
X50.095 Y68.901
X50.248 Y67.982
X50.356 Y67.057
X50.433 Y66.128
X50.487 Y65.199
X50.525 Y64.268
X50.57 Y62.406
X50.599 Y59.611
X50.614 Y52.16
X50.616 Y15.832
X50.617 Y-34.467
X50.619 Y-69.397
X50.608 Y-69.629
X50.514 Y-70.085
X50.063 Y-70.9
X49.368 Y-71.521
X48.558 Y-71.98
X47.688 Y-72.313
X46.788 Y-72.552
X45.872 Y-72.723
X44.949 Y-72.845
X44.021 Y-72.931
X43.092 Y-72.991
X42.161 Y-73.034
X40.299 Y-73.084
X37.505 Y-73.116
X36.573 Y-73.121
X26.327 Y-73.132
X-13.726 Y-73.126
X-44.464 Y-73.122
X-44.912 Y-72.995
X-45.726 Y-72.541
X-46.355 Y-71.854
X-46.826 Y-71.051
X-47.173 Y-70.186
X-47.425 Y-69.29
X-47.608 Y-68.376
X-47.739 Y-67.454
X-47.833 Y-66.527
X-47.901 Y-65.598
X-47.948 Y-64.668
X-48.007 Y-62.806
X-48.045 Y-60.012
X-48.064 Y-54.423
X-48.072 Y-4.124
X-48.079 Y46.175
X-48.081 Y66.202
X-47.994 Y66.659
X-47.655 Y67.527
X-47.067 Y68.249
X-46.33 Y68.819
X-45.508 Y69.258
X-44.638 Y69.59
X-43.74 Y69.838
X-42.827 Y70.022
X-41.906 Y70.158
X-40.98 Y70.258
X-40.051 Y70.331
X-39.121 Y70.384
X-38.19 Y70.423
X-36.328 Y70.472
X-33.534 Y70.505
X-27.014 Y70.523
X-19.562 Y70.526
X30.737 Y70.534
X43.778 Y70.536
X44.234 Y70.444
X45.098 Y70.095
X45.815 Y69.501
X46.382 Y68.762
X46.818 Y67.939
X47.148 Y67.068
X47.394 Y66.17
X47.577 Y65.256
X47.712 Y64.335
X47.811 Y63.408
X47.884 Y62.48
X47.936 Y61.55
X47.975 Y60.619
X48.023 Y58.757
X48.055 Y55.963
X48.073 Y49.442
X48.075 Y34.539
X48.077 Y-15.76
X48.078 Y-66.059
X48.039 Y-66.523
X47.777 Y-67.417
X47.233 Y-68.174
X46.523 Y-68.776
X45.717 Y-69.242
X44.855 Y-69.596
X43.962 Y-69.861
X43.051 Y-70.058
X42.131 Y-70.203
X41.206 Y-70.31
X40.278 Y-70.387
X39.348 Y-70.444
X38.417 Y-70.486
X36.555 Y-70.537
X33.761 Y-70.572
X28.172 Y-70.589
X-0.703 Y-70.588
X-40.756 Y-70.583
X-41.222 Y-70.569
X-42.131 Y-70.366
X-42.916 Y-69.865
X-43.552 Y-69.184
X-44.048 Y-68.396
X-44.428 Y-67.546
X-44.715 Y-66.659
X-44.929 Y-65.753
X-45.088 Y-64.835
X-45.206 Y-63.911
X-45.293 Y-62.984
X-45.356 Y-62.054
X-45.402 Y-61.124
X-45.461 Y-59.262
X-45.502 Y-56.468
X-45.523 Y-50.879
X-45.532 Y-11.758
X-45.534 Y9.738
X-45.541 Y9.88
X-45.562 Y10.022
X-45.596 Y10.16
X-45.772 Y10.76
X-46.116 Y12.169
X-46.425 Y13.65
X-46.649 Y14.92
X-46.777 Y15.767
X-46.94 Y17.036
X-47.079 Y18.518
X-47.167 Y19.999
X-47.214 Y21.481
X-47.208 Y23.174
X-47.14 Y24.867
X-47.054 Y26.137
X-46.98 Y26.983
X-46.83 Y28.323
X-46.6 Y29.946
X-46.453 Y30.793
X-46.254 Y31.851
X-46.121 Y32.486
X-45.967 Y33.404
X-45.837 Y34.327
X-45.746 Y35.254
X-45.683 Y36.183
X-45.64 Y37.114
X-45.588 Y38.976
X-45.555 Y41.77
X-45.54 Y48.29
X-45.541 Y63.194
X-45.419 Y64.117
X-45.004 Y64.951
X-44.386 Y65.648
X-43.641 Y66.207
X-42.818 Y66.643
X-41.949 Y66.979
X-41.053 Y67.234
X-40.142 Y67.427
X-39.222 Y67.571
X-38.296 Y67.679
X-37.368 Y67.759
X-36.439 Y67.819
X-35.508 Y67.863
X-33.646 Y67.919
X-30.852 Y67.959
X-28.058 Y67.975
X-12.859 Y67.987
X-12.732 Y67.993
X-12.606 Y68.011
X-12.483 Y68.04
X-10.89 Y68.443
X-9.622 Y68.725
X-8.776 Y68.894
X-7.508 Y69.116
X-6.192 Y69.31
X-4.971 Y69.437
X-3.28 Y69.597
X-2.646 Y69.639
X-0.109 Y69.72
X0.526 Y69.707
X2.851 Y69.629
X3.908 Y69.54
X6.022 Y69.329
X6.656 Y69.244
X7.925 Y69.047
X9.193 Y68.814
X10.25 Y68.59
X11.169 Y68.435
X12.09 Y68.3
X13.017 Y68.207
X13.946 Y68.142
X14.877 Y68.097
X16.739 Y68.044
X19.533 Y68.01
X26.053 Y67.995
X40.957 Y67.996
X41.868 Y67.802
X42.672 Y67.332
X43.338 Y66.68
X43.866 Y65.914
X44.278 Y65.078
X44.593 Y64.201
X44.833 Y63.301
X45.014 Y62.388
X45.149 Y61.466
X45.25 Y60.54
X45.325 Y59.612
X45.38 Y58.682
X45.421 Y57.751
X45.474 Y55.889
X45.511 Y53.095
X45.526 Y50.3
X45.535 Y35.105
X45.54 Y34.981
X45.556 Y34.857
X45.582 Y34.735
X45.886 Y33.544
X46.254 Y31.851
X46.491 Y30.581
X46.6 Y29.946
X46.824 Y28.369
X46.957 Y27.195
X47.035 Y26.385
X47.128 Y25.079
X47.186 Y23.809
X47.21 Y22.962
X47.211 Y21.481
X47.167 Y19.999
X47.079 Y18.518
X46.94 Y17.036
X46.748 Y15.555
X46.541 Y14.285
X46.341 Y13.227
X46.162 Y12.381
X45.867 Y10.541
X45.767 Y9.615
X45.697 Y8.686
X45.649 Y7.756
X45.615 Y6.825
X45.575 Y4.963
X45.55 Y2.168
X45.537 Y-7.146
X45.538 Y-37.885
Y-63.034
X45.494 Y-63.965
X45.146 Y-64.829
X44.57 Y-65.561
X43.851 Y-66.152
X43.044 Y-66.617
X42.184 Y-66.976
X41.293 Y-67.249
X40.385 Y-67.455
X39.466 Y-67.61
X38.542 Y-67.725
X37.851 Y-67.789
X37.637 Y-67.825
X37.429 Y-67.893
X37.234 Y-67.989
X36.676 Y-68.304
X36.253 Y-68.528
X35.408 Y-68.896
X34.985 Y-69.07
X34.351 Y-69.274
X33.716 Y-69.425
X33.082 Y-69.47
X32.448 Y-69.393
X32.025 Y-69.269
X31.814 Y-69.197
X31.602 Y-69.102
X31.131 Y-68.918
X30.371 Y-68.689
X29.46 Y-68.494
X28.538 Y-68.359
X27.612 Y-68.266
X26.682 Y-68.201
X25.752 Y-68.156
X23.89 Y-68.102
X21.096 Y-68.069
X14.575 Y-68.052
X-18.957 Y-68.046
X-29.741 Y-68.044
X-30.008 Y-68.072
X-30.264 Y-68.154
X-30.498 Y-68.286
X-30.7 Y-68.463
X-31.241 Y-68.887
X-31.397 Y-68.991
X-31.608 Y-69.106
X-31.82 Y-69.201
X-32.158 Y-69.31
X-32.454 Y-69.396
X-33.088 Y-69.472
X-33.722 Y-69.426
X-34.357 Y-69.272
X-34.991 Y-69.068
X-35.202 Y-68.981
X-35.638 Y-68.826
X-36.507 Y-68.593
X-37.423 Y-68.425
X-38.347 Y-68.309
X-39.251 Y-68.084
X-40.053 Y-67.61
X-40.721 Y-66.961
X-41.256 Y-66.198
X-41.675 Y-65.366
X-41.999 Y-64.493
X-42.247 Y-63.595
X-42.434 Y-62.683
X-42.575 Y-61.762
X-42.64 Y-61.221
X-42.679 Y-61.054
X-42.864 Y-60.421
X-42.99 Y-59.786
X-43.102 Y-59.152
X-43.128 Y-58.94
X-43.175 Y-57.882
X-43.181 Y-57.67
X-43.156 Y-57.035
X-43.137 Y-56.824
X-43.062 Y-54.962
X-43.021 Y-53.1
X-42.998 Y-50.305
X-42.988 Y-40.059
X-42.992 Y-6.526
X-42.993 Y2.523
X-43.005 Y2.706
X-43.039 Y2.886
X-43.095 Y3.061
X-43.918 Y5.185
X-44.855 Y7.725
X-44.93 Y7.936
X-45.596 Y10.16
G3 X-45.719 Y10.375 I-0.602 J-0.202
G1 X-45.752 Y10.413 Z-9.998
X-45.784 Y10.45 Z-9.992
X-45.816 Y10.487 Z-9.982
X-45.848 Y10.523 Z-9.969
X-45.879 Y10.558 Z-9.952
X-45.909 Y10.592 Z-9.931
X-45.937 Y10.625 Z-9.906
X-45.964 Y10.656 Z-9.879
X-45.99 Y10.686 Z-9.848
X-46.014 Y10.714 Z-9.814
X-46.036 Y10.739 Z-9.777
X-46.057 Y10.762 Z-9.738
X-46.075 Y10.783 Z-9.697
X-46.091 Y10.802 Z-9.653
X-46.105 Y10.817 Z-9.608
X-46.116 Y10.83 Z-9.561
X-46.125 Y10.841 Z-9.513
X-46.131 Y10.848 Z-9.464
X-46.135 Y10.852 Z-9.415
X-46.136 Y10.854 Z-9.365
G0 Z5.
X-43.95 Y-57.05
Z-8.73
G1 Z-9.365 F2000
X-43.948 Y-57.049 Z-9.415
X-43.942 Z-9.464
X-43.932 Y-57.048 Z-9.513
X-43.919 Y-57.047 Z-9.561
X-43.902 Y-57.045 Z-9.608
X-43.881 Y-57.044 Z-9.653
X-43.857 Y-57.042 Z-9.697
X-43.829 Y-57.039 Z-9.738
X-43.798 Y-57.037 Z-9.777
X-43.765 Y-57.034 Z-9.814
X-43.728 Y-57.031 Z-9.848
X-43.689 Y-57.027 Z-9.879
X-43.648 Y-57.024 Z-9.906
X-43.604 Y-57.02 Z-9.931
X-43.559 Y-57.016 Z-9.952
X-43.513 Y-57.013 Z-9.969
X-43.465 Y-57.008 Z-9.982
X-43.416 Y-57.004 Z-9.992
X-43.367 Y-57. Z-9.998
X-43.317 Y-56.996 Z-10.
G3 X-43.137 Y-56.824 I-0.017 J0.198
G1 X-43.048 Y-55.977
X-42.987 Y-55.554
X-42.424 Y-52.803
X-41.967 Y-50.255
X-41.403 Y-46.877
X-40.954 Y-44.337
X-40.72 Y-42.489
X-40.638 Y-41.561
X-40.581 Y-40.632
X-40.541 Y-39.701
X-40.494 Y-37.839
X-40.464 Y-35.044
X-40.451 Y-27.593
X-40.457 Y-5.381
X-40.497 Y-5.143
X-40.808 Y-3.915
X-41.614 Y-1.164
X-41.889 Y-0.317
X-42.618 Y1.799
X-42.85 Y2.434
X-43.095 Y3.061
G3 X-43.235 Y3.265 I-0.583 J-0.251
G1 X-43.271 Y3.3 Z-9.998
X-43.306 Y3.334 Z-9.992
X-43.341 Y3.368 Z-9.982
X-43.376 Y3.402 Z-9.969
X-43.409 Y3.434 Z-9.952
X-43.442 Y3.466 Z-9.931
X-43.473 Y3.496 Z-9.906
X-43.503 Y3.525 Z-9.879
X-43.531 Y3.553 Z-9.848
X-43.557 Y3.578 Z-9.814
X-43.581 Y3.602 Z-9.777
X-43.604 Y3.623 Z-9.738
X-43.623 Y3.642 Z-9.697
X-43.641 Y3.659 Z-9.653
X-43.656 Y3.674 Z-9.608
X-43.668 Y3.686 Z-9.561
X-43.678 Y3.695 Z-9.513
X-43.685 Y3.702 Z-9.464
X-43.689 Y3.706 Z-9.415
X-43.69 Y3.708 Z-9.365
G0 Z5.
X-41.783 Y-44.496
Z-8.73
G1 Z-9.365 F2000
X-41.781 Z-9.415
X-41.775 Z-9.464
X-41.766 Z-9.513
X-41.752 Z-9.561
X-41.735 Z-9.608
X-41.714 Z-9.653
X-41.689 Z-9.697
X-41.662 Y-44.495 Z-9.738
X-41.631 Z-9.777
X-41.597 Z-9.814
X-41.56 Z-9.848
X-41.521 Z-9.879
X-41.48 Z-9.906
X-41.436 Z-9.931
X-41.391 Z-9.952
X-41.344 Z-9.969
X-41.296 Z-9.982
X-41.247 Z-9.992
X-41.198 Y-44.494 Z-9.998
X-41.148 Z-10.
G3 X-40.954 Y-44.337 I0. J0.198
G1 X-40.349 Y-40.951
X-39.255 Y-35.237
X-38.808 Y-32.274
X-38.623 Y-30.581
X-38.475 Y-29.1
X-38.418 Y-28.253
X-38.282 Y-25.925
X-38.233 Y-22.962
X-38.237 Y-22.327
X-38.31 Y-19.576
X-38.516 Y-16.613
X-38.6 Y-15.767
X-38.892 Y-13.227
X-39.371 Y-10.264
X-39.622 Y-8.994
X-40.065 Y-6.87
X-40.497 Y-5.143
G3 X-40.61 Y-4.923 I-0.61 J-0.176
G1 X-40.641 Y-4.884 Z-9.998
X-40.672 Y-4.845 Z-9.992
X-40.703 Y-4.807 Z-9.982
X-40.733 Y-4.769 Z-9.969
X-40.762 Y-4.733 Z-9.952
X-40.79 Y-4.697 Z-9.931
X-40.817 Y-4.663 Z-9.906
X-40.843 Y-4.631 Z-9.879
X-40.867 Y-4.6 Z-9.848
X-40.89 Y-4.571 Z-9.814
X-40.911 Y-4.545 Z-9.777
X-40.93 Y-4.521 Z-9.738
X-40.948 Y-4.499 Z-9.697
X-40.963 Y-4.48 Z-9.653
X-40.976 Y-4.464 Z-9.608
X-40.987 Y-4.45 Z-9.561
X-40.995 Y-4.44 Z-9.513
X-41.001 Y-4.432 Z-9.464
X-41.005 Y-4.428 Z-9.415
X-41.006 Y-4.426 Z-9.365
G0 Z5.
X-46.955 Y32.361
Z-8.73
G1 Z-9.365 F2000
X-46.953 Z-9.415
X-46.947 Y32.36 Z-9.464
X-46.938 Z-9.513
X-46.924 Y32.359 Z-9.561
X-46.907 Z-9.608
X-46.886 Y32.358 Z-9.653
X-46.862 Y32.357 Z-9.697
X-46.834 Y32.356 Z-9.738
X-46.803 Y32.355 Z-9.777
X-46.769 Y32.354 Z-9.814
X-46.733 Y32.352 Z-9.848
X-46.694 Y32.351 Z-9.879
X-46.652 Y32.349 Z-9.906
X-46.609 Y32.347 Z-9.931
X-46.563 Y32.346 Z-9.952
X-46.517 Y32.344 Z-9.969
X-46.469 Y32.342 Z-9.982
X-46.42 Y32.34 Z-9.992
X-46.37 Y32.338 Z-9.998
X-46.321 Y32.337 Z-10.
G3 X-46.121 Y32.486 I0.008 J0.198
G1 X-45.835 Y33.756
X-45.447 Y35.237
X-45.011 Y36.718
X-44.809 Y37.353
X-44.373 Y38.623
X-44.081 Y39.403
X-43.79 Y40.288
X-43.67 Y40.738
X-43.467 Y41.647
X-43.326 Y42.568
X-43.228 Y43.494
X-43.16 Y44.423
X-43.112 Y45.353
X-43.078 Y46.284
X-43.038 Y48.146
X-43.013 Y50.941
X-43.001 Y59.324
Y60.255
X-42.948 Y61.185
X-42.61 Y62.053
X-42.051 Y62.799
X-41.346 Y63.407
X-40.549 Y63.889
X-39.697 Y64.266
X-38.812 Y64.556
X-37.907 Y64.777
X-36.991 Y64.945
X-36.068 Y65.071
X-35.141 Y65.166
X-34.213 Y65.238
X-33.283 Y65.291
X-32.352 Y65.331
X-30.49 Y65.382
X-27.696 Y65.42
X-22.107 Y65.442
X-19.94 Y65.444
X-19.731 Y65.459
X-19.526 Y65.504
X-19.33 Y65.577
X-18.545 Y65.924
X-17.233 Y66.46
X-15.753 Y67.01
X-14.696 Y67.369
X-13.85 Y67.643
X-12.483 Y68.04
X-12.241 Y68.103
X-11.947 Y68.179
X-11.736 Y68.234
X-11.102 Y68.394
X-10.468 Y68.542
X-10.256 Y68.589
X-9.833 Y68.68
X-9.622 Y68.725
X-9.199 Y68.813
X-8.988 Y68.856
X-8.142 Y69.009
X-7.931 Y69.046
X-7.719 Y69.082
X-7.622 Y69.098
X-7.085 Y69.18
X-6.874 Y69.212
X-6.451 Y69.274
X-6.239 Y69.305
X-5.605 Y69.376
X-5.394 Y69.397
X-3.491 Y69.58
X-2.857 Y69.629
X-2.646 Y69.639
X-0.109 Y69.72
X0.103
X2.64 Y69.639
X2.851 Y69.629
X3.274 Y69.597
X3.485 Y69.581
X5.388 Y69.397
X5.599 Y69.376
X6.234 Y69.305
X6.868 Y69.213
X7.622 Y69.098
X7.925 Y69.047
X8.136 Y69.01
X8.982 Y68.857
X9.193 Y68.814
X9.616 Y68.726
X9.827 Y68.682
X10.007 Y68.643
X10.25 Y68.59
X11.307 Y68.342
X12.576 Y68.014
X14.056 Y67.577
X15.535 Y67.086
X16.593 Y66.703
X17.227 Y66.462
X18.019 Y66.196
X18.923 Y65.971
X19.841 Y65.815
X20.766 Y65.707
X21.695 Y65.631
X22.625 Y65.578
X23.556 Y65.541
X25.418 Y65.497
X28.212 Y65.469
X35.664 Y65.456
X38.458 Y65.455
X39.354 Y65.199
X40.138 Y64.697
X40.787 Y64.028
X41.306 Y63.255
X41.713 Y62.417
X42.027 Y61.54
X42.267 Y60.64
X42.45 Y59.727
X42.587 Y58.805
X42.691 Y57.88
X42.769 Y56.951
X42.827 Y56.022
X42.87 Y55.091
X42.926 Y53.229
X42.967 Y50.435
X42.991 Y44.846
X42.993 Y42.338
X43.007 Y42.138
X43.048 Y41.941
X43.115 Y41.751
X43.729 Y40.316
X44.295 Y38.835
X44.593 Y37.988
X44.947 Y36.93
X45.388 Y35.449
X45.582 Y34.735
X45.644 Y34.494
X45.835 Y33.756
X45.886 Y33.544
X46.028 Y32.909
X46.167 Y32.274
X46.189 Y32.168
X46.298 Y31.639
X46.338 Y31.428
X46.568 Y30.158
X46.663 Y29.523
X46.754 Y28.888
X46.784 Y28.676
X46.839 Y28.253
X46.866 Y28.041
X47.003 Y26.772
X47.022 Y26.56
X47.07 Y25.925
X47.116 Y25.29
X47.152 Y24.655
X47.162 Y24.444
X47.186 Y23.809
X47.201 Y23.385
X47.208 Y23.174
X47.216 Y21.904
X47.214 Y21.692
X47.208 Y21.269
X47.184 Y20.423
X47.158 Y19.788
X47.146 Y19.576
X47.107 Y18.941
X47.079 Y18.518
X47.064 Y18.306
X46.94 Y17.036
X46.915 Y16.825
X46.861 Y16.402
X46.833 Y16.19
X46.748 Y15.555
X46.649 Y14.92
X46.613 Y14.709
X46.541 Y14.285
X46.504 Y14.074
X46.401 Y13.519
X46.385 Y13.439
X46.253 Y12.804
X46.214 Y12.624
X46.162 Y12.381
X45.911 Y11.322
X45.753 Y10.687
X44.921 Y7.91
X44.287 Y6.178
X43.997 Y5.397
X43.716 Y4.508
X43.499 Y3.603
X43.348 Y2.683
X43.243 Y1.758
X43.17 Y0.829
X43.118 Y-0.101
X43.082 Y-1.031
X43.039 Y-2.894
X43.011 Y-5.688
X42.997 Y-14.071
X42.998 Y-44.81
X43. Y-55.435
X43.018 Y-55.581
X43.093 Y-56.189
X43.166 Y-57.035
X43.188 Y-57.67
X43.153 Y-58.517
X43.146 Y-59.448
X43.101 Y-60.378
X43.014 Y-61.306
X42.656 Y-62.166
X42.077 Y-62.906
X41.935 Y-63.043
X41.812 Y-63.198
X41.711 Y-63.368
G3 X42.062 Y-64.23 I0.576 J-0.268
X42.896 Y-63.816 I0.225 J0.594
G1 X44.394 Y-58.755
G3 X43.905 Y-57.952 I-0.609 J0.18
X43.153 Y-58.517 I-0.12 J-0.624
G1 X43.128 Y-58.94
X43.065 Y-59.363
X42.91 Y-60.21
X42.863 Y-60.421
X42.678 Y-61.056
X42.47 Y-61.691
X42.309 Y-62.114
X41.811 Y-63.173
X41.703 Y-63.384
X41.448 Y-63.807
X41.046 Y-64.442
X40.735 Y-64.866
X40.394 Y-65.289
X40.042 Y-65.712
X39.634 Y-66.135
X38.944 Y-66.77
X38.579 Y-67.078
X37.733 Y-67.684
X37.268 Y-67.969
X37.234 Y-67.989
X37.099 Y-68.069
X37.019 Y-68.115
X36.888 Y-68.19
X36.382 Y-68.463
X36.253 Y-68.528
X35.619 Y-68.809
X34.985 Y-69.07
X34.901 Y-69.098
X34.351 Y-69.274
X34.213 Y-69.31
X33.716 Y-69.425
X33.505 Y-69.444
X33.082 Y-69.47
X32.659 Y-69.423
X32.448 Y-69.393
X32.025 Y-69.269
X31.83 Y-69.203
X31.814 Y-69.197
X31.602 Y-69.102
X31.391 Y-68.987
X31.18 Y-68.839
X30.698 Y-68.463
X30.502 Y-68.252
X30.329 Y-68.04
X30.183 Y-67.859
X30.01 Y-67.677
X29.791 Y-67.48
X29.519 Y-67.273
X29.173 Y-67.05
X28.74 Y-66.819
X28.184 Y-66.577
X27.453 Y-66.327
X26.551 Y-66.097
X25.634 Y-65.932
X24.71 Y-65.814
X23.782 Y-65.729
X22.853 Y-65.668
X21.922 Y-65.624
X20.06 Y-65.569
X17.266 Y-65.532
X11.677 Y-65.513
X-19.992 Y-65.506
X-27.444 Y-65.505
X-28.376 Y-65.532
X-28.666 Y-65.593
X-28.939 Y-65.71
X-29.183 Y-65.879
X-29.388 Y-66.093
X-29.546 Y-66.344
X-29.651 Y-66.622
X-29.758 Y-66.982
X-29.842 Y-67.194
X-30.004 Y-67.522
G3 X-30.065 Y-67.762 I0.573 J-0.274
G1 X-30.068 Y-67.811 Z-9.998
X-30.071 Y-67.861 Z-9.992
X-30.073 Y-67.91 Z-9.982
X-30.076 Y-67.958 Z-9.969
X-30.078 Y-68.004 Z-9.952
X-30.081 Y-68.05 Z-9.931
X-30.083 Y-68.093 Z-9.906
X-30.085 Y-68.134 Z-9.879
X-30.087 Y-68.173 Z-9.848
X-30.089 Y-68.21 Z-9.814
X-30.091 Y-68.244 Z-9.777
X-30.093 Y-68.275 Z-9.738
X-30.094 Y-68.302 Z-9.697
X-30.096 Y-68.327 Z-9.653
X-30.097 Y-68.347 Z-9.608
X-30.098 Y-68.365 Z-9.561
Y-68.378 Z-9.513
X-30.099 Y-68.388 Z-9.464
Y-68.394 Z-9.415
Y-68.396 Z-9.365
G0 Z5.
X-35.226 Y-69.824
Z-8.73
G1 Z-9.365 F2000
X-35.225 Y-69.822 Z-9.415
X-35.224 Y-69.817 Z-9.464
X-35.222 Y-69.807 Z-9.513
X-35.219 Y-69.794 Z-9.561
X-35.215 Y-69.777 Z-9.608
X-35.211 Y-69.757 Z-9.653
X-35.206 Y-69.733 Z-9.697
X-35.2 Y-69.706 Z-9.738
X-35.193 Y-69.676 Z-9.777
X-35.186 Y-69.643 Z-9.814
X-35.178 Y-69.607 Z-9.848
X-35.17 Y-69.568 Z-9.879
X-35.161 Y-69.528 Z-9.906
X-35.152 Y-69.485 Z-9.931
X-35.142 Y-69.441 Z-9.952
X-35.132 Y-69.396 Z-9.969
X-35.122 Y-69.349 Z-9.982
X-35.112 Y-69.301 Z-9.992
X-35.101 Y-69.252 Z-9.998
X-35.09 Y-69.204 Z-10.
G3 X-35.202 Y-68.981 I-0.194 J0.042
G1 X-35.921 Y-68.675
X-36.382 Y-68.463
X-37.105 Y-68.066
X-37.528 Y-67.815
X-37.827 Y-67.617
X-38.585 Y-67.074
X-39.007 Y-66.714
X-39.642 Y-66.129
X-40.065 Y-65.685
X-40.571 Y-65.077
X-40.91 Y-64.635
X-41.122 Y-64.323
X-41.581 Y-63.596
X-41.756 Y-63.281
X-42.113 Y-62.538
X-42.309 Y-62.114
X-42.47 Y-61.691
X-42.679 Y-61.054
G3 X-42.802 Y-60.838 I-0.602 J-0.202
G1 X-42.835 Y-60.801 Z-9.998
X-42.867 Y-60.763 Z-9.992
X-42.899 Y-60.727 Z-9.982
X-42.931 Y-60.69 Z-9.969
X-42.961 Y-60.655 Z-9.952
X-42.991 Y-60.621 Z-9.931
X-43.02 Y-60.588 Z-9.906
X-43.047 Y-60.557 Z-9.879
X-43.073 Y-60.527 Z-9.848
X-43.097 Y-60.5 Z-9.814
X-43.119 Y-60.474 Z-9.777
X-43.139 Y-60.451 Z-9.738
X-43.157 Y-60.43 Z-9.697
X-43.173 Y-60.411 Z-9.653
X-43.187 Y-60.396 Z-9.608
X-43.198 Y-60.383 Z-9.561
X-43.207 Y-60.372 Z-9.513
X-43.214 Y-60.365 Z-9.464
X-43.217 Y-60.361 Z-9.415
X-43.219 Y-60.359 Z-9.365
G0 Z5.
X29.868 Y-68.747
Z-8.73
G1 Z-9.365 F2000
X29.869 Y-68.745 Z-9.415
X29.873 Y-68.741 Z-9.464
X29.88 Y-68.734 Z-9.513
X29.889 Y-68.724 Z-9.561
X29.901 Y-68.712 Z-9.608
X29.916 Y-68.697 Z-9.653
X29.932 Y-68.679 Z-9.697
X29.952 Y-68.659 Z-9.738
X29.973 Y-68.637 Z-9.777
X29.996 Y-68.612 Z-9.814
X30.022 Y-68.586 Z-9.848
X30.049 Y-68.558 Z-9.879
X30.078 Y-68.528 Z-9.906
X30.108 Y-68.497 Z-9.931
X30.139 Y-68.464 Z-9.952
X30.171 Y-68.43 Z-9.969
X30.205 Y-68.395 Z-9.982
X30.239 Y-68.36 Z-9.992
X30.273 Y-68.324 Z-9.998
X30.307 Y-68.289 Z-10.
G3 X30.329 Y-68.04 I-0.143 J0.137
G1 X30.123 Y-67.747
X29.911 Y-67.351
X29.754 Y-66.982
X29.688 Y-66.77
X29.648 Y-66.642
X29.58 Y-66.476
X29.483 Y-66.284
X29.366 Y-66.093
X29.212 Y-65.88
X29.007 Y-65.641
X28.773 Y-65.409
X28.472 Y-65.154
X28.107 Y-64.894
X27.651 Y-64.62
X27.096 Y-64.345
X26.383 Y-64.06
X25.493 Y-63.785
X24.585 Y-63.579
X23.666 Y-63.425
X22.742 Y-63.309
X21.814 Y-63.222
X20.885 Y-63.158
X19.955 Y-63.109
X18.093 Y-63.047
X15.299 Y-63.001
X10.642 Y-62.976
X-19.165 Y-62.966
X-25.685 Y-62.968
X-26.617 Y-62.984
X-27.296 Y-63.042
X-27.821 Y-63.13
X-28.285 Y-63.246
X-28.505 Y-63.32
X-28.783 Y-63.448
X-29.03 Y-63.631
X-29.234 Y-63.86
X-29.386 Y-64.127
X-29.48 Y-64.419
X-29.511 Y-64.724
X-29.517 Y-65.712
X-29.554 Y-66.135
X-29.595 Y-66.382
X-29.651 Y-66.622
G3 X-29.659 Y-66.869 I0.619 J-0.143
G1 X-29.651 Y-66.918 Z-9.998
X-29.643 Y-66.967 Z-9.992
X-29.635 Y-67.015 Z-9.982
X-29.627 Y-67.063 Z-9.969
X-29.619 Y-67.109 Z-9.952
X-29.612 Y-67.154 Z-9.931
X-29.604 Y-67.197 Z-9.906
X-29.598 Y-67.237 Z-9.879
X-29.591 Y-67.276 Z-9.848
X-29.585 Y-67.312 Z-9.814
X-29.58 Y-67.346 Z-9.777
X-29.574 Y-67.376 Z-9.738
X-29.57 Y-67.403 Z-9.697
X-29.566 Y-67.427 Z-9.653
X-29.562 Y-67.448 Z-9.608
X-29.56 Y-67.465 Z-9.561
X-29.557 Y-67.478 Z-9.513
X-29.556 Y-67.488 Z-9.464
X-29.555 Y-67.494 Z-9.415
Y-67.496 Z-9.365
G0 Z5.
X29.002 Y-67.261
Z-8.73
G1 Z-9.365 F2000
X29.004 Y-67.26 Z-9.415
X29.009 Y-67.258 Z-9.464
X29.018 Y-67.254 Z-9.513
X29.03 Y-67.248 Z-9.561
X29.046 Y-67.241 Z-9.608
X29.065 Y-67.232 Z-9.653
X29.087 Y-67.222 Z-9.697
X29.112 Y-67.21 Z-9.738
X29.14 Y-67.197 Z-9.777
X29.171 Y-67.183 Z-9.814
X29.204 Y-67.167 Z-9.848
X29.24 Y-67.151 Z-9.879
X29.277 Y-67.133 Z-9.906
X29.317 Y-67.115 Z-9.931
X29.358 Y-67.096 Z-9.952
X29.4 Y-67.076 Z-9.969
X29.444 Y-67.056 Z-9.982
X29.488 Y-67.036 Z-9.992
X29.533 Y-67.015 Z-9.998
X29.578 Y-66.994 Z-10.
G3 X29.688 Y-66.77 I-0.083 J0.18
G1 X29.587 Y-66.347
X29.533 Y-65.924
X29.517 Y-65.712
X29.513 Y-65.501
X29.503 Y-65.318
X29.48 Y-65.158
X29.439 Y-64.972
X29.381 Y-64.782
X29.292 Y-64.559
X29.181 Y-64.334
X29.032 Y-64.086
X28.84 Y-63.815
X28.614 Y-63.547
X28.312 Y-63.243
X27.975 Y-62.953
X27.537 Y-62.634
X27.035 Y-62.326
X26.399 Y-62.004
X25.604 Y-61.678
X24.717 Y-61.395
X23.812 Y-61.175
X22.896 Y-61.003
X21.975 Y-60.87
X21.049 Y-60.767
X20.121 Y-60.688
X19.191 Y-60.626
X18.261 Y-60.579
X16.399 Y-60.516
X13.605 Y-60.467
X8.948 Y-60.438
X-12.476 Y-60.427
X-18.996 Y-60.426
X-23.653 Y-60.427
X-24.585 Y-60.433
X-25.516 Y-60.462
X-26.444 Y-60.533
X-27.218 Y-60.644
X-27.778 Y-60.771
X-28.256 Y-60.92
X-28.692 Y-61.098
X-28.967 Y-61.275
X-29.196 Y-61.509
X-29.368 Y-61.788
X-29.475 Y-62.098
X-29.511 Y-62.423
Y-64.724
G3 X-29.455 Y-64.965 I0.635 J0.022
G1 X-29.434 Y-65.01 Z-9.998
X-29.413 Y-65.055 Z-9.992
X-29.393 Y-65.1 Z-9.982
X-29.373 Y-65.143 Z-9.969
X-29.354 Y-65.186 Z-9.952
X-29.335 Y-65.227 Z-9.931
X-29.317 Y-65.267 Z-9.906
X-29.3 Y-65.305 Z-9.879
X-29.284 Y-65.34 Z-9.848
X-29.268 Y-65.373 Z-9.814
X-29.254 Y-65.404 Z-9.777
X-29.242 Y-65.432 Z-9.738
X-29.23 Y-65.458 Z-9.697
X-29.22 Y-65.48 Z-9.653
X-29.211 Y-65.499 Z-9.608
X-29.204 Y-65.514 Z-9.561
X-29.199 Y-65.527 Z-9.513
X-29.195 Y-65.536 Z-9.464
X-29.192 Y-65.541 Z-9.415
X-29.191 Y-65.543 Z-9.365
G0 Z5.
X28.727 Y-65.807
Z-8.73
G1 Z-9.365 F2000
X28.729 Y-65.806 Z-9.415
X28.734 Y-65.805 Z-9.464
X28.744 Y-65.803 Z-9.513
X28.757 Y-65.801 Z-9.561
X28.774 Y-65.798 Z-9.608
X28.795 Y-65.794 Z-9.653
X28.819 Y-65.789 Z-9.697
X28.846 Y-65.784 Z-9.738
X28.876 Y-65.779 Z-9.777
X28.91 Y-65.772 Z-9.814
X28.946 Y-65.766 Z-9.848
X28.984 Y-65.759 Z-9.879
X29.025 Y-65.751 Z-9.906
X29.068 Y-65.743 Z-9.931
X29.112 Y-65.735 Z-9.952
X29.158 Y-65.726 Z-9.969
X29.205 Y-65.717 Z-9.982
X29.253 Y-65.708 Z-9.992
X29.302 Y-65.699 Z-9.998
X29.351 Y-65.69 Z-10.
G3 X29.513 Y-65.501 I-0.036 J0.195
G1 X29.511 Y-63.596
X29.505 Y-63.461
X29.478 Y-63.262
X29.431 Y-63.049
X29.361 Y-62.817
X29.26 Y-62.561
X29.131 Y-62.298
X28.954 Y-62.
X28.747 Y-61.709
X28.468 Y-61.375
X28.154 Y-61.056
X27.742 Y-60.7
X27.279 Y-60.361
X26.693 Y-59.999
X25.979 Y-59.635
X25.118 Y-59.279
X24.232 Y-58.993
X23.329 Y-58.762
X22.416 Y-58.578
X21.496 Y-58.432
X20.572 Y-58.315
X19.645 Y-58.222
X18.717 Y-58.149
X17.787 Y-58.092
X15.926 Y-58.011
X14.064 Y-57.962
X11.27 Y-57.922
X5.681 Y-57.895
X-18.537 Y-57.886
X-22.263 Y-57.888
X-23.195 Y-57.896
X-24.126 Y-57.92
X-25.056 Y-57.967
X-25.984 Y-58.05
X-26.905 Y-58.186
X-27.591 Y-58.338
X-28.122 Y-58.502
X-28.584 Y-58.687
X-28.688 Y-58.738
X-28.964 Y-58.915
X-29.194 Y-59.15
X-29.368 Y-59.429
X-29.475 Y-59.739
X-29.511 Y-60.066
Y-62.423
G3 X-29.455 Y-62.664 I0.635 J0.022
G1 X-29.434 Y-62.709 Z-9.998
X-29.413 Y-62.755 Z-9.992
X-29.393 Y-62.799 Z-9.982
X-29.373 Y-62.843 Z-9.969
X-29.354 Y-62.885 Z-9.952
X-29.335 Y-62.926 Z-9.931
X-29.317 Y-62.966 Z-9.906
X-29.3 Y-63.004 Z-9.879
X-29.284 Y-63.039 Z-9.848
X-29.268 Y-63.073 Z-9.814
X-29.254 Y-63.104 Z-9.777
X-29.242 Y-63.132 Z-9.738
X-29.23 Y-63.157 Z-9.697
X-29.22 Y-63.179 Z-9.653
X-29.211 Y-63.198 Z-9.608
X-29.204 Y-63.214 Z-9.561
X-29.199 Y-63.226 Z-9.513
X-29.195 Y-63.235 Z-9.464
X-29.192 Y-63.24 Z-9.415
X-29.191 Y-63.242 Z-9.365
G0 Z5.
X28.723 Y-63.896
Z-8.73
G1 Z-9.365 F2000
X28.725 Z-9.415
X28.731 Y-63.895 Z-9.464
X28.74 Y-63.893 Z-9.513
X28.754 Y-63.891 Z-9.561
X28.771 Y-63.888 Z-9.608
X28.791 Y-63.884 Z-9.653
X28.815 Y-63.88 Z-9.697
X28.842 Y-63.875 Z-9.738
X28.873 Y-63.869 Z-9.777
X28.906 Y-63.863 Z-9.814
X28.942 Y-63.857 Z-9.848
X28.981 Y-63.85 Z-9.879
X29.022 Y-63.843 Z-9.906
X29.064 Y-63.835 Z-9.931
X29.109 Y-63.827 Z-9.952
X29.155 Y-63.819 Z-9.969
X29.202 Y-63.81 Z-9.982
X29.25 Y-63.802 Z-9.992
X29.299 Y-63.793 Z-9.998
X29.348 Y-63.784 Z-10.
G3 X29.511 Y-63.596 I-0.035 J0.195
G1 Y-61.691
X29.496 Y-61.384
X29.47 Y-61.183
X29.419 Y-60.946
X29.346 Y-60.703
X29.24 Y-60.431
X29.099 Y-60.139
X28.919 Y-59.834
X28.682 Y-59.496
X28.404 Y-59.162
X28.039 Y-58.787
X27.627 Y-58.428
X27.108 Y-58.044
X26.475 Y-57.65
X25.725 Y-57.263
X24.865 Y-56.904
X23.982 Y-56.608
X23.083 Y-56.366
X22.172 Y-56.168
X21.255 Y-56.007
X20.333 Y-55.876
X19.407 Y-55.77
X18.48 Y-55.684
X17.551 Y-55.615
X16.621 Y-55.559
X14.76 Y-55.48
X12.898 Y-55.429
X10.104 Y-55.387
X5.446 Y-55.359
X-12.251 Y-55.347
X-18.772 Y-55.346
X-21.566 Y-55.354
X-22.497 Y-55.369
X-23.428 Y-55.398
X-24.359 Y-55.447
X-25.287 Y-55.523
X-26.211 Y-55.64
X-27.127 Y-55.811
X-27.801 Y-55.991
X-28.3 Y-56.169
X-28.636 Y-56.319
X-28.882 Y-56.46
X-29.098 Y-56.644
X-29.274 Y-56.866
X-29.404 Y-57.118
X-29.484 Y-57.389
X-29.511 Y-57.671
Y-60.066
G3 X-29.455 Y-60.307 I0.635 J0.022
G1 X-29.434 Y-60.352 Z-9.998
X-29.413 Y-60.397 Z-9.992
X-29.393 Y-60.442 Z-9.982
X-29.373 Y-60.485 Z-9.969
X-29.354 Y-60.528 Z-9.952
X-29.335 Y-60.569 Z-9.931
X-29.317 Y-60.609 Z-9.906
X-29.3 Y-60.646 Z-9.879
X-29.284 Y-60.682 Z-9.848
X-29.268 Y-60.715 Z-9.814
X-29.254 Y-60.746 Z-9.777
X-29.242 Y-60.774 Z-9.738
X-29.23 Y-60.799 Z-9.697
X-29.22 Y-60.822 Z-9.653
X-29.211 Y-60.841 Z-9.608
X-29.204 Y-60.856 Z-9.561
X-29.199 Y-60.869 Z-9.513
X-29.195 Y-60.877 Z-9.464
X-29.192 Y-60.883 Z-9.415
X-29.191 Y-60.885 Z-9.365
G0 Z5.
X28.723 Y-61.992
Z-8.73
G1 Z-9.365 F2000
X28.725 Y-61.991 Z-9.415
X28.731 Y-61.99 Z-9.464
X28.74 Y-61.988 Z-9.513
X28.754 Y-61.986 Z-9.561
X28.771 Y-61.983 Z-9.608
X28.791 Y-61.979 Z-9.653
X28.815 Y-61.975 Z-9.697
X28.842 Y-61.97 Z-9.738
X28.873 Y-61.965 Z-9.777
X28.906 Y-61.959 Z-9.814
X28.942 Y-61.952 Z-9.848
X28.981 Y-61.945 Z-9.879
X29.022 Y-61.938 Z-9.906
X29.064 Y-61.93 Z-9.931
X29.109 Y-61.922 Z-9.952
X29.155 Y-61.914 Z-9.969
X29.202 Y-61.906 Z-9.982
X29.25 Y-61.897 Z-9.992
X29.299 Y-61.888 Z-9.998
X29.348 Y-61.88 Z-10.
G3 X29.511 Y-61.691 I-0.035 J0.195
G1 Y-59.363
X29.504 Y-59.216
X29.476 Y-58.999
X29.425 Y-58.76
X29.344 Y-58.491
X29.237 Y-58.216
X29.082 Y-57.897
X28.897 Y-57.583
X28.645 Y-57.223
X28.353 Y-56.872
X27.969 Y-56.478
X27.534 Y-56.099
X26.981 Y-55.69
X26.312 Y-55.273
X25.511 Y-54.86
X24.651 Y-54.501
X23.769 Y-54.201
X22.872 Y-53.951
X21.964 Y-53.744
X21.048 Y-53.572
X20.128 Y-53.43
X19.204 Y-53.313
X18.277 Y-53.216
X17.349 Y-53.137
X16.42 Y-53.073
X14.559 Y-52.978
X12.697 Y-52.916
X9.904 Y-52.862
X6.178 Y-52.829
X-2.205 Y-52.81
X-18.04 Y-52.806
X-20.834 Y-52.822
X-21.766 Y-52.84
X-22.697 Y-52.87
X-23.627 Y-52.917
X-24.556 Y-52.986
X-25.482 Y-53.087
X-26.403 Y-53.229
X-27.312 Y-53.424
X-27.944 Y-53.614
X-28.456 Y-53.814
X-28.678 Y-53.923
X-28.957 Y-54.099
X-29.19 Y-54.334
X-29.366 Y-54.614
X-29.475 Y-54.926
X-29.511 Y-55.255
Y-57.671
G3 X-29.455 Y-57.912 I0.635 J0.022
G1 X-29.434 Y-57.958 Z-9.998
X-29.413 Y-58.003 Z-9.992
X-29.393 Y-58.047 Z-9.982
X-29.373 Y-58.091 Z-9.969
X-29.354 Y-58.134 Z-9.952
X-29.335 Y-58.175 Z-9.931
X-29.317 Y-58.214 Z-9.906
X-29.3 Y-58.252 Z-9.879
X-29.284 Y-58.288 Z-9.848
X-29.268 Y-58.321 Z-9.814
X-29.254 Y-58.352 Z-9.777
X-29.242 Y-58.38 Z-9.738
X-29.23 Y-58.405 Z-9.697
X-29.22 Y-58.427 Z-9.653
X-29.211 Y-58.446 Z-9.608
X-29.204 Y-58.462 Z-9.561
X-29.199 Y-58.474 Z-9.513
X-29.195 Y-58.483 Z-9.464
X-29.192 Y-58.488 Z-9.415
X-29.191 Y-58.49 Z-9.365
G0 Z5.
X28.723 Y-59.664
Z-8.73
G1 Z-9.365 F2000
X28.725 Y-59.663 Z-9.415
X28.731 Y-59.662 Z-9.464
X28.74 Y-59.661 Z-9.513
X28.754 Y-59.658 Z-9.561
X28.771 Y-59.655 Z-9.608
X28.791 Y-59.651 Z-9.653
X28.815 Y-59.647 Z-9.697
X28.842 Y-59.642 Z-9.738
X28.873 Y-59.637 Z-9.777
X28.906 Y-59.631 Z-9.814
X28.942 Y-59.624 Z-9.848
X28.981 Y-59.617 Z-9.879
X29.022 Y-59.61 Z-9.906
X29.064 Y-59.602 Z-9.931
X29.109 Y-59.594 Z-9.952
X29.155 Y-59.586 Z-9.969
X29.202 Y-59.578 Z-9.982
X29.25 Y-59.569 Z-9.992
X29.299 Y-59.56 Z-9.998
X29.348 Y-59.552 Z-10.
G3 X29.511 Y-59.363 I-0.035 J0.195
G1 Y-57.247
X29.497 Y-56.962
X29.467 Y-56.733
X29.416 Y-56.494
X29.332 Y-56.213
X29.222 Y-55.932
X29.066 Y-55.609
X28.87 Y-55.277
X28.617 Y-54.916
X28.303 Y-54.538
X27.918 Y-54.143
X27.455 Y-53.74
X26.876 Y-53.311
X26.182 Y-52.879
X25.355 Y-52.452
X24.496 Y-52.092
X23.615 Y-51.788
X22.72 Y-51.531
X21.814 Y-51.315
X20.9 Y-51.134
X19.981 Y-50.982
X19.058 Y-50.856
X18.133 Y-50.75
X17.205 Y-50.662
X16.277 Y-50.589
X15.347 Y-50.529
X13.487 Y-50.439
X11.625 Y-50.379
X8.831 Y-50.325
X5.105 Y-50.291
X-3.278 Y-50.27
X-18.182
X-20.044 Y-50.287
X-20.976 Y-50.306
X-21.907 Y-50.335
X-22.837 Y-50.378
X-23.767 Y-50.44
X-24.694 Y-50.527
X-25.618 Y-50.646
X-26.535 Y-50.806
X-27.401 Y-51.008
X-28.041 Y-51.214
X-28.54 Y-51.419
X-28.702 Y-51.502
X-28.974 Y-51.681
X-29.201 Y-51.914
X-29.37 Y-52.192
X-29.476 Y-52.499
X-29.511 Y-52.822
Y-55.255
G3 X-29.455 Y-55.496 I0.635 J0.022
G1 X-29.434 Y-55.541 Z-9.998
X-29.413 Y-55.586 Z-9.992
X-29.393 Y-55.631 Z-9.982
X-29.373 Y-55.675 Z-9.969
X-29.354 Y-55.717 Z-9.952
X-29.335 Y-55.758 Z-9.931
X-29.317 Y-55.798 Z-9.906
X-29.3 Y-55.836 Z-9.879
X-29.284 Y-55.871 Z-9.848
X-29.268 Y-55.905 Z-9.814
X-29.254 Y-55.935 Z-9.777
X-29.242 Y-55.963 Z-9.738
X-29.23 Y-55.989 Z-9.697
X-29.22 Y-56.011 Z-9.653
X-29.211 Y-56.03 Z-9.608
X-29.204 Y-56.046 Z-9.561
X-29.199 Y-56.058 Z-9.513
X-29.195 Y-56.067 Z-9.464
X-29.192 Y-56.072 Z-9.415
X-29.191 Y-56.074 Z-9.365
G0 Z5.
X28.723 Y-57.547
Z-8.73
G1 Z-9.365 F2000
X28.725 Z-9.415
X28.731 Y-57.546 Z-9.464
X28.74 Y-57.544 Z-9.513
X28.754 Y-57.542 Z-9.561
X28.771 Y-57.539 Z-9.608
X28.791 Y-57.535 Z-9.653
X28.815 Y-57.531 Z-9.697
X28.842 Y-57.526 Z-9.738
X28.873 Y-57.52 Z-9.777
X28.906 Y-57.514 Z-9.814
X28.942 Y-57.508 Z-9.848
X28.981 Y-57.501 Z-9.879
X29.022 Y-57.494 Z-9.906
X29.064 Y-57.486 Z-9.931
X29.109 Y-57.478 Z-9.952
X29.155 Y-57.47 Z-9.969
X29.202 Y-57.461 Z-9.982
X29.25 Y-57.453 Z-9.992
X29.299 Y-57.444 Z-9.998
X29.348 Y-57.435 Z-10.
G3 X29.511 Y-57.247 I-0.035 J0.195
G1 Y-54.919
X29.499 Y-54.673
X29.468 Y-54.435
X29.416 Y-54.193
X29.331 Y-53.91
X29.216 Y-53.614
X29.06 Y-53.292
X28.853 Y-52.941
X28.6 Y-52.58
X28.268 Y-52.181
X27.882 Y-51.784
X27.398 Y-51.363
X26.798 Y-50.919
X26.084 Y-50.474
X25.256 Y-50.047
X24.398 Y-49.684
X23.52 Y-49.374
X22.626 Y-49.111
X21.722 Y-48.887
X20.81 Y-48.697
X19.893 Y-48.536
X18.971 Y-48.4
X18.047 Y-48.286
X17.121 Y-48.189
X16.193 Y-48.109
X15.264 Y-48.041
X13.404 Y-47.938
X11.542 Y-47.868
X8.748 Y-47.802
X5.023 Y-47.759
X-1.497 Y-47.734
X-16.401 Y-47.729
X-18.264 Y-47.739
X-20.127 Y-47.768
X-21.058 Y-47.796
X-21.988 Y-47.834
X-22.918 Y-47.889
X-23.847 Y-47.963
X-24.773 Y-48.063
X-25.695 Y-48.194
X-26.61 Y-48.367
X-27.471 Y-48.58
X-28.1 Y-48.79
X-28.593 Y-49.001
X-28.719 Y-49.067
X-28.986 Y-49.246
X-29.207 Y-49.479
X-29.374 Y-49.754
X-29.477 Y-50.059
X-29.511 Y-50.378
Y-52.822
G3 X-29.455 Y-53.064 I0.635 J0.022
G1 X-29.434 Y-53.109 Z-9.998
X-29.413 Y-53.154 Z-9.992
X-29.393 Y-53.199 Z-9.982
X-29.373 Y-53.242 Z-9.969
X-29.354 Y-53.285 Z-9.952
X-29.335 Y-53.326 Z-9.931
X-29.317 Y-53.366 Z-9.906
X-29.3 Y-53.403 Z-9.879
X-29.284 Y-53.439 Z-9.848
X-29.268 Y-53.472 Z-9.814
X-29.254 Y-53.503 Z-9.777
X-29.242 Y-53.531 Z-9.738
X-29.23 Y-53.556 Z-9.697
X-29.22 Y-53.578 Z-9.653
X-29.211 Y-53.597 Z-9.608
X-29.204 Y-53.613 Z-9.561
X-29.199 Y-53.625 Z-9.513
X-29.195 Y-53.634 Z-9.464
X-29.192 Y-53.64 Z-9.415
X-29.191 Y-53.641 Z-9.365
G0 Z5.
X28.723 Y-55.219
Z-8.73
G1 Z-9.365 F2000
X28.725 Z-9.415
X28.731 Y-55.218 Z-9.464
X28.74 Y-55.216 Z-9.513
X28.754 Y-55.214 Z-9.561
X28.771 Y-55.211 Z-9.608
X28.791 Y-55.207 Z-9.653
X28.815 Y-55.203 Z-9.697
X28.842 Y-55.198 Z-9.738
X28.873 Y-55.192 Z-9.777
X28.906 Y-55.187 Z-9.814
X28.942 Y-55.18 Z-9.848
X28.981 Y-55.173 Z-9.879
X29.022 Y-55.166 Z-9.906
X29.064 Y-55.158 Z-9.931
X29.109 Y-55.15 Z-9.952
X29.155 Y-55.142 Z-9.969
X29.202 Y-55.133 Z-9.982
X29.25 Y-55.125 Z-9.992
X29.299 Y-55.116 Z-9.998
X29.348 Y-55.107 Z-10.
G3 X29.511 Y-54.919 I-0.035 J0.195
G1 Y-52.591
X29.499 Y-52.346
X29.468 Y-52.104
X29.415 Y-51.857
X29.33 Y-51.574
X29.21 Y-51.267
X29.054 Y-50.944
X28.839 Y-50.579
X28.586 Y-50.219
X28.244 Y-49.807
X27.853 Y-49.406
X27.355 Y-48.972
X26.739 Y-48.516
X26.002 Y-48.057
X25.174 Y-47.63
X24.317 Y-47.264
X23.44 Y-46.951
X22.548 Y-46.682
X21.646 Y-46.451
X20.736 Y-46.254
X19.819 Y-46.086
X18.899 Y-45.942
X17.976 Y-45.82
X17.05 Y-45.716
X16.123 Y-45.628
X15.194 Y-45.554
X14.265 Y-45.491
X12.404 Y-45.395
X10.543 Y-45.327
X7.749 Y-45.264
X4.024 Y-45.221
X-2.497 Y-45.195
X-15.537 Y-45.19
X-18.331 Y-45.212
X-20.194 Y-45.254
X-21.125 Y-45.289
X-22.055 Y-45.337
X-22.984 Y-45.401
X-23.912 Y-45.485
X-24.837 Y-45.596
X-25.757 Y-45.738
X-26.671 Y-45.919
X-27.528 Y-46.14
X-28.147 Y-46.354
X-28.636 Y-46.569
X-28.732 Y-46.62
X-28.994 Y-46.8
X-29.213 Y-47.032
X-29.376 Y-47.306
X-29.477 Y-47.608
X-29.511 Y-47.925
Y-50.378
G3 X-29.455 Y-50.619 I0.635 J0.022
G1 X-29.434 Y-50.665 Z-9.998
X-29.413 Y-50.71 Z-9.992
X-29.393 Y-50.754 Z-9.982
X-29.373 Y-50.798 Z-9.969
X-29.354 Y-50.841 Z-9.952
X-29.335 Y-50.882 Z-9.931
X-29.317 Y-50.921 Z-9.906
X-29.3 Y-50.959 Z-9.879
X-29.284 Y-50.995 Z-9.848
X-29.268 Y-51.028 Z-9.814
X-29.254 Y-51.059 Z-9.777
X-29.242 Y-51.087 Z-9.738
X-29.23 Y-51.112 Z-9.697
X-29.22 Y-51.134 Z-9.653
X-29.211 Y-51.153 Z-9.608
X-29.204 Y-51.169 Z-9.561
X-29.199 Y-51.181 Z-9.513
X-29.195 Y-51.19 Z-9.464
X-29.192 Y-51.196 Z-9.415
X-29.191 Y-51.197 Z-9.365
G0 Z5.
X28.723 Y-52.891
Z-8.73
G1 Z-9.365 F2000
X28.725 Z-9.415
X28.731 Y-52.89 Z-9.464
X28.74 Y-52.888 Z-9.513
X28.754 Y-52.886 Z-9.561
X28.771 Y-52.883 Z-9.608
X28.791 Y-52.879 Z-9.653
X28.815 Y-52.875 Z-9.697
X28.842 Y-52.87 Z-9.738
X28.873 Y-52.865 Z-9.777
X28.906 Y-52.859 Z-9.814
X28.942 Y-52.852 Z-9.848
X28.981 Y-52.845 Z-9.879
X29.022 Y-52.838 Z-9.906
X29.064 Y-52.83 Z-9.931
X29.109 Y-52.822 Z-9.952
X29.155 Y-52.814 Z-9.969
X29.202 Y-52.805 Z-9.982
X29.25 Y-52.797 Z-9.992
X29.299 Y-52.788 Z-9.998
X29.348 Y-52.779 Z-10.
G3 X29.511 Y-52.591 I-0.035 J0.195
G1 Y-50.263
X29.498 Y-49.991
X29.466 Y-49.749
X29.412 Y-49.496
X29.327 Y-49.213
X29.204 Y-48.897
X29.048 Y-48.575
X28.828 Y-48.201
X28.572 Y-47.837
X28.225 Y-47.418
X27.828 Y-47.012
X27.318 Y-46.567
X26.689 Y-46.102
X25.932 Y-45.631
X25.105 Y-45.204
X24.249 Y-44.836
X23.373 Y-44.519
X22.483 Y-44.245
X21.581 Y-44.009
X20.672 Y-43.806
X19.758 Y-43.631
X18.838 Y-43.481
X17.916 Y-43.352
X16.991 Y-43.241
X16.064 Y-43.147
X15.136 Y-43.066
X14.207 Y-42.998
X12.348 Y-42.891
X10.486 Y-42.815
X7.693 Y-42.741
X3.967 Y-42.69
X-1.621 Y-42.659
X-13.73 Y-42.65
X-16.525 Y-42.663
X-18.388 Y-42.689
X-20.25 Y-42.743
X-21.18 Y-42.785
X-22.11 Y-42.841
X-23.039 Y-42.913
X-23.965 Y-43.006
X-24.889 Y-43.125
X-25.809 Y-43.275
X-26.721 Y-43.464
X-27.575 Y-43.692
X-28.185 Y-43.908
X-28.671 Y-44.126
X-28.742 Y-44.165
X-29.002 Y-44.345
X-29.217 Y-44.577
X-29.378 Y-44.849
X-29.478 Y-45.149
X-29.511 Y-45.464
Y-47.925
G3 X-29.455 Y-48.166 I0.635 J0.022
G1 X-29.434 Y-48.211 Z-9.998
X-29.413 Y-48.256 Z-9.992
X-29.393 Y-48.301 Z-9.982
X-29.373 Y-48.345 Z-9.969
X-29.354 Y-48.387 Z-9.952
X-29.335 Y-48.428 Z-9.931
X-29.317 Y-48.468 Z-9.906
X-29.3 Y-48.506 Z-9.879
X-29.284 Y-48.541 Z-9.848
X-29.268 Y-48.575 Z-9.814
X-29.254 Y-48.605 Z-9.777
X-29.242 Y-48.633 Z-9.738
X-29.23 Y-48.659 Z-9.697
X-29.22 Y-48.681 Z-9.653
X-29.211 Y-48.7 Z-9.608
X-29.204 Y-48.716 Z-9.561
X-29.199 Y-48.728 Z-9.513
X-29.195 Y-48.737 Z-9.464
X-29.192 Y-48.742 Z-9.415
X-29.191 Y-48.744 Z-9.365
G0 Z5.
X28.723 Y-50.563
Z-8.73
G1 Z-9.365 F2000
X28.725 Z-9.415
X28.731 Y-50.562 Z-9.464
X28.74 Y-50.56 Z-9.513
X28.754 Y-50.558 Z-9.561
X28.771 Y-50.555 Z-9.608
X28.791 Y-50.551 Z-9.653
X28.815 Y-50.547 Z-9.697
X28.842 Y-50.542 Z-9.738
X28.873 Y-50.537 Z-9.777
X28.906 Y-50.531 Z-9.814
X28.942 Y-50.524 Z-9.848
X28.981 Y-50.517 Z-9.879
X29.022 Y-50.51 Z-9.906
X29.064 Y-50.502 Z-9.931
X29.109 Y-50.494 Z-9.952
X29.155 Y-50.486 Z-9.969
X29.202 Y-50.478 Z-9.982
X29.25 Y-50.469 Z-9.992
X29.299 Y-50.46 Z-9.998
X29.348 Y-50.451 Z-10.
G3 X29.511 Y-50.263 I-0.035 J0.195
G1 Y-47.935
X29.496 Y-47.617
X29.464 Y-47.375
X29.408 Y-47.116
X29.324 Y-46.833
X29.198 Y-46.51
X29.041 Y-46.187
X28.819 Y-45.809
X28.559 Y-45.44
X28.208 Y-45.017
X27.805 Y-44.604
X27.286 Y-44.151
X26.646 Y-43.678
X25.873 Y-43.196
X25.045 Y-42.769
X24.19 Y-42.4
X23.315 Y-42.08
X22.426 Y-41.802
X21.526 Y-41.562
X20.618 Y-41.353
X19.704 Y-41.173
X18.786 Y-41.016
X17.864 Y-40.881
X16.94 Y-40.765
X16.014 Y-40.664
X15.087 Y-40.578
X14.158 Y-40.504
X12.299 Y-40.388
X10.438 Y-40.303
X7.645 Y-40.22
X4.851 Y-40.171
X0.194 Y-40.131
X-9.121 Y-40.11
X-14.71 Y-40.117
X-17.504 Y-40.148
X-19.366 Y-40.197
X-20.297 Y-40.234
X-21.227 Y-40.283
X-22.156 Y-40.345
X-23.085 Y-40.425
X-24.011 Y-40.525
X-24.933 Y-40.651
X-25.852 Y-40.808
X-26.763 Y-41.002
X-27.614 Y-41.235
X-28.217 Y-41.454
X-28.751 Y-41.702
X-29.007 Y-41.883
X-29.22 Y-42.115
X-29.38 Y-42.386
X-29.478 Y-42.684
X-29.511 Y-42.997
Y-45.464
G3 X-29.455 Y-45.705 I0.635 J0.022
G1 X-29.434 Y-45.75 Z-9.998
X-29.413 Y-45.795 Z-9.992
X-29.393 Y-45.84 Z-9.982
X-29.373 Y-45.884 Z-9.969
X-29.354 Y-45.926 Z-9.952
X-29.335 Y-45.967 Z-9.931
X-29.317 Y-46.007 Z-9.906
X-29.3 Y-46.045 Z-9.879
X-29.284 Y-46.08 Z-9.848
X-29.268 Y-46.114 Z-9.814
X-29.254 Y-46.144 Z-9.777
X-29.242 Y-46.173 Z-9.738
X-29.23 Y-46.198 Z-9.697
X-29.22 Y-46.22 Z-9.653
X-29.211 Y-46.239 Z-9.608
X-29.204 Y-46.255 Z-9.561
X-29.199 Y-46.267 Z-9.513
X-29.195 Y-46.276 Z-9.464
X-29.192 Y-46.281 Z-9.415
X-29.191 Y-46.283 Z-9.365
G0 Z5.
X28.723 Y-48.235
Z-8.73
G1 Z-9.365 F2000
X28.725 Z-9.415
X28.731 Y-48.234 Z-9.464
X28.74 Y-48.232 Z-9.513
X28.754 Y-48.23 Z-9.561
X28.771 Y-48.227 Z-9.608
X28.791 Y-48.223 Z-9.653
X28.815 Y-48.219 Z-9.697
X28.842 Y-48.214 Z-9.738
X28.873 Y-48.209 Z-9.777
X28.906 Y-48.203 Z-9.814
X28.942 Y-48.196 Z-9.848
X28.981 Y-48.189 Z-9.879
X29.022 Y-48.182 Z-9.906
X29.064 Y-48.174 Z-9.931
X29.109 Y-48.166 Z-9.952
X29.155 Y-48.158 Z-9.969
X29.202 Y-48.15 Z-9.982
X29.25 Y-48.141 Z-9.992
X29.299 Y-48.132 Z-9.998
X29.348 Y-48.123 Z-10.
G3 X29.511 Y-47.935 I-0.035 J0.195
G1 Y-45.395
X29.503 Y-45.236
X29.472 Y-44.993
X29.415 Y-44.729
X29.33 Y-44.446
X29.203 Y-44.118
X29.045 Y-43.792
X28.821 Y-43.413
X28.555 Y-43.034
X28.203 Y-42.61
X27.792 Y-42.189
X27.264 Y-41.728
X26.614 Y-41.247
X25.826 Y-40.756
X24.998 Y-40.329
X24.143 Y-39.958
X23.269 Y-39.636
X22.381 Y-39.355
X21.483 Y-39.11
X20.576 Y-38.897
X19.663 Y-38.711
X18.746 Y-38.55
X17.825 Y-38.409
X16.902 Y-38.287
X15.976 Y-38.181
X15.049 Y-38.09
X14.121 Y-38.011
X12.262 Y-37.885
X10.402 Y-37.793
X8.54 Y-37.726
X5.746 Y-37.659
X2.021 Y-37.611
X-3.568 Y-37.58
X-11.951 Y-37.572
X-15.677 Y-37.594
X-17.539 Y-37.625
X-18.471 Y-37.65
X-20.332 Y-37.726
X-21.262 Y-37.78
X-22.191 Y-37.849
X-23.118 Y-37.935
X-24.044 Y-38.041
X-24.966 Y-38.173
X-25.883 Y-38.334
X-26.793 Y-38.534
X-27.643 Y-38.772
X-28.241 Y-38.992
X-28.757 Y-39.234
X-29.012 Y-39.415
X-29.223 Y-39.646
X-29.381 Y-39.916
X-29.478 Y-40.213
X-29.511 Y-40.524
Y-42.997
G3 X-29.455 Y-43.238 I0.635 J0.022
G1 X-29.434 Y-43.283 Z-9.998
X-29.413 Y-43.328 Z-9.992
X-29.393 Y-43.373 Z-9.982
X-29.373 Y-43.416 Z-9.969
X-29.354 Y-43.459 Z-9.952
X-29.335 Y-43.5 Z-9.931
X-29.317 Y-43.54 Z-9.906
X-29.3 Y-43.578 Z-9.879
X-29.284 Y-43.613 Z-9.848
X-29.268 Y-43.646 Z-9.814
X-29.254 Y-43.677 Z-9.777
X-29.242 Y-43.705 Z-9.738
X-29.23 Y-43.731 Z-9.697
X-29.22 Y-43.753 Z-9.653
X-29.211 Y-43.772 Z-9.608
X-29.204 Y-43.787 Z-9.561
X-29.199 Y-43.8 Z-9.513
X-29.195 Y-43.809 Z-9.464
X-29.192 Y-43.814 Z-9.415
X-29.191 Y-43.816 Z-9.365
G0 Z5.
X28.723 Y-45.696
Z-8.73
G1 Z-9.365 F2000
X28.725 Y-45.695 Z-9.415
X28.731 Y-45.694 Z-9.464
X28.74 Y-45.693 Z-9.513
X28.754 Y-45.69 Z-9.561
X28.771 Y-45.687 Z-9.608
X28.791 Y-45.684 Z-9.653
X28.815 Y-45.679 Z-9.697
X28.842 Y-45.674 Z-9.738
X28.873 Y-45.669 Z-9.777
X28.906 Y-45.663 Z-9.814
X28.942 Y-45.657 Z-9.848
X28.981 Y-45.65 Z-9.879
X29.022 Y-45.642 Z-9.906
X29.064 Y-45.635 Z-9.931
X29.109 Y-45.627 Z-9.952
X29.155 Y-45.618 Z-9.969
X29.202 Y-45.61 Z-9.982
X29.25 Y-45.601 Z-9.992
X29.299 Y-45.593 Z-9.998
X29.348 Y-45.584 Z-10.
G3 X29.511 Y-45.395 I-0.035 J0.195
G1 Y-43.067
X29.499 Y-42.828
X29.468 Y-42.586
X29.41 Y-42.318
X29.326 Y-42.035
X29.197 Y-41.705
X29.038 Y-41.377
X28.815 Y-40.998
X28.544 Y-40.612
X28.192 Y-40.188
X27.775 Y-39.76
X27.24 Y-39.294
X26.582 Y-38.808
X25.792 Y-38.315
X24.964 Y-37.887
X24.111 Y-37.515
X23.238 Y-37.189
X22.351 Y-36.905
X21.453 Y-36.656
X20.547 Y-36.439
X19.636 Y-36.248
X18.719 Y-36.082
X17.799 Y-35.936
X16.876 Y-35.809
X15.952 Y-35.699
X15.025 Y-35.602
X14.097 Y-35.519
X12.239 Y-35.384
X10.379 Y-35.284
X8.518 Y-35.21
X5.724 Y-35.135
X1.999 Y-35.079
X-3.59 Y-35.044
X-11.042 Y-35.034
X-14.767 Y-35.053
X-16.63 Y-35.082
X-17.561 Y-35.104
X-19.423 Y-35.17
X-20.353 Y-35.218
X-21.283 Y-35.277
X-22.211 Y-35.351
X-23.138 Y-35.442
X-24.063 Y-35.554
X-24.985 Y-35.69
X-25.901 Y-35.856
X-26.81 Y-36.059
X-27.663 Y-36.301
X-28.258 Y-36.522
X-28.762 Y-36.76
X-29.015 Y-36.942
X-29.225 Y-37.172
X-29.382 Y-37.442
X-29.479 Y-37.738
X-29.511 Y-38.048
Y-40.524
G3 X-29.455 Y-40.766 I0.635 J0.022
G1 X-29.434 Y-40.811 Z-9.998
X-29.413 Y-40.856 Z-9.992
X-29.393 Y-40.901 Z-9.982
X-29.373 Y-40.944 Z-9.969
X-29.354 Y-40.987 Z-9.952
X-29.335 Y-41.028 Z-9.931
X-29.317 Y-41.068 Z-9.906
X-29.3 Y-41.105 Z-9.879
X-29.284 Y-41.141 Z-9.848
X-29.268 Y-41.174 Z-9.814
X-29.254 Y-41.205 Z-9.777
X-29.242 Y-41.233 Z-9.738
X-29.23 Y-41.258 Z-9.697
X-29.22 Y-41.28 Z-9.653
X-29.211 Y-41.299 Z-9.608
X-29.204 Y-41.315 Z-9.561
X-29.199 Y-41.327 Z-9.513
X-29.195 Y-41.336 Z-9.464
X-29.192 Y-41.342 Z-9.415
X-29.191 Y-41.343 Z-9.365
G0 Z5.
X28.723 Y-43.368
Z-8.73
G1 Z-9.365 F2000
X28.725 Z-9.415
X28.731 Y-43.366 Z-9.464
X28.74 Y-43.365 Z-9.513
X28.754 Y-43.362 Z-9.561
X28.771 Y-43.359 Z-9.608
X28.791 Y-43.356 Z-9.653
X28.815 Y-43.351 Z-9.697
X28.842 Y-43.346 Z-9.738
X28.873 Y-43.341 Z-9.777
X28.906 Y-43.335 Z-9.814
X28.942 Y-43.329 Z-9.848
X28.981 Y-43.322 Z-9.879
X29.022 Y-43.314 Z-9.906
X29.064 Y-43.307 Z-9.931
X29.109 Y-43.299 Z-9.952
X29.155 Y-43.29 Z-9.969
X29.202 Y-43.282 Z-9.982
X29.25 Y-43.273 Z-9.992
X29.299 Y-43.265 Z-9.998
X29.348 Y-43.256 Z-10.
G3 X29.511 Y-43.067 I-0.035 J0.195
G1 Y-40.739
X29.495 Y-40.411
X29.463 Y-40.169
X29.405 Y-39.898
X29.321 Y-39.616
X29.191 Y-39.284
X29.031 Y-38.953
X28.808 Y-38.574
X28.533 Y-38.183
X28.18 Y-37.758
X27.758 Y-37.325
X27.218 Y-36.854
X26.553 Y-36.362
X25.762 Y-35.87
X24.935 Y-35.441
X24.083 Y-35.066
X23.211 Y-34.738
X22.325 Y-34.451
X21.428 Y-34.199
X20.523 Y-33.977
X19.612 Y-33.782
X18.697 Y-33.611
X17.777 Y-33.461
X16.855 Y-33.33
X15.931 Y-33.214
X15.005 Y-33.114
X14.078 Y-33.026
X13.149 Y-32.949
X11.291 Y-32.825
X9.43 Y-32.732
X7.568 Y-32.663
X4.775 Y-32.593
X1.049 Y-32.539
X-4.539 Y-32.504
X-11.06 Y-32.497
X-13.854 Y-32.513
X-16.648 Y-32.558
X-17.579 Y-32.584
X-19.44 Y-32.658
X-20.37 Y-32.71
X-21.3 Y-32.774
X-22.228 Y-32.852
X-23.154 Y-32.948
X-24.079 Y-33.064
X-25. Y-33.204
X-25.915 Y-33.373
X-26.824 Y-33.58
X-27.679 Y-33.825
X-28.272 Y-34.048
X-28.766 Y-34.282
X-29.018 Y-34.464
X-29.227 Y-34.694
X-29.383 Y-34.963
X-29.479 Y-35.259
X-29.511 Y-35.568
Y-38.048
G3 X-29.455 Y-38.289 I0.635 J0.022
G1 X-29.434 Y-38.334 Z-9.998
X-29.413 Y-38.379 Z-9.992
X-29.393 Y-38.424 Z-9.982
X-29.373 Y-38.468 Z-9.969
X-29.354 Y-38.51 Z-9.952
X-29.335 Y-38.551 Z-9.931
X-29.317 Y-38.591 Z-9.906
X-29.3 Y-38.629 Z-9.879
X-29.284 Y-38.664 Z-9.848
X-29.268 Y-38.698 Z-9.814
X-29.254 Y-38.728 Z-9.777
X-29.242 Y-38.757 Z-9.738
X-29.23 Y-38.782 Z-9.697
X-29.22 Y-38.804 Z-9.653
X-29.211 Y-38.823 Z-9.608
X-29.204 Y-38.839 Z-9.561
X-29.199 Y-38.851 Z-9.513
X-29.195 Y-38.86 Z-9.464
X-29.192 Y-38.865 Z-9.415
X-29.191 Y-38.867 Z-9.365
G0 Z5.
X28.723 Y-41.04
Z-8.73
G1 Z-9.365 F2000
X28.725 Z-9.415
X28.731 Y-41.039 Z-9.464
X28.74 Y-41.037 Z-9.513
X28.754 Y-41.034 Z-9.561
X28.771 Y-41.031 Z-9.608
X28.791 Y-41.028 Z-9.653
X28.815 Y-41.023 Z-9.697
X28.842 Y-41.018 Z-9.738
X28.873 Y-41.013 Z-9.777
X28.906 Y-41.007 Z-9.814
X28.942 Y-41.001 Z-9.848
X28.981 Y-40.994 Z-9.879
X29.022 Y-40.986 Z-9.906
X29.064 Y-40.979 Z-9.931
X29.109 Y-40.971 Z-9.952
X29.155 Y-40.962 Z-9.969
X29.202 Y-40.954 Z-9.982
X29.25 Y-40.945 Z-9.992
X29.299 Y-40.937 Z-9.998
X29.348 Y-40.928 Z-10.
G3 X29.511 Y-40.739 I-0.035 J0.195
G1 Y-38.2
X29.501 Y-37.996
X29.469 Y-37.754
X29.411 Y-37.479
X29.326 Y-37.196
X29.196 Y-36.862
X29.034 Y-36.527
X28.81 Y-36.148
X28.532 Y-35.752
X28.177 Y-35.324
X27.75 Y-34.886
X27.204 Y-34.41
X26.531 Y-33.913
X25.741 Y-33.421
X24.914 Y-32.991
X24.062 Y-32.614
X23.191 Y-32.284
X22.306 Y-31.994
X21.411 Y-31.738
X20.507 Y-31.513
X19.597 Y-31.314
X18.682 Y-31.139
X17.763 Y-30.985
X16.842 Y-30.849
X15.918 Y-30.729
X14.992 Y-30.625
X14.066 Y-30.533
X13.138 Y-30.452
X11.279 Y-30.32
X9.419 Y-30.221
X7.558 Y-30.146
X4.764 Y-30.068
X1.039 Y-30.008
X-3.618 Y-29.972
X-9.207 Y-29.959
X-12.933 Y-29.973
X-15.727 Y-30.013
X-17.589 Y-30.065
X-19.45 Y-30.146
X-20.38 Y-30.202
X-21.309 Y-30.27
X-22.237 Y-30.352
X-23.163 Y-30.452
X-24.087 Y-30.571
X-25.007 Y-30.715
X-25.922 Y-30.887
X-26.83 Y-31.096
X-27.689 Y-31.344
X-28.281 Y-31.568
X-28.769 Y-31.8
X-29.02 Y-31.982
X-29.228 Y-32.212
X-29.383 Y-32.481
X-29.479 Y-32.776
X-29.511 Y-33.084
Y-35.568
G3 X-29.455 Y-35.809 I0.635 J0.022
G1 X-29.434 Y-35.854 Z-9.998
X-29.413 Y-35.899 Z-9.992
X-29.393 Y-35.944 Z-9.982
X-29.373 Y-35.987 Z-9.969
X-29.354 Y-36.03 Z-9.952
X-29.335 Y-36.071 Z-9.931
X-29.317 Y-36.111 Z-9.906
X-29.3 Y-36.148 Z-9.879
X-29.284 Y-36.184 Z-9.848
X-29.268 Y-36.217 Z-9.814
X-29.254 Y-36.248 Z-9.777
X-29.242 Y-36.276 Z-9.738
X-29.23 Y-36.302 Z-9.697
X-29.22 Y-36.324 Z-9.653
X-29.211 Y-36.343 Z-9.608
X-29.204 Y-36.358 Z-9.561
X-29.199 Y-36.371 Z-9.513
X-29.195 Y-36.38 Z-9.464
X-29.192 Y-36.385 Z-9.415
X-29.191 Y-36.387 Z-9.365
G0 Z5.
X28.723 Y-38.5
Z-8.73
G1 Z-9.365 F2000
X28.725 Z-9.415
X28.731 Y-38.499 Z-9.464
X28.74 Y-38.497 Z-9.513
X28.754 Y-38.495 Z-9.561
X28.771 Y-38.492 Z-9.608
X28.791 Y-38.488 Z-9.653
X28.815 Y-38.484 Z-9.697
X28.842 Y-38.479 Z-9.738
X28.873 Y-38.473 Z-9.777
X28.906 Y-38.467 Z-9.814
X28.942 Y-38.461 Z-9.848
X28.981 Y-38.454 Z-9.879
X29.022 Y-38.447 Z-9.906
X29.064 Y-38.439 Z-9.931
X29.109 Y-38.431 Z-9.952
X29.155 Y-38.423 Z-9.969
X29.202 Y-38.414 Z-9.982
X29.25 Y-38.406 Z-9.992
X29.299 Y-38.397 Z-9.998
X29.348 Y-38.388 Z-10.
G3 X29.511 Y-38.2 I-0.035 J0.195
G1 Y-35.872
X29.496 Y-35.56
X29.464 Y-35.318
X29.405 Y-35.041
X29.32 Y-34.758
X29.19 Y-34.424
X29.027 Y-34.087
X28.803 Y-33.708
X28.523 Y-33.309
X28.167 Y-32.88
X27.736 Y-32.439
X27.187 Y-31.959
X26.508 Y-31.457
X25.717 Y-30.965
X24.891 Y-30.534
X24.04 Y-30.156
X23.17 Y-29.824
X22.286 Y-29.531
X21.391 Y-29.273
X20.488 Y-29.044
X19.578 Y-28.842
X18.664 Y-28.664
X17.746 Y-28.506
X16.825 Y-28.366
X15.902 Y-28.243
X14.977 Y-28.134
X14.05 Y-28.038
X13.123 Y-27.954
X11.265 Y-27.815
X9.405 Y-27.709
X7.544 Y-27.629
X4.751 Y-27.545
X1.957 Y-27.491
X-2.7 Y-27.442
X-8.289 Y-27.423
X-12.015 Y-27.434
X-14.809 Y-27.469
X-16.671 Y-27.514
X-17.602 Y-27.546
X-19.463 Y-27.635
X-20.392 Y-27.694
X-21.321 Y-27.765
X-22.249 Y-27.851
X-23.174 Y-27.954
X-24.098 Y-28.077
X-25.018 Y-28.224
X-25.933 Y-28.399
X-26.84 Y-28.61
X-27.7 Y-28.861
X-28.291 Y-29.086
X-28.772 Y-29.315
X-29.022 Y-29.497
X-29.229 Y-29.728
X-29.384 Y-29.996
X-29.479 Y-30.29
X-29.511 Y-30.598
Y-33.084
G3 X-29.455 Y-33.325 I0.635 J0.022
G1 X-29.434 Y-33.371 Z-9.998
X-29.413 Y-33.416 Z-9.992
X-29.393 Y-33.46 Z-9.982
X-29.373 Y-33.504 Z-9.969
X-29.354 Y-33.546 Z-9.952
X-29.335 Y-33.588 Z-9.931
X-29.317 Y-33.627 Z-9.906
X-29.3 Y-33.665 Z-9.879
X-29.284 Y-33.701 Z-9.848
X-29.268 Y-33.734 Z-9.814
X-29.254 Y-33.765 Z-9.777
X-29.242 Y-33.793 Z-9.738
X-29.23 Y-33.818 Z-9.697
X-29.22 Y-33.84 Z-9.653
X-29.211 Y-33.859 Z-9.608
X-29.204 Y-33.875 Z-9.561
X-29.199 Y-33.887 Z-9.513
X-29.195 Y-33.896 Z-9.464
X-29.192 Y-33.901 Z-9.415
X-29.191 Y-33.903 Z-9.365
G0 Z5.
X28.723 Y-36.172
Z-8.73
G1 Z-9.365 F2000
X28.725 Z-9.415
X28.731 Y-36.171 Z-9.464
X28.74 Y-36.169 Z-9.513
X28.754 Y-36.167 Z-9.561
X28.771 Y-36.164 Z-9.608
X28.791 Y-36.16 Z-9.653
X28.815 Y-36.156 Z-9.697
X28.842 Y-36.151 Z-9.738
X28.873 Y-36.145 Z-9.777
X28.906 Y-36.14 Z-9.814
X28.942 Y-36.133 Z-9.848
X28.981 Y-36.126 Z-9.879
X29.022 Y-36.119 Z-9.906
X29.064 Y-36.111 Z-9.931
X29.109 Y-36.103 Z-9.952
X29.155 Y-36.095 Z-9.969
X29.202 Y-36.086 Z-9.982
X29.25 Y-36.078 Z-9.992
X29.299 Y-36.069 Z-9.998
X29.348 Y-36.06 Z-10.
G3 X29.511 Y-35.872 I-0.035 J0.195
G1 Y-33.332
X29.501 Y-33.128
X29.469 Y-32.886
X29.41 Y-32.607
X29.325 Y-32.323
X29.195 Y-31.989
X29.029 Y-31.647
X28.806 Y-31.268
X28.522 Y-30.865
X28.165 Y-30.435
X27.73 Y-29.989
X27.176 Y-29.505
X26.491 Y-28.999
X25.7 Y-28.506
X24.875 Y-28.075
X24.024 Y-27.696
X23.155 Y-27.361
X22.271 Y-27.066
X21.377 Y-26.805
X20.475 Y-26.574
X19.566 Y-26.369
X18.653 Y-26.187
X17.735 Y-26.025
X16.815 Y-25.882
X15.892 Y-25.755
X14.967 Y-25.643
X14.041 Y-25.544
X13.114 Y-25.456
X11.257 Y-25.311
X9.397 Y-25.199
X7.536 Y-25.113
X4.743 Y-25.022
X1.95 Y-24.963
X-1.776 Y-24.916
X-6.433 Y-24.89
X-11.091 Y-24.895
X-13.885 Y-24.926
X-15.747 Y-24.965
X-17.609 Y-25.028
X-19.47 Y-25.123
X-20.399 Y-25.185
X-21.328 Y-25.26
X-22.255 Y-25.349
X-23.18 Y-25.455
X-24.103 Y-25.581
X-25.023 Y-25.73
X-25.937 Y-25.907
X-26.844 Y-26.12
X-27.707 Y-26.373
X-28.298 Y-26.6
X-28.669 Y-26.777
X-28.951 Y-26.953
X-29.187 Y-27.188
X-29.364 Y-27.47
X-29.474 Y-27.783
X-29.511 Y-28.114
Y-30.598
G3 X-29.455 Y-30.839 I0.635 J0.022
G1 X-29.434 Y-30.884 Z-9.998
X-29.413 Y-30.929 Z-9.992
X-29.393 Y-30.974 Z-9.982
X-29.373 Y-31.017 Z-9.969
X-29.354 Y-31.06 Z-9.952
X-29.335 Y-31.101 Z-9.931
X-29.317 Y-31.141 Z-9.906
X-29.3 Y-31.178 Z-9.879
X-29.284 Y-31.214 Z-9.848
X-29.268 Y-31.247 Z-9.814
X-29.254 Y-31.278 Z-9.777
X-29.242 Y-31.306 Z-9.738
X-29.23 Y-31.331 Z-9.697
X-29.22 Y-31.354 Z-9.653
X-29.211 Y-31.373 Z-9.608
X-29.204 Y-31.388 Z-9.561
X-29.199 Y-31.401 Z-9.513
X-29.195 Y-31.41 Z-9.464
X-29.192 Y-31.415 Z-9.415
X-29.191 Y-31.417 Z-9.365
G0 Z5.
X28.723 Y-33.633
Z-8.73
G1 Z-9.365 F2000
X28.725 Y-33.632 Z-9.415
X28.731 Y-33.631 Z-9.464
X28.74 Y-33.63 Z-9.513
X28.754 Y-33.627 Z-9.561
X28.771 Y-33.624 Z-9.608
X28.791 Y-33.621 Z-9.653
X28.815 Y-33.616 Z-9.697
X28.842 Y-33.611 Z-9.738
X28.873 Y-33.606 Z-9.777
X28.906 Y-33.6 Z-9.814
X28.942 Y-33.593 Z-9.848
X28.981 Y-33.587 Z-9.879
X29.022 Y-33.579 Z-9.906
X29.064 Y-33.572 Z-9.931
X29.109 Y-33.564 Z-9.952
X29.155 Y-33.555 Z-9.969
X29.202 Y-33.547 Z-9.982
X29.25 Y-33.538 Z-9.992
X29.299 Y-33.529 Z-9.998
X29.348 Y-33.521 Z-10.
G3 X29.511 Y-33.332 I-0.035 J0.195
G1 Y-31.004
X29.495 Y-30.679
X29.463 Y-30.436
X29.404 Y-30.157
X29.318 Y-29.873
X29.188 Y-29.539
X29.022 Y-29.195
X28.798 Y-28.816
X28.514 Y-28.411
X28.156 Y-27.979
X27.718 Y-27.531
X27.161 Y-27.044
X26.472 Y-26.535
X25.681 Y-26.042
X24.856 Y-25.61
X24.005 Y-25.23
X23.137 Y-24.894
X22.254 Y-24.597
X21.36 Y-24.333
X20.459 Y-24.099
X19.551 Y-23.891
X18.638 Y-23.707
X17.721 Y-23.542
X16.801 Y-23.396
X15.879 Y-23.266
X14.954 Y-23.15
X14.029 Y-23.048
X13.102 Y-22.957
X11.245 Y-22.805
X10.745 Y-22.772
X10.601 Y-22.769
X10.457 Y-22.78
X10.315 Y-22.806
X9.579 Y-22.962
X7.079 Y-23.426
X6.656 Y-23.485
X4.12 Y-23.785
X3.274 Y-23.843
X0.737 Y-23.965
X-2.011 Y-23.922
X-2.857 Y-23.874
X-5.394 Y-23.655
X-5.834 Y-23.597
X-8.353 Y-23.211
X-9.199 Y-23.039
X-9.411 Y-22.992
X-10.329 Y-22.835
X-11.25 Y-22.695
X-12.177 Y-22.604
X-13.106 Y-22.546
X-14.037 Y-22.513
X-14.969 Y-22.5
X-15.9 Y-22.502
X-16.831 Y-22.517
X-17.762 Y-22.545
X-18.693 Y-22.583
X-19.623 Y-22.634
X-20.552 Y-22.698
X-21.481 Y-22.775
X-22.408 Y-22.867
X-23.333 Y-22.977
X-24.255 Y-23.107
X-25.174 Y-23.261
X-26.087 Y-23.445
X-26.991 Y-23.667
X-27.805 Y-23.916
X-28.356 Y-24.134
X-28.685 Y-24.296
X-28.962 Y-24.473
X-29.193 Y-24.707
X-29.367 Y-24.987
X-29.475 Y-25.298
X-29.511 Y-25.625
Y-28.114
G3 X-28.733 Y-28.71 I0.635 J0.022
G1 X-9.427 Y-24.225
G3 X-9.411 Y-22.992 I-0.144 J0.619
G1 X-11.525 Y-22.514
X-11.947 Y-22.404
X-14.484 Y-21.655
X-15.33 Y-21.355
X-16.133 Y-21.058
X-17.009 Y-20.782
X-17.785 Y-20.605
X-18.706 Y-20.471
X-19.635 Y-20.404
X-20.567 Y-20.386
X-21.498 Y-20.407
X-22.428 Y-20.461
X-23.355 Y-20.546
X-24.28 Y-20.659
X-25.2 Y-20.802
X-26.115 Y-20.979
X-27.021 Y-21.197
X-27.814 Y-21.438
X-28.358 Y-21.653
X-28.683 Y-21.813
X-28.961 Y-21.99
X-29.192 Y-22.224
X-29.367 Y-22.504
X-29.475 Y-22.815
X-29.511 Y-23.143
Y-25.625
G3 X-28.685 Y-26.208 I0.635 J0.022
G1 X-16.183 Y-22.25
G3 X-16.133 Y-21.058 I-0.192 J0.605
G1 X-17.444 Y-20.571
X-17.867 Y-20.393
X-20.192 Y-19.348
X-20.601 Y-19.153
X-21.035 Y-18.971
X-21.508 Y-18.817
X-22.091 Y-18.677
X-22.813 Y-18.564
X-23.689 Y-18.498
X-24.62 Y-18.503
X-25.549 Y-18.575
X-26.471 Y-18.709
X-27.312 Y-18.893
X-27.97 Y-19.092
X-28.466 Y-19.288
X-28.682 Y-19.393
X-28.96 Y-19.57
X-29.192 Y-19.805
X-29.366 Y-20.085
X-29.475 Y-20.396
X-29.511 Y-20.724
Y-23.143
G3 X-28.628 Y-23.705 I0.635 J0.022
G1 X-20.646 Y-20.3
G3 X-20.601 Y-19.153 I-0.249 J0.584
G1 X-23.152 Y-17.793
X-23.575 Y-17.539
X-23.89 Y-17.364
X-24.21 Y-17.219
X-24.563 Y-17.091
X-24.99 Y-16.975
X-25.457 Y-16.888
X-25.992 Y-16.831
X-26.546 Y-16.818
X-27.097 Y-16.849
X-27.6 Y-16.917
X-28.034 Y-17.013
X-28.434 Y-17.135
X-28.575 Y-17.191
X-28.837 Y-17.326
X-29.067 Y-17.51
X-29.255 Y-17.736
X-29.396 Y-17.995
X-29.482 Y-18.276
X-29.511 Y-18.569
Y-20.724
G3 X-28.578 Y-21.262 I0.635 J0.022
G1 X-23.63 Y-18.627
G3 X-23.575 Y-17.539 I-0.299 J0.56
G1 X-25.734 Y-16.19
X-26.041 Y-15.978
X-26.189 Y-15.886
X-26.401 Y-15.777
X-26.644 Y-15.677
X-26.905 Y-15.592
X-27.168 Y-15.53
X-27.453 Y-15.486
X-27.716 Y-15.467
X-27.991 Y-15.469
X-28.278 Y-15.496
X-28.564 Y-15.575
X-28.828 Y-15.709
X-29.061 Y-15.893
X-29.252 Y-16.119
X-29.394 Y-16.379
X-29.482 Y-16.662
X-29.511 Y-16.957
Y-18.569
G3 X-28.469 Y-19.033 I0.635 J0.022
G1 X-26.012 Y-16.975
G3 X-26.041 Y-15.978 I-0.408 J0.487
G1 X-26.957 Y-15.327
X-27.522 Y-14.92
X-27.663 Y-14.829
X-27.781 Y-14.765
X-28.074 Y-14.678
X-28.379 Y-14.666
X-28.678 Y-14.729
X-28.952 Y-14.863
X-29.185 Y-15.061
X-29.363 Y-15.309
X-29.474 Y-15.594
X-29.511 Y-15.897
G3 X-28.607 Y-16.45 I0.635 J0.022
G1 X-27.641 Y-15.997
G3 X-27.522 Y-14.92 I-0.27 J0.575
G1 X-28.321 Y-14.342
X-28.435 Y-14.268
X-28.645 Y-14.214
X-28.863 Y-14.22
X-29.071 Y-14.287
X-29.252 Y-14.408
X-29.392 Y-14.574
X-29.481 Y-14.773
X-29.511 Y-14.989
G3 X-29.18 Y-15.566 I0.711 J0.025
X-28.321 Y-14.342 I0.399 J0.633
G1 X-28.543 Y-14.182
X-28.649 Y-14.133
X-28.754 Y-14.105
X-28.86 Y-14.095
X-28.966 Y-14.103
X-29.124 Y-14.151
X-29.23 Y-14.211
X-29.317 Y-14.285
X-29.405 Y-14.391
X-29.462 Y-14.497
X-29.505 Y-14.653
X-29.511 Y-15.132
Y-16.957
G3 X-29.455 Y-17.198 I0.635 J0.022
G1 X-29.434 Y-17.243 Z-9.998
X-29.413 Y-17.288 Z-9.992
X-29.393 Y-17.333 Z-9.982
X-29.373 Y-17.377 Z-9.969
X-29.354 Y-17.419 Z-9.952
X-29.335 Y-17.46 Z-9.931
X-29.317 Y-17.5 Z-9.906
X-29.3 Y-17.538 Z-9.879
X-29.284 Y-17.573 Z-9.848
X-29.268 Y-17.607 Z-9.814
X-29.254 Y-17.637 Z-9.777
X-29.242 Y-17.665 Z-9.738
X-29.23 Y-17.691 Z-9.697
X-29.22 Y-17.713 Z-9.653
X-29.211 Y-17.732 Z-9.608
X-29.204 Y-17.748 Z-9.561
X-29.199 Y-17.76 Z-9.513
X-29.195 Y-17.769 Z-9.464
X-29.192 Y-17.774 Z-9.415
X-29.191 Y-17.776 Z-9.365
G0 Z5.
X-44.925 Y39.406
Z-8.73
G1 Z-9.365 F2000
X-44.923 Z-9.415
X-44.917 Y39.405 Z-9.464
X-44.908 Y39.403 Z-9.513
X-44.894 Y39.4 Z-9.561
X-44.877 Y39.397 Z-9.608
X-44.857 Y39.393 Z-9.653
X-44.833 Y39.389 Z-9.697
X-44.806 Y39.383 Z-9.738
X-44.776 Y39.377 Z-9.777
X-44.742 Y39.371 Z-9.814
X-44.706 Y39.364 Z-9.848
X-44.668 Y39.357 Z-9.879
X-44.627 Y39.349 Z-9.906
X-44.584 Y39.341 Z-9.931
X-44.54 Y39.332 Z-9.952
X-44.494 Y39.323 Z-9.969
X-44.447 Y39.314 Z-9.982
X-44.399 Y39.305 Z-9.992
X-44.35 Y39.295 Z-9.998
X-44.301 Y39.286 Z-10.
G3 X-44.081 Y39.403 I0.038 J0.195
G1 X-43.643 Y40.528
X-43.001 Y42.009
X-42.39 Y43.298
X-41.967 Y44.142
X-41.864 Y44.337
X-41.555 Y44.996
X-41.322 Y45.62
X-41.081 Y46.468
X-40.898 Y47.381
X-40.77 Y48.304
X-40.68 Y49.231
X-40.616 Y50.16
X-40.571 Y51.09
X-40.516 Y52.953
X-40.48 Y55.747
X-40.47 Y57.61
X-40.414 Y58.539
X-40.085 Y59.411
X-39.536 Y60.163
X-38.84 Y60.782
X-38.05 Y61.276
X-37.203 Y61.664
X-36.322 Y61.964
X-35.419 Y62.194
X-34.504 Y62.37
X-33.583 Y62.503
X-32.657 Y62.604
X-31.728 Y62.68
X-30.798 Y62.737
X-29.868 Y62.78
X-28.006 Y62.836
X-25.212 Y62.877
X-24.863 Y62.88
X-24.603 Y62.905
X-24.351 Y62.976
X-24.115 Y63.09
X-23.363 Y63.533
X-22.087 Y64.231
X-21.038 Y64.768
X-19.962 Y65.289
X-19.33 Y65.577
G3 X-19.133 Y65.728 I-0.282 J0.569
G1 X-19.101 Y65.765 Z-9.998
X-19.068 Y65.803 Z-9.992
X-19.036 Y65.84 Z-9.982
X-19.004 Y65.876 Z-9.969
X-18.974 Y65.911 Z-9.952
X-18.944 Y65.945 Z-9.931
X-18.915 Y65.978 Z-9.906
X-18.888 Y66.009 Z-9.879
X-18.862 Y66.039 Z-9.848
X-18.838 Y66.066 Z-9.814
X-18.816 Y66.092 Z-9.777
X-18.795 Y66.115 Z-9.738
X-18.777 Y66.136 Z-9.697
X-18.761 Y66.154 Z-9.653
X-18.747 Y66.17 Z-9.608
X-18.736 Y66.183 Z-9.561
X-18.727 Y66.193 Z-9.513
X-18.721 Y66.2 Z-9.464
X-18.717 Y66.205 Z-9.415
X-18.716 Y66.206 Z-9.365
G0 Z5.
X-42.701 Y44.441
Z-8.73
G1 Z-9.365 F2000
X-42.699 Z-9.415
X-42.693 Y44.439 Z-9.464
X-42.684 Y44.436 Z-9.513
X-42.671 Y44.432 Z-9.561
X-42.655 Y44.427 Z-9.608
X-42.635 Y44.42 Z-9.653
X-42.612 Y44.413 Z-9.697
X-42.585 Y44.404 Z-9.738
X-42.556 Y44.395 Z-9.777
X-42.524 Y44.385 Z-9.814
X-42.489 Y44.373 Z-9.848
X-42.452 Y44.361 Z-9.879
X-42.412 Y44.349 Z-9.906
X-42.371 Y44.335 Z-9.931
X-42.328 Y44.322 Z-9.952
X-42.283 Y44.307 Z-9.969
X-42.237 Y44.293 Z-9.982
X-42.191 Y44.278 Z-9.992
X-42.144 Y44.263 Z-9.998
X-42.096 Y44.247 Z-10.
G3 X-41.864 Y44.337 I0.061 J0.189
G1 X-41.301 Y45.395
X-40.276 Y47.15
X-39.505 Y48.358
X-39.326 Y48.661
X-39.096 Y49.131
X-38.858 Y49.74
X-38.61 Y50.56
X-38.413 Y51.47
X-38.273 Y52.391
X-38.173 Y53.317
X-38.101 Y54.246
X-38.05 Y55.176
X-37.923 Y56.099
X-37.546 Y56.95
X-36.968 Y57.681
X-36.255 Y58.281
X-35.457 Y58.761
X-34.606 Y59.139
X-33.722 Y59.432
X-32.818 Y59.658
X-31.903 Y59.831
X-30.981 Y59.962
X-30.055 Y60.062
X-28.895 Y60.151
X-28.612 Y60.196
X-28.342 Y60.295
X-28.098 Y60.444
X-27.549 Y60.845
X-26.323 Y61.7
X-25.034 Y62.538
X-24.115 Y63.09
G3 X-23.937 Y63.262 I-0.345 J0.533
G1 X-23.909 Y63.303 Z-9.998
X-23.881 Y63.344 Z-9.992
X-23.853 Y63.384 Z-9.982
X-23.826 Y63.424 Z-9.969
X-23.799 Y63.462 Z-9.952
X-23.773 Y63.499 Z-9.931
X-23.749 Y63.535 Z-9.906
X-23.725 Y63.569 Z-9.879
X-23.703 Y63.602 Z-9.848
X-23.682 Y63.632 Z-9.814
X-23.663 Y63.66 Z-9.777
X-23.645 Y63.685 Z-9.738
X-23.63 Y63.708 Z-9.697
X-23.616 Y63.728 Z-9.653
X-23.604 Y63.745 Z-9.608
X-23.594 Y63.759 Z-9.561
X-23.586 Y63.77 Z-9.513
X-23.581 Y63.778 Z-9.464
X-23.578 Y63.783 Z-9.415
X-23.576 Y63.785 Z-9.365
G0 Z5.
X-40.328 Y48.543
Z-8.73
G1 Z-9.365 F2000
X-40.326 Y48.542 Z-9.415
X-40.321 Y48.54 Z-9.464
X-40.312 Y48.536 Z-9.513
X-40.3 Y48.53 Z-9.561
X-40.284 Y48.523 Z-9.608
X-40.265 Y48.515 Z-9.653
X-40.242 Y48.506 Z-9.697
X-40.217 Y48.495 Z-9.738
X-40.189 Y48.482 Z-9.777
X-40.157 Y48.469 Z-9.814
X-40.124 Y48.454 Z-9.848
X-40.088 Y48.439 Z-9.879
X-40.05 Y48.423 Z-9.906
X-40.01 Y48.405 Z-9.931
X-39.968 Y48.387 Z-9.952
X-39.925 Y48.369 Z-9.969
X-39.881 Y48.35 Z-9.982
X-39.836 Y48.331 Z-9.992
X-39.791 Y48.311 Z-9.998
X-39.745 Y48.291 Z-10.
G3 X-39.505 Y48.358 I0.079 J0.182
G1 X-38.935 Y49.205
X-38.162 Y50.306
X-37.316 Y51.428
X-37.018 Y51.864
X-36.789 Y52.264
X-35.988 Y53.946
X-35.441 Y54.7
X-34.77 Y55.346
X-34.006 Y55.88
X-33.181 Y56.312
X-32.894 Y56.438
X-32.735 Y56.54
X-32.59 Y56.66
G3 X-32.608 Y57.568 I-0.453 J0.445
X-33.514 Y57.531 I-0.435 J-0.462
G1 X-38.279 Y52.255
G3 X-38.222 Y51.348 I0.471 J-0.426
X-37.316 Y51.428 I0.414 J0.482
G1 X-37.071 Y51.744
X-36.035 Y53.014
X-34.726 Y54.496
X-33.51 Y55.765
X-32.418 Y56.824
X-31.82 Y57.382
X-30.763 Y58.317
X-29.917 Y59.027
X-29.24 Y59.575
X-28.098 Y60.444
G3 X-27.938 Y60.634 I-0.398 J0.495
G1 X-27.915 Y60.677 Z-9.998
X-27.891 Y60.721 Z-9.992
X-27.867 Y60.764 Z-9.982
X-27.844 Y60.806 Z-9.969
X-27.822 Y60.847 Z-9.952
X-27.8 Y60.887 Z-9.931
X-27.779 Y60.925 Z-9.906
X-27.759 Y60.961 Z-9.879
X-27.74 Y60.996 Z-9.848
X-27.723 Y61.028 Z-9.814
X-27.707 Y61.057 Z-9.777
X-27.692 Y61.084 Z-9.738
X-27.678 Y61.109 Z-9.697
X-27.667 Y61.13 Z-9.653
X-27.657 Y61.148 Z-9.608
X-27.648 Y61.163 Z-9.561
X-27.642 Y61.175 Z-9.513
X-27.637 Y61.184 Z-9.464
X-27.634 Y61.189 Z-9.415
Y61.191 Z-9.365
G0 Z5.
X17.235 Y67.306
Z-8.73
G1 Z-9.365 F2000
Y67.304 Z-9.415
X17.234 Y67.298 Z-9.464
X17.232 Y67.289 Z-9.513
X17.229 Y67.275 Z-9.561
X17.226 Y67.259 Z-9.608
X17.222 Y67.238 Z-9.653
X17.217 Y67.214 Z-9.697
X17.212 Y67.187 Z-9.738
X17.206 Y67.157 Z-9.777
X17.199 Y67.124 Z-9.814
X17.192 Y67.088 Z-9.848
X17.184 Y67.049 Z-9.879
X17.176 Y67.009 Z-9.906
X17.167 Y66.966 Z-9.931
X17.159 Y66.922 Z-9.952
X17.149 Y66.876 Z-9.969
X17.14 Y66.829 Z-9.982
X17.131 Y66.781 Z-9.992
X17.121 Y66.732 Z-9.998
X17.111 Y66.683 Z-10.
G3 X17.227 Y66.462 I0.195 J-0.039
G1 X18.707 Y65.857
X20.186 Y65.185
X21.455 Y64.559
X21.878 Y64.34
X22.647 Y63.987
X23.285 Y63.754
X24.16 Y63.512
X25.074 Y63.336
X25.998 Y63.213
X26.925 Y63.126
X27.854 Y63.064
X28.785 Y63.021
X30.647 Y62.968
X33.441 Y62.934
X35.304 Y62.925
X36.231 Y62.832
X37.087 Y62.465
X37.819 Y61.889
X38.418 Y61.176
X38.895 Y60.375
X39.267 Y59.521
X39.555 Y58.636
X39.775 Y57.731
X39.943 Y56.814
X40.071 Y55.892
X40.167 Y54.965
X40.239 Y54.037
X40.294 Y53.107
X40.335 Y52.176
X40.388 Y50.314
X40.429 Y47.286
X40.453 Y47.031
X40.521 Y46.784
X40.631 Y46.552
X41.327 Y45.347
X42.084 Y43.914
X42.704 Y42.644
X43.115 Y41.751
G3 X43.263 Y41.552 I0.574 J0.272
G1 X43.3 Y41.519 Z-9.998
X43.337 Y41.486 Z-9.992
X43.373 Y41.453 Z-9.982
X43.408 Y41.421 Z-9.969
X43.443 Y41.389 Z-9.952
X43.477 Y41.359 Z-9.931
X43.509 Y41.33 Z-9.906
X43.54 Y41.302 Z-9.879
X43.569 Y41.276 Z-9.848
X43.596 Y41.251 Z-9.814
X43.621 Y41.229 Z-9.777
X43.644 Y41.208 Z-9.738
X43.665 Y41.189 Z-9.697
X43.683 Y41.173 Z-9.653
X43.698 Y41.159 Z-9.608
X43.711 Y41.147 Z-9.561
X43.721 Y41.138 Z-9.513
X43.728 Y41.132 Z-9.464
X43.733 Y41.128 Z-9.415
X43.734 Y41.127 Z-9.365
G0 Z5.
X21.976 Y65.178
Z-8.73
G1 Z-9.365 F2000
X21.975 Y65.176 Z-9.415
X21.973 Y65.17 Z-9.464
X21.97 Y65.161 Z-9.513
X21.966 Y65.148 Z-9.561
X21.961 Y65.132 Z-9.608
X21.955 Y65.112 Z-9.653
X21.948 Y65.089 Z-9.697
X21.939 Y65.062 Z-9.738
X21.93 Y65.033 Z-9.777
X21.92 Y65. Z-9.814
X21.909 Y64.965 Z-9.848
X21.898 Y64.928 Z-9.879
X21.885 Y64.889 Z-9.906
X21.872 Y64.847 Z-9.931
X21.859 Y64.804 Z-9.952
X21.845 Y64.759 Z-9.969
X21.83 Y64.713 Z-9.982
X21.816 Y64.667 Z-9.992
X21.801 Y64.619 Z-9.998
X21.786 Y64.572 Z-10.
G3 X21.878 Y64.34 I0.189 J-0.059
G1 X22.935 Y63.769
X23.623 Y63.384
X25.049 Y62.528
X25.894 Y61.979
X26.274 Y61.758
X26.755 Y61.528
X27.382 Y61.288
X28.23 Y61.039
X29.142 Y60.85
X30.063 Y60.715
X30.99 Y60.619
X31.919 Y60.55
X32.849 Y60.5
X33.767 Y60.343
X34.604 Y59.936
X35.317 Y59.336
X35.901 Y58.61
X36.366 Y57.803
X36.732 Y56.946
X37.015 Y56.059
X37.233 Y55.153
X37.4 Y54.237
X37.526 Y53.314
X37.622 Y52.388
X37.703 Y51.328
X37.748 Y51.042
X37.847 Y50.771
X37.998 Y50.524
X38.367 Y50.017
X39.225 Y48.781
X39.912 Y47.723
X40.313 Y47.088
X40.631 Y46.552
G3 X40.801 Y46.372 I0.537 J0.339
G1 X40.842 Y46.343 Z-9.998
X40.882 Y46.315 Z-9.992
X40.922 Y46.287 Z-9.982
X40.961 Y46.259 Z-9.969
X40.999 Y46.232 Z-9.952
X41.036 Y46.206 Z-9.931
X41.072 Y46.18 Z-9.906
X41.106 Y46.157 Z-9.879
X41.138 Y46.134 Z-9.848
X41.168 Y46.113 Z-9.814
X41.195 Y46.093 Z-9.777
X41.22 Y46.075 Z-9.738
X41.243 Y46.059 Z-9.697
X41.263 Y46.045 Z-9.653
X41.28 Y46.033 Z-9.608
X41.294 Y46.023 Z-9.561
X41.305 Y46.015 Z-9.513
X41.313 Y46.01 Z-9.464
X41.318 Y46.006 Z-9.415
X41.319 Y46.005 Z-9.365
G0 Z5.
X26.072 Y62.803
Z-8.73
G1 Z-9.365 F2000
X26.071 Y62.802 Z-9.415
X26.069 Y62.796 Z-9.464
X26.065 Y62.787 Z-9.513
X26.06 Y62.775 Z-9.561
X26.053 Y62.759 Z-9.608
X26.045 Y62.74 Z-9.653
X26.036 Y62.717 Z-9.697
X26.025 Y62.692 Z-9.738
X26.013 Y62.663 Z-9.777
X26. Y62.632 Z-9.814
X25.986 Y62.598 Z-9.848
X25.97 Y62.562 Z-9.879
X25.954 Y62.524 Z-9.906
X25.937 Y62.484 Z-9.931
X25.92 Y62.442 Z-9.952
X25.902 Y62.399 Z-9.969
X25.883 Y62.355 Z-9.982
X25.864 Y62.31 Z-9.992
X25.845 Y62.264 Z-9.998
X25.825 Y62.218 Z-10.
G3 X25.894 Y61.979 I0.183 J-0.077
G1 X26.529 Y61.56
X27.844 Y60.633
X28.965 Y59.786
X29.411 Y59.48
X29.806 Y59.252
X31.487 Y58.45
X32.242 Y57.904
X32.889 Y57.235
X33.425 Y56.472
X33.857 Y55.647
X33.915 Y55.501
X33.996 Y55.33
X34.099 Y55.17
X34.22 Y55.025
G3 X35.126 Y55.044 I0.444 J0.454
X35.09 Y55.95 I-0.462 J0.435
G1 X29.795 Y60.748
G3 X28.888 Y60.692 I-0.426 J-0.471
X28.965 Y59.786 I0.481 J-0.415
G1 X29.7 Y59.206
X30.545 Y58.506
X31.602 Y57.577
X32.195 Y57.035
X33.296 Y55.977
X33.928 Y55.331
X34.774 Y54.445
X36.042 Y53.005
X37.099 Y51.711
X37.998 Y50.524
G3 X38.188 Y50.366 I0.494 J0.399
G1 X38.232 Y50.342 Z-9.998
X38.275 Y50.318 Z-9.992
X38.318 Y50.295 Z-9.982
X38.361 Y50.272 Z-9.969
X38.402 Y50.25 Z-9.952
X38.441 Y50.228 Z-9.931
X38.48 Y50.207 Z-9.906
X38.516 Y50.187 Z-9.879
X38.55 Y50.169 Z-9.848
X38.583 Y50.151 Z-9.814
X38.612 Y50.135 Z-9.777
X38.639 Y50.12 Z-9.738
X38.664 Y50.107 Z-9.697
X38.685 Y50.095 Z-9.653
X38.704 Y50.085 Z-9.608
X38.719 Y50.077 Z-9.561
X38.731 Y50.071 Z-9.513
X38.739 Y50.066 Z-9.464
X38.744 Y50.063 Z-9.415
X38.746 Y50.062 Z-9.365
G0 Z5.
X44.84 Y5.404
Z-8.73
G1 Z-9.365 F2000
X44.838 Z-9.415
X44.833 Y5.405 Z-9.464
X44.823 Y5.407 Z-9.513
X44.81 Y5.409 Z-9.561
X44.793 Y5.412 Z-9.608
X44.772 Y5.416 Z-9.653
X44.748 Y5.42 Z-9.697
X44.721 Y5.425 Z-9.738
X44.691 Y5.431 Z-9.777
X44.657 Y5.437 Z-9.814
X44.621 Y5.443 Z-9.848
X44.583 Y5.45 Z-9.879
X44.542 Y5.458 Z-9.906
X44.499 Y5.465 Z-9.931
X44.455 Y5.473 Z-9.952
X44.409 Y5.482 Z-9.969
X44.361 Y5.49 Z-9.982
X44.313 Y5.499 Z-9.992
X44.264 Y5.508 Z-9.998
X44.215 Y5.516 Z-10.
G3 X43.997 Y5.397 I-0.035 J-0.195
G1 X43.345 Y3.704
X42.77 Y2.222
X42.384 Y1.127
X41.75 Y-0.741
X41.489 Y-1.587
X41.327 Y-2.136
X41.108 Y-3.042
X40.913 Y-3.953
X40.777 Y-4.874
X40.682 Y-5.801
X40.616 Y-6.73
X40.569 Y-7.66
X40.512 Y-9.522
X40.476 Y-12.316
X40.459 Y-17.905
X40.461 Y-41.613
X40.484 Y-41.796
X41.602 Y-47.723
X42.566 Y-53.226
X43.018 Y-55.581
G3 X43.118 Y-55.807 I0.62 J0.138
G1 X43.147 Y-55.848 Z-9.998
X43.176 Y-55.889 Z-9.992
X43.204 Y-55.929 Z-9.982
X43.231 Y-55.968 Z-9.969
X43.258 Y-56.006 Z-9.952
X43.284 Y-56.043 Z-9.931
X43.309 Y-56.079 Z-9.906
X43.333 Y-56.113 Z-9.879
X43.356 Y-56.145 Z-9.848
X43.377 Y-56.175 Z-9.814
X43.396 Y-56.203 Z-9.777
X43.414 Y-56.228 Z-9.738
X43.43 Y-56.25 Z-9.697
X43.444 Y-56.27 Z-9.653
X43.456 Y-56.288 Z-9.608
X43.466 Y-56.302 Z-9.561
X43.473 Y-56.313 Z-9.513
X43.479 Y-56.321 Z-9.464
X43.482 Y-56.325 Z-9.415
X43.483 Y-56.327 Z-9.365
G0 Z5.
X42.168 Y-2.071
Z-8.73
G1 Z-9.365 F2000
X42.166 Z-9.415
X42.161 Z-9.464
X42.151 Y-2.069 Z-9.513
X42.137 Y-2.068 Z-9.561
X42.12 Y-2.066 Z-9.608
X42.099 Y-2.064 Z-9.653
X42.075 Y-2.061 Z-9.697
X42.048 Y-2.058 Z-9.738
X42.017 Y-2.055 Z-9.777
X41.983 Y-2.051 Z-9.814
X41.947 Y-2.047 Z-9.848
X41.908 Y-2.043 Z-9.879
X41.867 Y-2.038 Z-9.906
X41.824 Y-2.033 Z-9.931
X41.779 Y-2.029 Z-9.952
X41.732 Y-2.023 Z-9.969
X41.684 Y-2.018 Z-9.982
X41.636 Y-2.013 Z-9.992
X41.587 Y-2.007 Z-9.998
X41.537 Y-2.002 Z-10.
G3 X41.327 Y-2.136 I-0.022 J-0.197
G1 X40.808 Y-3.915
X40.059 Y-6.894
X39.424 Y-9.978
X39.298 Y-10.687
X38.891 Y-13.227
X38.551 Y-16.19
X38.478 Y-17.036
X38.305 Y-19.576
X38.229 Y-22.539
X38.242 Y-23.809
X38.284 Y-25.925
X38.46 Y-28.888
X38.625 Y-30.581
X38.807 Y-32.274
X39.235 Y-35.237
X39.993 Y-39.258
X40.484 Y-41.796
G3 X40.584 Y-42.023 I0.619 J0.14
G1 X40.613 Y-42.064 Z-9.998
X40.642 Y-42.104 Z-9.992
X40.67 Y-42.144 Z-9.982
X40.697 Y-42.183 Z-9.969
X40.724 Y-42.221 Z-9.952
X40.751 Y-42.258 Z-9.931
X40.776 Y-42.294 Z-9.906
X40.8 Y-42.328 Z-9.879
X40.822 Y-42.36 Z-9.848
X40.843 Y-42.39 Z-9.814
X40.863 Y-42.417 Z-9.777
X40.881 Y-42.442 Z-9.738
X40.897 Y-42.465 Z-9.697
X40.911 Y-42.485 Z-9.653
X40.923 Y-42.502 Z-9.608
X40.933 Y-42.516 Z-9.561
X40.94 Y-42.527 Z-9.513
X40.946 Y-42.535 Z-9.464
X40.949 Y-42.54 Z-9.415
X40.951 Y-42.542 Z-9.365
G0 Z5.
X28.723 Y-31.305
Z-8.73
G1 Z-9.365 F2000
X28.725 Y-31.304 Z-9.415
X28.731 Y-31.303 Z-9.464
X28.74 Y-31.302 Z-9.513
X28.754 Y-31.299 Z-9.561
X28.771 Y-31.296 Z-9.608
X28.791 Y-31.293 Z-9.653
X28.815 Y-31.288 Z-9.697
X28.842 Y-31.283 Z-9.738
X28.873 Y-31.278 Z-9.777
X28.906 Y-31.272 Z-9.814
X28.942 Y-31.265 Z-9.848
X28.981 Y-31.259 Z-9.879
X29.022 Y-31.251 Z-9.906
X29.064 Y-31.244 Z-9.931
X29.109 Y-31.236 Z-9.952
X29.155 Y-31.227 Z-9.969
X29.202 Y-31.219 Z-9.982
X29.25 Y-31.21 Z-9.992
X29.299 Y-31.202 Z-9.998
X29.348 Y-31.193 Z-10.
G3 X29.511 Y-31.004 I-0.035 J0.195
G1 Y-28.465
X29.5 Y-28.235
X29.468 Y-27.993
X29.408 Y-27.711
X29.323 Y-27.426
X29.192 Y-27.092
X29.024 Y-26.745
X28.801 Y-26.365
X28.513 Y-25.956
X28.154 Y-25.524
X27.713 Y-25.072
X27.152 Y-24.582
X26.458 Y-24.068
X25.667 Y-23.576
X24.842 Y-23.143
X23.992 Y-22.762
X23.124 Y-22.425
X22.242 Y-22.126
X21.349 Y-21.86
X20.448 Y-21.624
X19.541 Y-21.413
X18.628 Y-21.225
X17.712 Y-21.058
X17.029 Y-20.947
X16.767 Y-20.928
X16.506 Y-20.955
X16.254 Y-21.029
X15.958 Y-21.144
X13.21 Y-22.055
X10.315 Y-22.806
G3 X10.311 Y-24.032 I0.163 J-0.614
G1 X28.71 Y-29.055
G3 X29.511 Y-28.465 I0.167 J0.613
G1 Y-25.925
X29.504 Y-25.785
X29.473 Y-25.542
X29.412 Y-25.259
X29.326 Y-24.973
X29.196 Y-24.639
X29.026 Y-24.289
X28.803 Y-23.909
X28.514 Y-23.498
X28.154 Y-23.064
X27.71 Y-22.609
X27.145 Y-22.117
X26.446 Y-21.6
X25.656 Y-21.107
X24.831 Y-20.674
X23.982 Y-20.291
X23.114 Y-19.953
X22.233 Y-19.652
X21.34 Y-19.384
X21.061 Y-19.31
X20.8 Y-19.265
X20.535 Y-19.268
X20.275 Y-19.317
X20.028 Y-19.412
X19.129 Y-19.85
X18.271 Y-20.211
X16.311 Y-21.006
X16.254 Y-21.029
G3 X16.297 Y-22.212 I0.251 J-0.583
G1 X28.669 Y-26.503
G3 X29.511 Y-25.925 I0.208 J0.6
G1 Y-23.597
X29.498 Y-23.319
X29.466 Y-23.077
X29.405 Y-22.793
X29.32 Y-22.507
X29.189 Y-22.173
X29.019 Y-21.822
X28.796 Y-21.443
X28.506 Y-21.031
X28.146 Y-20.596
X27.7 Y-20.14
X27.133 Y-19.645
X26.431 Y-19.126
X25.64 Y-18.634
X24.816 Y-18.2
X24.156 Y-17.901
X23.891 Y-17.811
X23.613 Y-17.771
X23.333 Y-17.785
X23.06 Y-17.852
X22.805 Y-17.968
X21.878 Y-18.497
X20.609 Y-19.127
X20.028 Y-19.412
G3 X20.081 Y-20.557 I0.299 J-0.56
G1 X28.63 Y-24.16
G3 X29.511 Y-23.597 I0.247 J0.585
G1 Y-21.058
X29.502 Y-20.861
X29.47 Y-20.619
X29.409 Y-20.335
X29.323 Y-20.047
X29.193 Y-19.713
X29.021 Y-19.359
X28.798 Y-18.98
X28.506 Y-18.565
X28.145 Y-18.13
X27.697 Y-17.67
X27.171 Y-17.212
X26.692 Y-16.857
X26.474 Y-16.721
X26.171 Y-16.578
X25.843 Y-16.506
X25.508 Y-16.509
X25.182 Y-16.588
X24.882 Y-16.738
X24.415 Y-17.038
X22.805 Y-17.968
G3 X22.885 Y-19.088 I0.336 J-0.539
G1 X28.621 Y-21.616
G3 X29.511 Y-21.058 I0.256 J0.581
G1 Y-18.73
X29.494 Y-18.389
X29.463 Y-18.146
X29.403 Y-17.866
X29.318 Y-17.582
X29.192 Y-17.26
X29.039 Y-16.945
X28.866 Y-16.651
X28.663 Y-16.361
X28.465 Y-16.124
X28.186 Y-15.845
X27.922 Y-15.661
X27.623 Y-15.538
X27.306 Y-15.483
X26.984 Y-15.498
X26.672 Y-15.582
X26.387 Y-15.731
X24.882 Y-16.738
G3 X25.012 Y-17.847 I0.365 J-0.52
G1 X28.641 Y-19.297
G3 X29.511 Y-18.73 I0.236 J0.59
G1 Y-16.402
X29.502 Y-16.216
X29.481 Y-16.053
X29.448 Y-15.901
X29.401 Y-15.745
X29.336 Y-15.577
X29.26 Y-15.42
X29.072 Y-15.175
X28.831 Y-14.981
X28.551 Y-14.85
X28.247 Y-14.79
X27.938 Y-14.804
X27.642 Y-14.891
X27.374 Y-15.047
G3 X27.388 Y-16.049 I0.396 J-0.496
G1 X28.494 Y-16.886
G3 X29.511 Y-16.402 I0.383 J0.506
G1 Y-15.132
X29.505 Y-14.997
X29.419 Y-14.759
X29.269 Y-14.556
X29.067 Y-14.404
X28.83 Y-14.316
X28.577 Y-14.299
X28.331 Y-14.355
X28.111 Y-14.479
G3 X27.819 Y-15.143 I0.519 J-0.624
X29.511 Y-15.132 I0.846 J0.041
G1 X29.505 Y-14.626
X29.474 Y-14.497
X29.424 Y-14.391
X29.346 Y-14.285
X29.277 Y-14.22
X29.171 Y-14.148
X29.066 Y-14.101
X28.954 Y-14.074
X28.854 Y-14.067
X28.705 Y-14.086
X28.59 Y-14.128
X28.537 Y-14.156
X27.163 Y-15.204
X26.387 Y-15.731
X26.365 Y-15.754 Z-9.998
X26.344 Y-15.775 Z-9.992
X26.324 Y-15.797 Z-9.983
X26.304 Y-15.817 Z-9.969
X26.286 Y-15.835 Z-9.953
X26.269 Y-15.853 Z-9.933
X26.255 Y-15.868 Z-9.911
X26.242 Y-15.881 Z-9.886
X26.231 Y-15.892 Z-9.859
X26.226 Y-15.901 Z-9.833
X26.221 Y-15.908 Z-9.806
X26.219 Y-15.912 Z-9.779
X26.218 Y-15.913 Z-9.751
G0 Z5.
X2.291 Y24.462
Z3.135
G1 Z2.5 F2000
G3 X-2.301 Y20.55 Z2.169 I-2.296 J-1.956 F500.
X2.291 Y24.462 Z1.838 I2.296 J1.956
X-2.301 Y20.55 Z1.507 I-2.296 J-1.956
X2.291 Y24.462 Z1.176 I2.296 J1.956
X-2.301 Y20.55 Z0.845 I-2.296 J-1.956
X2.291 Y24.462 Z0.515 I2.296 J1.956
X-2.301 Y20.55 Z0.184 I-2.296 J-1.956
X2.291 Y24.462 Z-0.147 I2.296 J1.956
X-2.301 Y20.55 Z-0.478 I-2.296 J-1.956
X2.291 Y24.462 Z-0.809 I2.296 J1.956
X-2.301 Y20.55 Z-1.14 I-2.296 J-1.956
X2.291 Y24.462 Z-1.471 I2.296 J1.956
X-2.301 Y20.55 Z-1.802 I-2.296 J-1.956
X2.291 Y24.462 Z-2.133 I2.296 J1.956
X-2.301 Y20.55 Z-2.464 I-2.296 J-1.956
X2.291 Y24.462 Z-2.794 I2.296 J1.956
X-2.301 Y20.55 Z-3.125 I-2.296 J-1.956
X2.291 Y24.462 Z-3.456 I2.296 J1.956
X-2.301 Y20.55 Z-3.787 I-2.296 J-1.956
X2.291 Y24.462 Z-4.118 I2.296 J1.956
X-2.301 Y20.55 Z-4.449 I-2.296 J-1.956
X2.291 Y24.462 Z-4.78 I2.296 J1.956
X-2.301 Y20.55 Z-5.111 I-2.296 J-1.956
X2.291 Y24.462 Z-5.442 I2.296 J1.956
X-2.301 Y20.55 Z-5.773 I-2.296 J-1.956
X2.291 Y24.462 Z-6.103 I2.296 J1.956
X-2.301 Y20.55 Z-6.434 I-2.296 J-1.956
X2.291 Y24.462 Z-6.765 I2.296 J1.956
X-2.301 Y20.55 Z-7.096 I-2.296 J-1.956
X2.291 Y24.462 Z-7.427 I2.296 J1.956
X-2.301 Y20.55 Z-7.758 I-2.296 J-1.956
X2.291 Y24.462 Z-8.089 I2.296 J1.956
X-2.301 Y20.55 Z-8.42 I-2.296 J-1.956
X2.291 Y24.462 Z-8.751 I2.296 J1.956
X-2.301 Y20.55 Z-9.082 I-2.296 J-1.956
X2.291 Y24.462 Z-9.413 I2.296 J1.956
X-2.301 Y20.55 Z-9.743 I-2.296 J-1.956
X3.011 Y22.506 Z-10. I2.296 J1.956
X-3.021 I-3.016 J0.
X3.011 I3.016 J0.
G1 X3.015 Y22.738 F2000
X3.176 Y23.656
X3.216 Y23.765
X3.251 Y23.896
X3.274 Y24.029
X3.286 Y24.171
X3.287 Y24.325
X3.275 Y24.49
X3.247 Y24.665
X3.203 Y24.849
X3.141 Y25.04
X3.059 Y25.236
X2.956 Y25.435
X2.832 Y25.634
X2.686 Y25.832
X2.517 Y26.025
X2.327 Y26.212
X2.114 Y26.388
X1.879 Y26.553
X1.625 Y26.703
X1.352 Y26.835
X1.061 Y26.949
X0.755 Y27.04
X0.437 Y27.109
X0.107 Y27.152
X-0.231 Y27.169
X-0.575 Y27.158
X-0.921 Y27.12
X-1.268 Y27.053
X-1.611 Y26.957
X-1.95 Y26.833
X-2.28 Y26.681
X-2.6 Y26.501
X-2.906 Y26.295
X-3.196 Y26.063
X-3.469 Y25.808
X-3.721 Y25.53
X-3.951 Y25.232
X-4.157 Y24.915
X-4.338 Y24.581
X-4.491 Y24.233
X-4.617 Y23.873
X-4.713 Y23.503
X-4.78 Y23.126
X-4.816 Y22.744
X-4.821 Y22.36
X-4.796 Y21.977
X-4.74 Y21.596
X-4.653 Y21.22
X-4.536 Y20.852
X-4.39 Y20.495
X-4.216 Y20.15
X-4.015 Y19.821
X-3.787 Y19.508
X-3.536 Y19.214
X-3.261 Y18.942
X-2.965 Y18.692
X-2.65 Y18.467
X-2.318 Y18.268
X-1.971 Y18.096
X-1.611 Y17.952
X-1.241 Y17.838
X-0.862 Y17.753
X-0.479 Y17.7
X-0.092 Y17.677
X0.296 Y17.686
X0.682 Y17.725
X1.063 Y17.796
X1.438 Y17.897
X1.803 Y18.027
X2.156 Y18.187
X2.496 Y18.374
X2.819 Y18.588
X3.125 Y18.827
X3.41 Y19.09
X3.673 Y19.375
X3.912 Y19.681
X4.126 Y20.004
X4.503 Y20.687
X4.814 Y21.375
X5.014 Y21.935
X5.15 Y22.438
X5.237 Y22.909
X5.284 Y23.365
X5.294 Y23.806
X5.269 Y24.235
X5.211 Y24.653
X5.12 Y25.062
X4.997 Y25.461
X4.842 Y25.85
X4.655 Y26.227
X4.437 Y26.59
X4.189 Y26.937
X3.911 Y27.267
X3.604 Y27.577
X3.269 Y27.864
X2.907 Y28.127
X2.52 Y28.364
X2.11 Y28.572
X1.678 Y28.748
X1.227 Y28.891
X0.761 Y28.999
X0.282 Y29.07
X-0.207 Y29.102
X-0.702 Y29.096
X-1.2 Y29.049
X-1.697 Y28.961
X-2.189 Y28.833
X-2.673 Y28.664
X-3.145 Y28.456
X-3.602 Y28.209
X-4.039 Y27.925
X-4.455 Y27.604
X-4.846 Y27.25
X-5.209 Y26.863
X-5.541 Y26.447
X-5.84 Y26.003
X-6.103 Y25.536
X-6.328 Y25.047
X-6.514 Y24.541
X-6.659 Y24.02
X-6.762 Y23.488
X-6.822 Y22.949
X-6.839 Y22.405
X-6.812 Y21.861
X-6.741 Y21.32
X-6.627 Y20.786
X-6.47 Y20.262
X-6.271 Y19.753
X-6.033 Y19.26
X-5.755 Y18.788
X-5.44 Y18.339
X-5.089 Y17.917
X-4.706 Y17.524
X-4.292 Y17.163
X-3.851 Y16.836
X-3.385 Y16.546
X-2.896 Y16.294
X-2.389 Y16.081
X-1.866 Y15.911
X-1.332 Y15.782
X-0.788 Y15.697
X-0.24 Y15.656
X0.31 Y15.659
X0.858 Y15.707
X1.401 Y15.798
X1.935 Y15.932
X2.456 Y16.109
X2.961 Y16.327
X3.448 Y16.585
X3.912 Y16.881
X4.35 Y17.213
X4.819 Y17.631
X5.284 Y18.118
X5.719 Y18.656
X6.119 Y19.239
X6.469 Y19.848
X6.762 Y20.47
X6.998 Y21.097
X7.178 Y21.725
X7.305 Y22.351
X7.38 Y22.976
X7.404 Y23.596
X7.378 Y24.209
X7.304 Y24.813
X7.183 Y25.405
X7.015 Y25.984
X6.801 Y26.546
X6.543 Y27.09
X6.241 Y27.612
X5.898 Y28.11
X5.513 Y28.581
X5.09 Y29.022
X4.629 Y29.431
X4.133 Y29.805
X3.605 Y30.14
X3.047 Y30.434
X2.461 Y30.684
X1.853 Y30.889
X1.225 Y31.045
X0.582 Y31.151
X-0.073 Y31.205
X-0.735 Y31.207
X-1.399 Y31.155
X-2.061 Y31.05
X-2.717 Y30.891
X-3.362 Y30.678
X-3.991 Y30.413
X-4.6 Y30.096
X-5.185 Y29.73
X-5.741 Y29.316
X-6.264 Y28.856
X-6.75 Y28.354
X-7.197 Y27.813
X-7.6 Y27.236
X-7.956 Y26.626
X-8.264 Y25.988
X-8.519 Y25.325
X-8.721 Y24.643
X-8.868 Y23.945
X-8.959 Y23.237
X-8.993 Y22.522
X-8.969 Y21.806
X-8.887 Y21.093
X-8.749 Y20.388
X-8.554 Y19.696
X-8.304 Y19.021
X-8.001 Y18.368
X-7.645 Y17.741
X-7.241 Y17.145
X-6.789 Y16.582
X-6.294 Y16.057
X-5.758 Y15.573
X-5.184 Y15.134
X-4.577 Y14.742
X-3.941 Y14.4
X-3.279 Y14.11
X-2.595 Y13.874
X-1.895 Y13.694
X-1.182 Y13.571
X-0.462 Y13.505
X0.262 Y13.497
X0.983 Y13.547
X1.699 Y13.655
X2.403 Y13.82
X3.093 Y14.041
X3.762 Y14.317
X4.423 Y14.654
X5.078 Y15.056
X5.717 Y15.524
X6.333 Y16.056
X6.916 Y16.647
X7.455 Y17.29
X7.941 Y17.975
X8.371 Y18.696
X8.739 Y19.444
X9.043 Y20.213
X9.282 Y20.998
X9.456 Y21.792
X9.565 Y22.592
X9.609 Y23.391
X9.589 Y24.186
X9.506 Y24.973
X9.361 Y25.748
X9.154 Y26.506
X8.887 Y27.244
X8.562 Y27.958
X8.181 Y28.645
X7.745 Y29.3
X7.256 Y29.919
X6.717 Y30.5
X6.13 Y31.038
X5.499 Y31.53
X4.826 Y31.972
X4.117 Y32.361
X3.373 Y32.693
X2.601 Y32.967
X1.805 Y33.179
X0.99 Y33.327
X0.16 Y33.41
X-0.678 Y33.426
X-1.519 Y33.374
X-2.358 Y33.255
X-3.189 Y33.067
X-4.006 Y32.813
X-4.804 Y32.492
X-5.576 Y32.106
X-6.319 Y31.658
X-7.026 Y31.149
X-7.692 Y30.583
X-8.312 Y29.964
X-8.883 Y29.295
X-9.4 Y28.58
X-9.859 Y27.824
X-10.256 Y27.032
X-10.59 Y26.208
X-10.857 Y25.358
X-11.055 Y24.489
X-11.183 Y23.604
X-11.24 Y22.711
X-11.225 Y21.816
X-11.137 Y20.923
X-10.979 Y20.039
X-10.749 Y19.17
X-10.451 Y18.321
X-10.085 Y17.498
X-9.654 Y16.707
X-9.16 Y15.953
X-8.607 Y15.24
X-7.999 Y14.574
X-7.339 Y13.958
X-6.631 Y13.397
X-5.88 Y12.895
X-5.091 Y12.454
X-4.27 Y12.078
X-3.42 Y11.77
X-2.548 Y11.53
X-1.66 Y11.361
X-0.761 Y11.264
X0.143 Y11.239
X1.046 Y11.287
X1.943 Y11.407
X2.83 Y11.599
X3.706 Y11.865
X4.568 Y12.203
X5.404 Y12.612
X6.206 Y13.087
X6.968 Y13.623
X7.686 Y14.215
X8.358 Y14.86
X8.98 Y15.554
X9.549 Y16.291
X10.063 Y17.068
X10.518 Y17.881
X10.912 Y18.725
X11.242 Y19.596
X11.506 Y20.489
X11.703 Y21.4
X11.831 Y22.322
X11.887 Y23.252
X11.873 Y24.184
X11.787 Y25.111
X11.629 Y26.029
X11.402 Y26.932
X11.105 Y27.815
X10.742 Y28.673
X10.313 Y29.5
X9.822 Y30.291
X9.272 Y31.043
X8.665 Y31.75
X8.007 Y32.409
X7.3 Y33.015
X6.549 Y33.567
X5.759 Y34.06
X4.934 Y34.492
X4.079 Y34.862
X3.199 Y35.168
X2.299 Y35.406
X1.383 Y35.577
X0.457 Y35.679
X-0.474 Y35.712
X-1.405 Y35.676
X-2.33 Y35.573
X-3.246 Y35.404
X-4.148 Y35.169
X-5.03 Y34.871
X-5.889 Y34.511
X-6.72 Y34.091
X-7.519 Y33.611
X-8.28 Y33.074
X-9.002 Y32.485
X-9.68 Y31.847
X-10.312 Y31.162
X-10.895 Y30.436
X-11.426 Y29.671
X-11.903 Y28.87
X-12.32 Y28.038
X-12.678 Y27.178
X-12.975 Y26.295
X-13.21 Y25.394
X-13.383 Y24.478
X-13.493 Y23.553
X-13.539 Y22.623
X-13.519 Y21.692
X-13.434 Y20.764
X-13.284 Y19.845
X-13.071 Y18.938
X-12.797 Y18.048
X-12.464 Y17.178
X-12.072 Y16.333
X-11.621 Y15.518
X-11.114 Y14.736
X-10.555 Y13.992
X-9.945 Y13.287
X-9.289 Y12.626
X-8.59 Y12.01
X-7.851 Y11.443
X-7.074 Y10.93
X-6.263 Y10.472
X-5.422 Y10.071
X-4.556 Y9.729
X-3.668 Y9.447
X-2.763 Y9.225
X-1.846 Y9.065
X-0.919 Y8.969
X0.012 Y8.939
X0.943 Y8.973
X1.869 Y9.071
X2.787 Y9.23
X3.692 Y9.451
X4.58 Y9.732
X5.446 Y10.075
X6.287 Y10.475
X7.1 Y10.93
X7.881 Y11.436
X8.629 Y11.991
X9.341 Y12.593
X10.011 Y13.24
X10.638 Y13.928
X11.221 Y14.655
X11.757 Y15.416
X12.246 Y16.209
X12.686 Y17.031
X13.072 Y17.878
X13.403 Y18.749
X13.677 Y19.639
X13.896 Y20.545
X14.057 Y21.462
X14.16 Y22.388
X14.204 Y23.318
X14.187 Y24.249
X14.108 Y25.178
X13.97 Y26.099
X13.774 Y27.009
X13.521 Y27.906
X13.211 Y28.784
X12.843 Y29.64
X12.419 Y30.469
X11.943 Y31.27
X11.417 Y32.038
X10.843 Y32.772
X10.224 Y33.469
X9.561 Y34.123
X8.857 Y34.732
X8.115 Y35.295
X7.339 Y35.81
X6.532 Y36.276
X5.699 Y36.692
X4.84 Y37.053
X3.96 Y37.358
X3.062 Y37.606
X2.151 Y37.798
X1.229 Y37.932
X0.301 Y38.01
X-0.631 Y38.031
X-1.561 Y37.992
X-2.488 Y37.895
X-3.406 Y37.742
X-4.314 Y37.533
X-5.208 Y37.271
X-6.084 Y36.956
X-6.94 Y36.587
X-7.771 Y36.166
X-8.574 Y35.694
X-9.347 Y35.174
X-10.087 Y34.609
X-10.793 Y34.001
X-11.462 Y33.353
X-12.091 Y32.666
X-12.677 Y31.942
X-13.217 Y31.183
X-13.712 Y30.394
X-14.159 Y29.577
X-14.557 Y28.735
X-14.905 Y27.871
X-15.2 Y26.987
X-15.441 Y26.087
X-15.629 Y25.175
X-15.763 Y24.253
X-15.843 Y23.325
X-15.869 Y22.394
X-15.84 Y21.463
X-15.753 Y20.536
X-15.612 Y19.615
X-15.417 Y18.704
X-15.169 Y17.806
X-14.87 Y16.924
X-14.521 Y16.061
X-14.121 Y15.219
X-13.671 Y14.404
X-13.172 Y13.617
X-12.628 Y12.861
X-12.042 Y12.137
X-11.415 Y11.449
X-10.749 Y10.797
X-10.046 Y10.186
X-9.308 Y9.618
X-8.536 Y9.096
X-7.736 Y8.62
X-6.909 Y8.191
X-6.059 Y7.81
X-5.188 Y7.479
X-4.3 Y7.199
X-3.396 Y6.974
X-2.48 Y6.803
X-1.556 Y6.685
X-0.627 Y6.622
X0.304 Y6.612
X1.235 Y6.656
X2.161 Y6.755
X3.08 Y6.908
X3.988 Y7.115
X4.883 Y7.374
X5.761 Y7.684
X6.62 Y8.043
X7.458 Y8.45
X8.271 Y8.905
X9.057 Y9.405
X9.814 Y9.948
X10.539 Y10.532
X11.231 Y11.156
X11.889 Y11.816
X12.51 Y12.51
X13.091 Y13.237
X13.632 Y13.996
X14.131 Y14.782
X14.586 Y15.595
X14.997 Y16.431
X15.362 Y17.288
X15.68 Y18.163
X15.951 Y19.055
X16.171 Y19.96
X16.341 Y20.876
X16.46 Y21.799
X16.529 Y22.728
X16.546 Y23.66
X16.513 Y24.591
X16.428 Y25.518
X16.291 Y26.439
X16.103 Y27.352
X15.864 Y28.252
X15.576 Y29.138
X15.239 Y30.006
X14.855 Y30.855
X14.426 Y31.681
X13.95 Y32.482
X13.43 Y33.255
X12.868 Y33.998
X12.265 Y34.708
X11.625 Y35.385
X10.949 Y36.025
X10.239 Y36.628
X9.496 Y37.191
X8.724 Y37.711
X7.924 Y38.189
X7.099 Y38.622
X6.252 Y39.009
X5.386 Y39.35
X4.502 Y39.645
X3.603 Y39.89
X2.692 Y40.085
X1.772 Y40.231
X0.846 Y40.327
X-0.084 Y40.373
X-1.016 Y40.369
X-1.946 Y40.316
X-2.872 Y40.215
X-3.791 Y40.063
X-4.7 Y39.862
X-5.598 Y39.614
X-6.481 Y39.318
X-7.348 Y38.977
X-8.195 Y38.59
X-9.022 Y38.16
X-9.824 Y37.686
X-10.599 Y37.171
X-11.347 Y36.615
X-12.065 Y36.021
X-12.75 Y35.391
X-13.403 Y34.726
X-14.02 Y34.029
X-14.601 Y33.3
X-15.142 Y32.542
X-15.642 Y31.756
X-16.101 Y30.946
X-16.518 Y30.112
X-16.891 Y29.259
X-17.219 Y28.388
X-17.504 Y27.5
X-17.742 Y26.6
X-17.932 Y25.688
X-18.075 Y24.768
X-18.17 Y23.841
X-18.218 Y22.911
Y21.979
X-18.17 Y21.049
X-18.076 Y20.123
X-17.933 Y19.202
X-17.743 Y18.29
X-17.506 Y17.389
X-17.223 Y16.502
X-16.896 Y15.63
X-16.524 Y14.776
X-16.11 Y13.941
X-15.654 Y13.129
X-15.156 Y12.342
X-14.617 Y11.582
X-14.041 Y10.85
X-13.429 Y10.148
X-12.781 Y9.479
X-12.101 Y8.843
X-11.389 Y8.242
X-10.647 Y7.679
X-9.877 Y7.155
X-9.081 Y6.671
X-8.261 Y6.229
X-7.42 Y5.829
X-6.559 Y5.472
X-5.682 Y5.159
X-4.79 Y4.89
X-3.886 Y4.668
X-2.971 Y4.493
X-2.048 Y4.366
X-1.12 Y4.286
X-0.189 Y4.253
X0.742 Y4.267
X1.672 Y4.327
X2.597 Y4.435
X3.516 Y4.59
X4.425 Y4.792
X5.323 Y5.04
X6.207 Y5.333
X7.076 Y5.669
X7.927 Y6.047
X8.758 Y6.467
X9.568 Y6.928
X10.354 Y7.428
X11.114 Y7.966
X11.846 Y8.542
X12.55 Y9.152
X13.224 Y9.795
X13.867 Y10.469
X14.476 Y11.173
X15.052 Y11.905
X15.592 Y12.664
X16.094 Y13.449
X16.557 Y14.257
X16.982 Y15.086
X17.366 Y15.935
X17.71 Y16.8
X18.013 Y17.681
X18.274 Y18.575
X18.491 Y19.481
X18.663 Y20.397
X18.79 Y21.319
X18.872 Y22.247
X18.91 Y23.178
X18.903 Y24.109
X18.852 Y25.039
X18.756 Y25.966
X18.615 Y26.887
X18.429 Y27.799
X18.197 Y28.701
X17.922 Y29.591
X17.604 Y30.467
X17.245 Y31.326
X16.844 Y32.167
X16.404 Y32.988
X15.924 Y33.786
X15.406 Y34.56
X14.849 Y35.307
X14.257 Y36.026
X13.631 Y36.716
X12.973 Y37.375
X12.284 Y38.002
X11.566 Y38.596
X10.821 Y39.154
X10.049 Y39.675
X9.252 Y40.158
X8.433 Y40.602
X7.594 Y41.006
X6.736 Y41.37
X5.863 Y41.693
X4.975 Y41.974
X4.074 Y42.213
X3.164 Y42.408
X2.244 Y42.559
X1.319 Y42.665
X0.39 Y42.728
X-0.542 Y42.747
X-1.473 Y42.723
X-2.402 Y42.655
X-3.327 Y42.545
X-4.245 Y42.391
X-5.156 Y42.194
X-6.056 Y41.953
X-6.943 Y41.671
X-7.817 Y41.348
X-8.675 Y40.985
X-9.515 Y40.583
X-10.336 Y40.143
X-11.135 Y39.665
X-11.912 Y39.15
X-12.663 Y38.6
X-13.388 Y38.015
X-14.085 Y37.397
X-14.753 Y36.748
X-15.392 Y36.07
X-15.998 Y35.363
X-16.572 Y34.629
X-17.111 Y33.87
X-17.615 Y33.086
X-18.081 Y32.279
X-18.509 Y31.452
X-18.9 Y30.607
X-19.252 Y29.745
X-19.565 Y28.867
X-19.838 Y27.977
X-20.071 Y27.075
X-20.262 Y26.163
X-20.41 Y25.243
X-20.515 Y24.318
X-20.578 Y23.389
X-20.6 Y22.457
X-20.579 Y21.526
X-20.517 Y20.597
X-20.413 Y19.671
X-20.267 Y18.751
X-20.079 Y17.839
X-19.849 Y16.936
X-19.578 Y16.045
X-19.267 Y15.167
X-18.917 Y14.304
X-18.529 Y13.457
X-18.103 Y12.629
X-17.64 Y11.82
X-17.141 Y11.034
X-16.606 Y10.271
X-16.037 Y9.534
X-15.435 Y8.823
X-14.802 Y8.14
X-14.139 Y7.486
X-13.447 Y6.862
X-12.728 Y6.27
X-11.983 Y5.711
X-11.213 Y5.187
X-10.42 Y4.699
X-9.605 Y4.247
X-8.771 Y3.832
X-7.919 Y3.456
X-7.051 Y3.117
X-6.169 Y2.818
X-5.274 Y2.559
X-4.369 Y2.34
X-3.454 Y2.163
X-2.533 Y2.029
X-1.606 Y1.936
X-0.676 Y1.885
X0.256 Y1.876
X1.187 Y1.908
X2.115 Y1.981
X3.04 Y2.096
X3.958 Y2.252
X4.868 Y2.451
X5.768 Y2.69
X6.657 Y2.969
X7.532 Y3.288
X8.393 Y3.644
X9.237 Y4.037
X10.064 Y4.467
X10.871 Y4.932
X11.656 Y5.432
X12.419 Y5.967
X13.157 Y6.535
X13.87 Y7.134
X14.557 Y7.763
X15.217 Y8.421
X15.848 Y9.106
X16.449 Y9.817
X17.02 Y10.553
X17.559 Y11.313
X18.064 Y12.096
X18.535 Y12.9
X18.97 Y13.723
X19.371 Y14.564
X19.736 Y15.421
X20.064 Y16.293
X20.355 Y17.177
X20.609 Y18.074
X20.824 Y18.98
X20.998 Y19.895
X21.133 Y20.817
X21.227 Y21.743
X21.282 Y22.673
X21.297 Y23.605
X21.273 Y24.536
X21.209 Y25.465
X21.105 Y26.391
X20.962 Y27.311
X20.777 Y28.224
X20.553 Y29.128
X20.29 Y30.022
X19.988 Y30.903
X19.649 Y31.77
X19.273 Y32.623
X18.862 Y33.458
X18.415 Y34.275
X17.932 Y35.073
X17.416 Y35.847
X16.865 Y36.599
X16.283 Y37.326
X15.669 Y38.027
X15.027 Y38.701
X14.356 Y39.348
X13.659 Y39.965
X12.936 Y40.553
X12.189 Y41.109
X11.418 Y41.631
X10.625 Y42.12
X9.811 Y42.574
X8.979 Y42.993
X8.13 Y43.376
X7.266 Y43.723
X6.388 Y44.034
X5.497 Y44.307
X4.596 Y44.542
X3.686 Y44.739
X2.767 Y44.895
X1.843 Y45.012
X0.915 Y45.09
X-0.015 Y45.13
X-0.947
X-1.878 Y45.092
X-2.806 Y45.016
X-3.73 Y44.901
X-4.649 Y44.747
X-5.56 Y44.554
X-6.462 Y44.322
X-7.354 Y44.053
X-8.234 Y43.747
X-9.1 Y43.405
X-9.952 Y43.028
X-10.788 Y42.616
X-11.606 Y42.171
X-12.404 Y41.692
X-13.182 Y41.179
X-13.938 Y40.634
X-14.67 Y40.058
X-15.378 Y39.453
X-16.06 Y38.819
X-16.716 Y38.158
X-17.345 Y37.471
X-17.946 Y36.759
X-18.517 Y36.023
X-19.057 Y35.264
X-19.564 Y34.483
X-20.038 Y33.681
X-20.479 Y32.86
X-20.887 Y32.023
X-21.26 Y31.169
X-21.598 Y30.302
X-21.902 Y29.421
X-22.169 Y28.529
X-22.4 Y27.626
X-22.593 Y26.715
X-22.748 Y25.796
X-22.864 Y24.872
X-22.944 Y23.944
X-22.985 Y23.014
X-22.989 Y22.082
X-22.956 Y21.151
X-22.886 Y20.223
X-22.778 Y19.297
X-22.632 Y18.377
X-22.448 Y17.464
X-22.227 Y16.56
X-21.969 Y15.665
X-21.674 Y14.781
X-21.345 Y13.91
X-20.981 Y13.052
X-20.583 Y12.21
X-20.151 Y11.385
X-19.687 Y10.577
X-19.189 Y9.79
X-18.659 Y9.024
X-18.098 Y8.28
X-17.508 Y7.56
X-16.889 Y6.864
X-16.243 Y6.193
X-15.57 Y5.548
X-14.872 Y4.931
X-14.15 Y4.343
X-13.405 Y3.784
X-12.637 Y3.257
X-11.848 Y2.762
X-11.039 Y2.3
X-10.213 Y1.871
X-9.369 Y1.475
X-8.511 Y1.113
X-7.639 Y0.785
X-6.755 Y0.493
X-5.859 Y0.236
X-4.954 Y0.017
X-4.041 Y-0.165
X-3.12 Y-0.309
X-2.195 Y-0.415
X-1.266 Y-0.485
X-0.335 Y-0.517
X0.596 Y-0.512
X1.527 Y-0.47
X2.455 Y-0.391
X3.379 Y-0.275
X4.298 Y-0.121
X5.209 Y0.071
X6.112 Y0.299
X7.006 Y0.563
X7.888 Y0.863
X8.757 Y1.197
X9.613 Y1.564
X10.454 Y1.965
X11.278 Y2.398
X12.085 Y2.864
X12.873 Y3.361
X13.64 Y3.89
X14.385 Y4.448
X15.108 Y5.035
X15.808 Y5.65
X16.484 Y6.291
X17.136 Y6.957
X17.761 Y7.647
X18.359 Y8.361
X18.93 Y9.097
X19.471 Y9.855
X19.982 Y10.634
X20.462 Y11.432
X20.911 Y12.248
X21.329 Y13.081
X21.715 Y13.929
X22.068 Y14.791
X22.388 Y15.665
X22.675 Y16.551
X22.928 Y17.448
X23.145 Y18.354
X23.326 Y19.267
X23.471 Y20.188
X23.58 Y21.113
X23.654 Y22.041
X23.692 Y22.972
X23.694 Y23.903
X23.661 Y24.834
X23.592 Y25.763
X23.488 Y26.689
X23.346 Y27.609
X23.168 Y28.524
X22.954 Y29.43
X22.705 Y30.328
X22.422 Y31.215
X22.104 Y32.091
X21.754 Y32.954
X21.37 Y33.803
X20.955 Y34.636
X20.507 Y35.453
X20.027 Y36.251
X19.515 Y37.03
X18.974 Y37.787
X18.403 Y38.524
X17.804 Y39.237
X17.179 Y39.927
X16.527 Y40.593
X15.851 Y41.234
X15.151 Y41.848
X14.428 Y42.435
X13.682 Y42.993
X12.914 Y43.521
X12.127 Y44.018
X11.321 Y44.485
X10.498 Y44.921
X9.658 Y45.325
X8.804 Y45.696
X7.937 Y46.036
X7.057 Y46.342
X6.166 Y46.615
X5.266 Y46.852
X4.356 Y47.054
X3.44 Y47.221
X2.518 Y47.352
X1.591 Y47.448
X0.662 Y47.509
X-0.269 Y47.536
X-1.201 Y47.528
X-2.131 Y47.485
X-3.059 Y47.407
X-3.984 Y47.294
X-4.903 Y47.144
X-5.816 Y46.96
X-6.722 Y46.741
X-7.618 Y46.488
X-8.505 Y46.202
X-9.38 Y45.883
X-10.243 Y45.532
X-11.092 Y45.149
X-11.926 Y44.736
X-12.745 Y44.291
X-13.545 Y43.815
X-14.327 Y43.308
X-15.089 Y42.773
X-15.831 Y42.209
X-16.551 Y41.619
X-17.249 Y41.002
X-17.924 Y40.36
X-18.575 Y39.694
X-19.201 Y39.004
X-19.802 Y38.292
X-20.374 Y37.557
X-20.919 Y36.801
X-21.434 Y36.026
X-21.92 Y35.231
X-22.377 Y34.419
X-22.803 Y33.591
X-23.199 Y32.748
X-23.564 Y31.891
X-23.898 Y31.021
X-24.199 Y30.14
X-24.468 Y29.248
X-24.703 Y28.347
X-24.903 Y27.437
X-25.07 Y26.521
X-25.202 Y25.599
X-25.3 Y24.672
X-25.365 Y23.743
X-25.396 Y22.812
X-25.393 Y21.881
X-25.357 Y20.95
X-25.286 Y20.021
X-25.181 Y19.096
X-25.041 Y18.175
X-24.866 Y17.26
X-24.658 Y16.352
X-24.416 Y15.452
X-24.142 Y14.562
X-23.836 Y13.682
X-23.498 Y12.814
X-23.129 Y11.959
X-22.729 Y11.118
X-22.299 Y10.292
X-21.838 Y9.482
X-21.346 Y8.691
X-20.826 Y7.919
X-20.277 Y7.166
X-19.702 Y6.433
X-19.1 Y5.722
X-18.473 Y5.034
X-17.821 Y4.368
X-17.146 Y3.726
X-16.448 Y3.109
X-15.728 Y2.519
X-14.985 Y1.956
X-14.223 Y1.422
X-13.441 Y0.916
X-12.641 Y0.439
X-11.824 Y-0.009
X-10.991 Y-0.427
X-10.144 Y-0.814
X-9.284 Y-1.171
X-8.411 Y-1.497
X-7.527 Y-1.79
X-6.633 Y-2.05
X-5.729 Y-2.276
X-4.818 Y-2.468
X-3.9 Y-2.627
X-2.977 Y-2.752
X-2.05 Y-2.844
X-1.12 Y-2.902
X-0.189 Y-2.926
X0.742 Y-2.918
X1.673 Y-2.875
X2.601 Y-2.799
X3.526 Y-2.687
X4.446 Y-2.541
X5.36 Y-2.362
X6.267 Y-2.15
X7.166 Y-1.905
X8.055 Y-1.628
X8.934 Y-1.319
X9.801 Y-0.98
X10.656 Y-0.61
X11.497 Y-0.21
X12.323 Y0.221
X13.133 Y0.681
X13.926 Y1.171
X14.7 Y1.688
X15.455 Y2.233
X16.191 Y2.804
X16.907 Y3.401
X17.601 Y4.022
X18.273 Y4.667
X18.923 Y5.334
X19.549 Y6.024
X20.15 Y6.735
X20.725 Y7.468
X21.274 Y8.221
X21.795 Y8.993
X22.289 Y9.782
X22.756 Y10.589
X23.194 Y11.41
X23.604 Y12.247
X23.984 Y13.097
X24.335 Y13.96
X24.656 Y14.834
X24.946 Y15.72
X25.204 Y16.615
X25.429 Y17.518
X25.623 Y18.43
X25.784 Y19.347
X25.913 Y20.27
X26.01 Y21.196
X26.074 Y22.125
X26.106 Y23.056
X26.107 Y23.988
X26.074 Y24.918
X26.009 Y25.848
X25.909 Y26.774
X25.777 Y27.696
X25.612 Y28.612
X25.414 Y29.523
X25.185 Y30.425
X24.924 Y31.32
X24.632 Y32.204
X24.309 Y33.078
X23.956 Y33.94
X23.574 Y34.789
X23.161 Y35.624
X22.718 Y36.444
X22.246 Y37.247
X21.746 Y38.033
X21.218 Y38.8
X20.664 Y39.549
X20.084 Y40.277
X19.479 Y40.986
X18.849 Y41.672
X18.197 Y42.337
X17.522 Y42.979
X16.824 Y43.595
X16.104 Y44.187
X15.364 Y44.752
X14.604 Y45.291
X13.826 Y45.803
X13.03 Y46.287
X12.218 Y46.743
X11.391 Y47.171
X10.549 Y47.571
X9.694 Y47.941
X8.827 Y48.282
X7.949 Y48.591
X7.06 Y48.869
X6.162 Y49.116
X5.255 Y49.33
X4.342 Y49.513
X3.423 Y49.664
X2.499 Y49.784
X1.572 Y49.871
X0.642 Y49.927
X-0.289 Y49.952
X-1.221 Y49.945
X-2.151 Y49.905
X-3.08 Y49.833
X-4.005 Y49.728
X-4.927 Y49.59
X-5.843 Y49.421
X-6.752 Y49.221
X-7.655 Y48.99
X-8.549 Y48.728
X-9.433 Y48.436
X-10.308 Y48.115
X-11.171 Y47.764
X-12.021 Y47.385
X-12.858 Y46.975
X-13.68 Y46.537
X-14.486 Y46.07
X-15.276 Y45.576
X-16.048 Y45.056
X-16.802 Y44.509
X-17.538 Y43.938
X-18.254 Y43.342
X-18.949 Y42.722
X-19.624 Y42.08
X-20.277 Y41.416
X-20.906 Y40.729
X-21.511 Y40.021
X-22.091 Y39.292
X-22.646 Y38.544
X-23.176 Y37.778
X-23.679 Y36.994
X-24.155 Y36.193
X-24.605 Y35.377
X-25.027 Y34.547
X-25.421 Y33.703
X-25.788 Y32.847
X-26.124 Y31.978
X-26.431 Y31.099
X-26.707 Y30.209
X-26.953 Y29.311
X-27.169 Y28.405
X-27.353 Y27.492
X-27.507 Y26.573
X-27.63 Y25.65
X-27.722 Y24.723
X-27.784 Y23.793
X-27.815 Y22.862
Y21.931
X-27.783 Y21.
X-27.719 Y20.071
X-27.624 Y19.144
X-27.497 Y18.221
X-27.339 Y17.303
X-27.15 Y16.391
X-26.931 Y15.486
X-26.682 Y14.588
X-26.404 Y13.699
X-26.096 Y12.82
X-25.76 Y11.952
X-25.394 Y11.095
X-25. Y10.251
X-24.577 Y9.421
X-24.126 Y8.606
X-23.647 Y7.807
X-23.142 Y7.024
X-22.612 Y6.259
X-22.056 Y5.512
X-21.475 Y4.783
X-20.871 Y4.074
X-20.244 Y3.385
X-19.595 Y2.717
X-18.923 Y2.072
X-18.229 Y1.45
X-17.515 Y0.853
X-16.781 Y0.279
X-16.028 Y-0.269
X-15.257 Y-0.792
X-14.47 Y-1.289
X-13.666 Y-1.76
X-12.847 Y-2.203
X-12.014 Y-2.62
X-11.167 Y-3.009
X-10.308 Y-3.369
X-9.438 Y-3.7
X-8.556 Y-4.001
X-7.665 Y-4.272
X-6.765 Y-4.513
X-5.858 Y-4.723
X-4.944 Y-4.903
X-4.024 Y-5.053
X-3.101 Y-5.172
X-2.173 Y-5.261
X-1.244 Y-5.319
X-0.313 Y-5.346
X0.619 Y-5.342
X1.55 Y-5.307
X2.479 Y-5.24
X3.405 Y-5.141
X4.327 Y-5.012
X5.245 Y-4.852
X6.157 Y-4.662
X7.062 Y-4.442
X7.96 Y-4.193
X8.848 Y-3.915
X9.728 Y-3.608
X10.597 Y-3.272
X11.454 Y-2.907
X12.298 Y-2.514
X13.129 Y-2.093
X13.946 Y-1.645
X14.747 Y-1.17
X15.533 Y-0.67
X16.302 Y-0.144
X17.053 Y0.406
X17.787 Y0.98
X18.502 Y1.577
X19.198 Y2.196
X19.873 Y2.838
X20.527 Y3.501
X21.159 Y4.186
X21.768 Y4.89
X22.354 Y5.614
X22.916 Y6.357
X23.455 Y7.117
X23.968 Y7.894
X24.457 Y8.687
X24.92 Y9.495
X25.358 Y10.317
X25.769 Y11.153
X26.154 Y12.002
X26.51 Y12.862
X26.838 Y13.734
X27.138 Y14.616
X27.409 Y15.507
X27.652 Y16.406
X27.865 Y17.313
X28.049 Y18.226
X28.204 Y19.145
X28.329 Y20.068
X28.425 Y20.994
X28.492 Y21.923
X28.528 Y22.854
X28.534 Y23.785
X28.51 Y24.716
X28.455 Y25.646
X28.37 Y26.574
X28.255 Y27.498
X28.11 Y28.418
X27.936 Y29.333
X27.732 Y30.242
X27.499 Y31.144
X27.238 Y32.038
X26.948 Y32.924
X26.63 Y33.799
X26.283 Y34.663
X25.908 Y35.516
X25.506 Y36.356
X25.076 Y37.182
X24.62 Y37.994
X24.137 Y38.791
X23.629 Y39.572
X23.097 Y40.336
X22.54 Y41.083
X21.96 Y41.812
X21.357 Y42.522
X20.731 Y43.212
X20.083 Y43.881
X19.414 Y44.529
X18.724 Y45.154
X18.014 Y45.757
X17.285 Y46.337
X16.537 Y46.893
X15.772 Y47.424
X14.991 Y47.932
X14.194 Y48.414
X13.382 Y48.87
X12.556 Y49.301
X11.717 Y49.704
X10.865 Y50.081
X10.001 Y50.429
X9.126 Y50.75
X8.242 Y51.042
X7.348 Y51.306
X6.447 Y51.541
X5.539 Y51.747
X4.624 Y51.924
X3.705 Y52.073
X2.781 Y52.192
X1.854 Y52.283
X0.925 Y52.344
X-0.006 Y52.375
X-0.938 Y52.376
X-1.869 Y52.348
X-2.799 Y52.29
X-3.726 Y52.202
X-4.65 Y52.085
X-5.57 Y51.939
X-6.485 Y51.764
X-7.394 Y51.561
X-8.296 Y51.33
X-9.191 Y51.07
X-10.077 Y50.783
X-10.953 Y50.467
X-11.819 Y50.124
X-12.674 Y49.754
X-13.516 Y49.357
X-14.346 Y48.933
X-15.162 Y48.484
X-15.963 Y48.009
X-16.75 Y47.51
X-17.52 Y46.986
X-18.274 Y46.439
X-19.01 Y45.869
X-19.729 Y45.276
X-20.428 Y44.661
X-21.108 Y44.024
X-21.768 Y43.366
X-22.406 Y42.688
X-23.023 Y41.99
X-23.618 Y41.273
X-24.19 Y40.538
X-24.739 Y39.786
X-25.265 Y39.017
X-25.766 Y38.232
X-26.244 Y37.432
X-26.696 Y36.618
X-27.123 Y35.79
X-27.524 Y34.949
X-27.898 Y34.096
X-28.245 Y33.232
X-28.566 Y32.357
X-28.859 Y31.473
X-29.124 Y30.58
X-29.362 Y29.68
X-29.571 Y28.772
X-29.753 Y27.859
X-29.907 Y26.94
X-30.033 Y26.017
X-30.129 Y25.091
X-30.197 Y24.162
X-30.237 Y23.231
X-30.247 Y22.3
X-30.228 Y21.368
X-30.18 Y20.438
X-30.104 Y19.51
X-29.998 Y18.584
X-29.865 Y17.662
X-29.703 Y16.745
X-29.513 Y15.833
X-29.295 Y14.927
X-29.05 Y14.029
X-28.777 Y13.138
X-28.477 Y12.257
X-28.149 Y11.385
X-27.794 Y10.523
X-27.413 Y9.674
X-27.006 Y8.836
X-26.573 Y8.011
X-26.115 Y7.2
X-25.632 Y6.404
X-25.125 Y5.622
X-24.594 Y4.857
X-24.041 Y4.107
X-23.464 Y3.376
X-22.865 Y2.663
X-22.244 Y1.968
X-21.603 Y1.293
X-20.94 Y0.638
X-20.257 Y0.004
X-19.556 Y-0.608
X-18.835 Y-1.199
X-18.097 Y-1.767
X-17.342 Y-2.312
X-16.571 Y-2.834
X-15.784 Y-3.333
X-14.982 Y-3.807
X-14.166 Y-4.256
