%
(NMF IMPELLER)
(T1  D=0.5 CR=0. - ZMIN=-3.0083 - FLAT END MILL)
G90 G94 G17 G91.1
G20
G53 G0 Z0.
(ADAPTIVE1)
M9
T1 M6
S1970 M3
G54
M8
G0 X-7.0907 Y-7.6122
G43 Z0.6 H1
G0 Z0.2
Z-0.2933
G1 Z-0.3433 F20.
Y-7.6121 Z-0.3461
Y-7.6119 Z-0.3489
X-7.0906 Y-7.6115 Z-0.3517
X-7.0904 Y-7.611 Z-0.3544
X-7.0902 Y-7.6103 Z-0.3571
X-7.09 Y-7.6095 Z-0.3598
X-7.0898 Y-7.6085 Z-0.3624
X-7.0895 Y-7.6074 Z-0.365
X-7.0892 Y-7.6062 Z-0.3675
X-7.0888 Y-7.6048 Z-0.3699
X-7.0884 Y-7.6033 Z-0.3722
X-7.088 Y-7.6017 Z-0.3745
X-7.0876 Y-7.5999 Z-0.3766
X-7.0871 Y-7.598 Z-0.3787
X-7.0866 Y-7.5961 Z-0.3806
X-7.0861 Y-7.594 Z-0.3824
X-7.0855 Y-7.5918 Z-0.3841
X-7.0849 Y-7.5896 Z-0.3856
X-7.0843 Y-7.5872 Z-0.3871
X-7.0837 Y-7.5848 Z-0.3884
X-7.0831 Y-7.5823 Z-0.3895
X-7.0824 Y-7.5798 Z-0.3905
X-7.0818 Y-7.5772 Z-0.3914
X-7.0811 Y-7.5746 Z-0.3921
X-7.0804 Y-7.5719 Z-0.3926
X-7.0797 Y-7.5692 Z-0.393
X-7.079 Y-7.5665 Z-0.3932
X-7.0783 Y-7.5638 Z-0.3933
G3 X-7.0392 Y-7.2916 I-1.2366 J0.3167
G1 Y-7.2862
X-7.0493 Y-7.2366
X-7.0574 Y-7.1867
X-7.0639 Y-7.1366
X-7.069 Y-7.0863
X-7.0732 Y-7.0359
X-7.0764 Y-6.9854
X-7.0791 Y-6.9349
X-7.0811 Y-6.8844
X-7.0841 Y-6.7833
X-7.086 Y-6.6822
X-7.0876 Y-6.5305
X-7.0888 Y-6.2271
X-7.0892 Y-5.3169
Y-3.3449
Y-1.3728
Y0.5993
Y2.5714
Y4.5434
Y6.5155
Y6.8189
X-7.0747 Y6.8673
X-7.0456 Y6.9087
X-7.0086 Y6.9432
X-6.9668 Y6.9716
X-6.9218 Y6.9947
X-6.8748 Y7.0135
X-6.8266 Y7.0286
X-6.7775 Y7.0408
X-6.7279 Y7.0506
X-6.678 Y7.0584
X-6.6278 Y7.0647
X-6.5775 Y7.0697
X-6.5271 Y7.0737
X-6.4766 Y7.0769
X-6.4261 Y7.0794
X-6.3756 Y7.0814
X-6.2745 Y7.0843
X-6.1228 Y7.0867
X-5.9205 Y7.0882
X-5.516 Y7.089
X-3.5439 Y7.0892
X-1.5719
X0.4002
X2.3723
X4.3444
X6.3164
X6.8221
X6.8701 Y7.0734
X6.9111 Y7.0437
X6.9452 Y7.0064
X6.9732 Y6.9642
X6.996 Y6.9191
X7.0145 Y6.8721
X7.0295 Y6.8238
X7.0415 Y6.7747
X7.0512 Y6.725
X7.0589 Y6.6751
X7.0651 Y6.6249
X7.07 Y6.5745
X7.0739 Y6.5241
X7.077 Y6.4737
X7.0795 Y6.4232
X7.0815 Y6.3726
X7.0843 Y6.2715
X7.0868 Y6.1199
X7.0882 Y5.9176
X7.0888 Y5.7153
X7.0892 Y4.4512
Y3.7433
Y1.7712
Y-0.2009
Y-2.173
Y-4.145
Y-6.1171
Y-6.825
X7.0723 Y-6.8727
X7.042 Y-6.9132
X7.0043 Y-6.9469
X6.962 Y-6.9746
X6.9168 Y-6.9972
X6.8696 Y-7.0155
X6.8213 Y-7.0302
X6.7721 Y-7.0421
X6.7225 Y-7.0516
X6.6725 Y-7.0593
X6.6223 Y-7.0654
X6.5719 Y-7.0702
X6.5215 Y-7.0741
X6.4711 Y-7.0772
X6.4206 Y-7.0797
X6.37 Y-7.0816
X6.2689 Y-7.0844
X6.1173 Y-7.0868
X5.915 Y-7.0882
X5.5105 Y-7.089
X3.9429 Y-7.0892
X1.9708
X-0.0012
X-1.9733
X-3.9454
X-5.9174
X-6.5874
X-6.6 Y-7.0878
X-6.6494 Y-7.0769
X-6.6922 Y-7.05
X-6.7284 Y-7.0147
X-6.7584 Y-6.974
X-6.7832 Y-6.9299
X-6.8036 Y-6.8836
X-6.8201 Y-6.8359
X-6.8336 Y-6.7871
X-6.8445 Y-6.7377
X-6.8533 Y-6.6879
X-6.8604 Y-6.6379
X-6.8661 Y-6.5876
X-6.8707 Y-6.5373
X-6.8743 Y-6.4869
X-6.8773 Y-6.4364
X-6.8797 Y-6.3859
X-6.8831 Y-6.2848
X-6.8853 Y-6.1837
X-6.8872 Y-6.032
X-6.8882 Y-5.8803
X-6.889 Y-5.4758
X-6.8892 Y-3.9082
Y-1.9362
Y0.0359
Y2.008
Y3.9801
Y5.9521
Y6.5589
X-6.8759 Y6.6077
X-6.8516 Y6.6521
X-6.8193 Y6.691
X-6.7815 Y6.7245
X-6.7397 Y6.753
X-6.6951 Y6.7769
X-6.6487 Y6.7969
X-6.6009 Y6.8135
X-6.5523 Y6.8273
X-6.503 Y6.8386
X-6.4533 Y6.848
X-6.4033 Y6.8556
X-6.3531 Y6.8619
X-6.3028 Y6.867
X-6.2524 Y6.8711
X-6.202 Y6.8745
X-6.1515 Y6.8773
X-6.101 Y6.8796
X-5.9999 Y6.8829
X-5.8988 Y6.8851
X-5.7471 Y6.887
X-5.646 Y6.8878
X-5.3426 Y6.8888
X-4.0784 Y6.8892
X-3.6739
X-1.7018
X0.2702
X2.2423
X4.2144
X6.1865
X6.5404
X6.5903 Y6.881
X6.6365 Y6.8604
X6.6775 Y6.8308
X6.7129 Y6.7948
X6.7432 Y6.7542
X6.7687 Y6.7106
X6.7901 Y6.6647
X6.8079 Y6.6174
X6.8226 Y6.569
X6.8348 Y6.52
X6.8448 Y6.4704
X6.853 Y6.4205
X6.8598 Y6.3704
X6.8653 Y6.3201
X6.8698 Y6.2698
X6.8734 Y6.2193
X6.8764 Y6.1689
X6.8788 Y6.1183
X6.8824 Y6.0173
X6.8847 Y5.9162
X6.8868 Y5.7645
X6.8884 Y5.5117
X6.8887 Y5.4105
X6.8892 Y4.5509
Y3.4385
Y1.4664
Y-0.5057
Y-2.4778
Y-4.4498
Y-6.4219
Y-6.523
X6.8859 Y-6.5735
X6.8692 Y-6.6212
X6.8423 Y-6.6641
X6.8083 Y-6.7014
X6.7691 Y-6.7334
X6.7264 Y-6.7605
X6.6812 Y-6.7832
X6.6343 Y-6.8021
X6.5863 Y-6.8179
X6.5374 Y-6.8309
X6.488 Y-6.8416
X6.4382 Y-6.8504
X6.3881 Y-6.8576
X6.3379 Y-6.8635
X6.2876 Y-6.8683
X6.2372 Y-6.8722
X6.1867 Y-6.8754
X6.1362 Y-6.878
X6.0352 Y-6.8819
X5.9341 Y-6.8844
X5.7824 Y-6.8867
X5.5801 Y-6.8881
X5.1756 Y-6.889
X3.2035 Y-6.8892
X1.2314
X-0.7406
X-2.7127
X-4.6848
X-6.3535 Y-6.889
X-6.4022 Y-6.8756
X-6.4466 Y-6.8515
X-6.4858 Y-6.8195
X-6.5196 Y-6.7819
X-6.5485 Y-6.7404
X-6.5728 Y-6.696
X-6.5932 Y-6.6498
X-6.6103 Y-6.6022
X-6.6244 Y-6.5536
X-6.6361 Y-6.5044
X-6.6457 Y-6.4548
X-6.6537 Y-6.4049
X-6.6602 Y-6.3547
X-6.6656 Y-6.3044
X-6.6699 Y-6.254
X-6.6735 Y-6.2036
X-6.6764 Y-6.1531
X-6.6788 Y-6.1026
X-6.6823 Y-6.0015
X-6.6847 Y-5.9004
X-6.6868 Y-5.7488
X-6.6883 Y-5.4959
X-6.6891 Y-4.9903
Y-4.7374
X-6.6892 Y-2.7654
Y-0.7933
Y-0.2488
X-6.6902 Y-0.2334
X-6.6933 Y-0.2182
X-6.6983 Y-0.2036
X-6.7052 Y-0.1897
X-6.714 Y-0.1769
X-6.7216 Y-0.1666
X-6.7385 Y-0.1424
X-6.7547 Y-0.1124
X-6.7665 Y-0.0821
X-6.7707 Y-0.0674
X-6.7745 Y-0.0525
X-6.7784 Y-0.0225
X-6.7792 Y-0.0075
Y0.0075
X-6.7784 Y0.0225
X-6.7745 Y0.0525
X-6.7707 Y0.0674
X-6.7664 Y0.0824
X-6.7504 Y0.1304
X-6.7374 Y0.1793
X-6.7273 Y0.2288
X-6.7193 Y0.2787
X-6.713 Y0.3289
X-6.708 Y0.3792
X-6.7041 Y0.4296
X-6.701 Y0.4801
X-6.6985 Y0.5306
X-6.6966 Y0.5811
X-6.6938 Y0.6822
X-6.6915 Y0.8339
X-6.6901 Y1.0362
X-6.6893 Y1.4913
X-6.6892 Y2.0475
Y4.0196
Y5.9916
Y6.295
X-6.6845 Y6.3454
X-6.6687 Y6.3934
X-6.6436 Y6.4373
X-6.6114 Y6.4763
X-6.574 Y6.5103
X-6.5327 Y6.5395
X-6.4887 Y6.5644
X-6.4427 Y6.5854
X-6.3953 Y6.6031
X-6.347 Y6.618
X-6.298 Y6.6304
X-6.2485 Y6.6407
X-6.1986 Y6.6492
X-6.1486 Y6.6563
X-6.0983 Y6.6622
X-6.048 Y6.667
X-5.9976 Y6.671
X-5.9471 Y6.6742
X-5.8966 Y6.6769
X-5.7956 Y6.681
X-5.6945 Y6.6837
X-5.5428 Y6.6862
X-5.3406 Y6.6879
X-5.1889 Y6.6885
X-4.5821 Y6.6891
X-3.2168 Y6.6892
X-1.2447
X-0.2488
X-0.2334 Y6.6902
X-0.2182 Y6.6933
X-0.2036 Y6.6983
X-0.1897 Y6.7052
X-0.1769 Y6.714
X-0.1666 Y6.7216
X-0.1424 Y6.7385
X-0.1124 Y6.7547
X-0.0821 Y6.7665
X-0.0674 Y6.7707
X-0.0525 Y6.7745
X-0.0225 Y6.7784
X-0.0075 Y6.7792
X0.0075
X0.0225 Y6.7784
X0.0525 Y6.7745
X0.0674 Y6.7707
X0.0824 Y6.7664
X0.1304 Y6.7504
X0.1793 Y6.7374
X0.2288 Y6.7273
X0.2787 Y6.7193
X0.3289 Y6.713
X0.3792 Y6.708
X0.4296 Y6.7041
X0.4801 Y6.701
X0.5306 Y6.6985
X0.5811 Y6.6966
X0.6822 Y6.6938
X0.8339 Y6.6915
X1.0362 Y6.6901
X1.4913 Y6.6893
X2.0475 Y6.6892
X4.0196
X5.9916
X6.295
X6.3454 Y6.6844
X6.3934 Y6.6686
X6.4373 Y6.6435
X6.4763 Y6.6112
X6.5102 Y6.5738
X6.5394 Y6.5325
X6.5643 Y6.4885
X6.5854 Y6.4425
X6.6031 Y6.3952
X6.618 Y6.3468
X6.6303 Y6.2978
X6.6406 Y6.2483
X6.6492 Y6.1984
X6.6563 Y6.1484
X6.6621 Y6.0982
X6.667 Y6.0478
X6.671 Y5.9974
X6.6742 Y5.9469
X6.6769 Y5.8965
X6.681 Y5.7954
X6.6837 Y5.6943
X6.6862 Y5.5426
X6.6879 Y5.3404
X6.6885 Y5.1887
X6.6891 Y4.5819
X6.6892 Y3.2166
Y1.2445
Y0.2488
X6.6902 Y0.2334
X6.6933 Y0.2182
X6.6983 Y0.2036
X6.7052 Y0.1897
X6.714 Y0.1769
X6.7216 Y0.1666
X6.7385 Y0.1424
X6.7547 Y0.1124
X6.7665 Y0.0821
X6.7707 Y0.0674
X6.7745 Y0.0525
X6.7784 Y0.0225
X6.7792 Y0.0075
Y-0.0075
X6.7784 Y-0.0225
X6.7745 Y-0.0525
X6.7707 Y-0.0674
X6.7664 Y-0.0824
X6.7504 Y-0.1304
X6.7374 Y-0.1793
X6.7273 Y-0.2288
X6.7193 Y-0.2787
X6.713 Y-0.3289
X6.708 Y-0.3792
X6.7041 Y-0.4296
X6.701 Y-0.4801
X6.6985 Y-0.5306
X6.6966 Y-0.5811
X6.6938 Y-0.6822
X6.6915 Y-0.8339
X6.6901 Y-1.0362
X6.6893 Y-1.4913
X6.6892 Y-2.0475
Y-4.0196
Y-5.9916
Y-6.295
X6.6844 Y-6.3454
X6.6686 Y-6.3934
X6.6435 Y-6.4373
X6.6113 Y-6.4763
X6.5738 Y-6.5103
X6.5326 Y-6.5395
X6.4885 Y-6.5643
X6.4426 Y-6.5854
X6.3952 Y-6.6031
X6.3469 Y-6.6179
X6.2978 Y-6.6303
X6.2483 Y-6.6406
X6.1985 Y-6.6492
X6.1484 Y-6.6563
X6.0982 Y-6.6621
X6.0479 Y-6.667
X5.9975 Y-6.671
X5.947 Y-6.6742
X5.8965 Y-6.6769
X5.7955 Y-6.681
X5.6944 Y-6.6837
X5.5427 Y-6.6862
X5.3404 Y-6.6879
X5.1887 Y-6.6885
X4.5819 Y-6.6891
X3.2167 Y-6.6892
X1.2446
X0.2488
X0.2334 Y-6.6902
X0.2182 Y-6.6933
X0.2036 Y-6.6983
X0.1897 Y-6.7052
X0.1769 Y-6.714
X0.1666 Y-6.7216
X0.1424 Y-6.7385
X0.1124 Y-6.7547
X0.0821 Y-6.7665
X0.0674 Y-6.7707
X0.0525 Y-6.7745
X0.0225 Y-6.7784
X0.0075 Y-6.7792
X-0.0075
X-0.0225 Y-6.7784
X-0.0525 Y-6.7745
X-0.0674 Y-6.7707
X-0.0824 Y-6.7664
X-0.1304 Y-6.7504
X-0.1793 Y-6.7374
X-0.2288 Y-6.7273
X-0.2787 Y-6.7193
X-0.3289 Y-6.713
X-0.3792 Y-6.708
X-0.4296 Y-6.7041
X-0.4801 Y-6.701
X-0.5306 Y-6.6985
X-0.5811 Y-6.6966
X-0.6822 Y-6.6938
X-0.8339 Y-6.6915
X-1.0362 Y-6.6901
X-1.4913 Y-6.6893
X-2.0475 Y-6.6892
X-4.0196
X-5.9916
X-6.0928
X-6.1431 Y-6.6841
X-6.1911 Y-6.6681
X-6.235 Y-6.643
X-6.274 Y-6.6109
X-6.308 Y-6.5735
X-6.3374 Y-6.5323
X-6.3624 Y-6.4884
X-6.3836 Y-6.4425
X-6.4015 Y-6.3952
X-6.4165 Y-6.3469
X-6.429 Y-6.2979
X-6.4395 Y-6.2484
X-6.4482 Y-6.1986
X-6.4554 Y-6.1485
X-6.4613 Y-6.0983
X-6.4663 Y-6.048
X-6.4704 Y-5.9976
X-6.4737 Y-5.9471
X-6.4765 Y-5.8967
X-6.4788 Y-5.8461
X-6.4822 Y-5.7451
X-6.4845 Y-5.644
X-6.4866 Y-5.4923
X-6.4882 Y-5.2395
X-6.4888 Y-4.9866
X-6.4892 Y-3.2168
Y-3.0145
Y-1.0425
Y-0.4357
X-6.4901 Y-0.3909
X-6.4919 Y-0.3732
X-6.4966 Y-0.3559
X-6.5041 Y-0.3397
X-6.5142 Y-0.3249
X-6.5265 Y-0.312
X-6.5408 Y-0.3013
X-6.5567 Y-0.293
X-6.5717 Y-0.2868
X-6.6017 Y-0.2711
X-6.6167 Y-0.262
X-6.64 Y-0.2473
X-6.6694 Y-0.2227
X-6.6698 Y-0.2224
G2 X-6.6861 Y-0.2124 I0.1137 J0.2038
X-6.7453 Y-0.1553 I0.13 J0.1938
X-6.7524 Y-0.1411 I0.0405 J0.0293
G1 X-6.7871 Y-0.0317
G2 X-6.7894 Y-0.0161 I0.0477 J0.0151
X-6.7742 Y0.0644 I0.2333 J-0.0026
X-6.7665 Y0.0823 I0.2181 J-0.083
G1 X-6.7664 Y0.0824
X-6.7547 Y0.1124
X-6.7385 Y0.1424
X-6.7161 Y0.1723
X-6.7066 Y0.1842
X-6.6746 Y0.2173
X-6.6675 Y0.2235
X-6.6567 Y0.234
X-6.6415 Y0.2511
X-6.6254 Y0.2726
X-6.6082 Y0.2997
X-6.5901 Y0.3342
X-6.5712 Y0.3785
X-6.5551 Y0.4265
X-6.5423 Y0.4754
X-6.532 Y0.5249
X-6.5237 Y0.5748
X-6.517 Y0.6249
X-6.5116 Y0.6752
X-6.5073 Y0.7256
X-6.5038 Y0.776
X-6.501 Y0.8265
X-6.4987 Y0.877
X-6.4954 Y0.9781
X-6.4932 Y1.0792
X-6.4913 Y1.2309
X-6.4899 Y1.4837
X-6.4892 Y2.0905
Y2.1916
Y4.1637
Y6.0852
X-6.4826 Y6.1353
X-6.4661 Y6.1831
X-6.4409 Y6.227
X-6.409 Y6.2662
X-6.3719 Y6.3006
X-6.331 Y6.3303
X-6.2874 Y6.3559
X-6.2417 Y6.3776
X-6.1946 Y6.3961
X-6.1465 Y6.4116
X-6.0977 Y6.4247
X-6.0483 Y6.4356
X-5.9986 Y6.4448
X-5.9486 Y6.4524
X-5.8984 Y6.4587
X-5.8481 Y6.464
X-5.7977 Y6.4684
X-5.7473 Y6.472
X-5.6968 Y6.475
X-5.6463 Y6.4775
X-5.5453 Y6.4812
X-5.4442 Y6.4838
X-5.2925 Y6.4862
X-5.0902 Y6.4878
X-4.7363 Y6.4888
X-4.6351 Y6.489
X-2.6631 Y6.4892
X-0.691
X-0.4382
X-0.3876 Y6.4901
X-0.3702 Y6.4926
X-0.3535 Y6.4978
X-0.3377 Y6.5056
X-0.3235 Y6.5158
X-0.311 Y6.5282
X-0.3006 Y6.5423
X-0.2925 Y6.5579
X-0.2868 Y6.5717
X-0.2711 Y6.6017
X-0.262 Y6.6167
X-0.2473 Y6.64
X-0.2227 Y6.6694
X-0.2224 Y6.6698
G2 X-0.2124 Y6.6861 I0.2038 J-0.1137
X-0.1553 Y6.7453 I0.1938 J-0.13
X-0.1411 Y6.7524 I0.0293 J-0.0405
G1 X-0.0317 Y6.7871
G2 X-0.0161 Y6.7894 I0.0151 J-0.0477
X0.0644 Y6.7742 I-0.0026 J-0.2333
X0.0823 Y6.7665 I-0.083 J-0.2181
G1 X0.0824 Y6.7664
X0.1124 Y6.7547
X0.1424 Y6.7385
X0.1723 Y6.7161
X0.1842 Y6.7066
X0.2173 Y6.6746
X0.2235 Y6.6675
X0.234 Y6.6567
X0.2511 Y6.6415
X0.2726 Y6.6254
X0.2997 Y6.6082
X0.3342 Y6.5901
X0.3785 Y6.5712
X0.4265 Y6.5551
X0.4754 Y6.5423
X0.5249 Y6.532
X0.5748 Y6.5237
X0.6249 Y6.517
X0.6752 Y6.5116
X0.7256 Y6.5073
X0.776 Y6.5038
X0.8265 Y6.501
X0.877 Y6.4987
X0.9781 Y6.4954
X1.0792 Y6.4932
X1.2309 Y6.4913
X1.4837 Y6.4899
X2.0905 Y6.4892
X2.1916
X4.1637
X6.0852
X6.1353 Y6.4826
X6.1831 Y6.466
X6.227 Y6.4408
X6.2662 Y6.4089
X6.3005 Y6.3718
X6.3303 Y6.3309
X6.3559 Y6.2873
X6.3776 Y6.2416
X6.396 Y6.1946
X6.4116 Y6.1464
X6.4247 Y6.0976
X6.4356 Y6.0482
X6.4447 Y5.9985
X6.4524 Y5.9485
X6.4587 Y5.8983
X6.464 Y5.848
X6.4684 Y5.7977
X6.472 Y5.7472
X6.475 Y5.6968
X6.4775 Y5.6463
X6.4812 Y5.5452
X6.4838 Y5.4441
X6.4862 Y5.2924
X6.4878 Y5.0902
X6.4888 Y4.7362
X6.489 Y4.6351
X6.4892 Y2.663
Y0.6909
Y0.4381
X6.4901 Y0.3875
X6.4926 Y0.3702
X6.4978 Y0.3534
X6.5056 Y0.3377
X6.5158 Y0.3234
X6.5281 Y0.311
X6.5423 Y0.3006
X6.5579 Y0.2926
X6.5717 Y0.2868
X6.6017 Y0.2711
X6.6167 Y0.262
X6.64 Y0.2473
X6.6694 Y0.2227
X6.6698 Y0.2224
G2 X6.6861 Y0.2124 I-0.1137 J-0.2038
X6.7453 Y0.1553 I-0.13 J-0.1938
X6.7524 Y0.1411 I-0.0405 J-0.0293
G1 X6.7871 Y0.0317
G2 X6.7894 Y0.0161 I-0.0477 J-0.0151
X6.7742 Y-0.0644 I-0.2333 J0.0026
X6.7665 Y-0.0823 I-0.2181 J0.083
G1 X6.7664 Y-0.0824
X6.7547 Y-0.1124
X6.7385 Y-0.1424
X6.7161 Y-0.1723
X6.7066 Y-0.1842
X6.6746 Y-0.2173
X6.6675 Y-0.2235
X6.6567 Y-0.234
X6.6415 Y-0.2511
X6.6254 Y-0.2726
X6.6082 Y-0.2997
X6.5901 Y-0.3342
X6.5712 Y-0.3785
X6.5551 Y-0.4265
X6.5423 Y-0.4754
X6.532 Y-0.5249
X6.5237 Y-0.5748
X6.517 Y-0.6249
X6.5116 Y-0.6752
X6.5073 Y-0.7256
X6.5038 Y-0.776
X6.501 Y-0.8265
X6.4987 Y-0.877
X6.4954 Y-0.9781
X6.4932 Y-1.0792
X6.4913 Y-1.2309
X6.4899 Y-1.4837
X6.4892 Y-2.0905
Y-2.1916
Y-4.1637
Y-6.0852
X6.4826 Y-6.1353
X6.466 Y-6.1831
X6.4409 Y-6.227
X6.4089 Y-6.2662
X6.3718 Y-6.3006
X6.331 Y-6.3303
X6.2873 Y-6.3559
X6.2417 Y-6.3776
X6.1946 Y-6.3961
X6.1465 Y-6.4116
X6.0976 Y-6.4247
X6.0482 Y-6.4356
X5.9985 Y-6.4447
X5.9485 Y-6.4524
X5.8984 Y-6.4587
X5.8481 Y-6.464
X5.7977 Y-6.4684
X5.7473 Y-6.472
X5.6968 Y-6.475
X5.6463 Y-6.4775
X5.5452 Y-6.4812
X5.4441 Y-6.4838
X5.2924 Y-6.4862
X5.0902 Y-6.4878
X4.7362 Y-6.4888
X4.6351 Y-6.489
X2.663 Y-6.4892
X0.6909
X0.4381
X0.3875 Y-6.4901
X0.3702 Y-6.4926
X0.3534 Y-6.4978
X0.3377 Y-6.5056
X0.3234 Y-6.5158
X0.311 Y-6.5281
X0.3006 Y-6.5423
X0.2926 Y-6.5579
X0.2868 Y-6.5717
X0.2711 Y-6.6017
X0.262 Y-6.6167
X0.2473 Y-6.64
X0.2227 Y-6.6694
X0.2224 Y-6.6698
G2 X0.2124 Y-6.6861 I-0.2038 J0.1137
X0.1553 Y-6.7453 I-0.1938 J0.13
X0.1411 Y-6.7524 I-0.0293 J0.0405
G1 X0.0317 Y-6.7871
G2 X0.0161 Y-6.7894 I-0.0151 J0.0477
X-0.0644 Y-6.7742 I0.0026 J0.2333
X-0.0823 Y-6.7665 I0.083 J0.2181
G1 X-0.0824 Y-6.7664
X-0.1124 Y-6.7547
X-0.1424 Y-6.7385
X-0.1723 Y-6.7161
X-0.1842 Y-6.7066
X-0.2173 Y-6.6746
X-0.2235 Y-6.6675
X-0.234 Y-6.6567
X-0.2511 Y-6.6415
X-0.2726 Y-6.6254
X-0.2997 Y-6.6082
X-0.3342 Y-6.5901
X-0.3785 Y-6.5712
X-0.4265 Y-6.5551
X-0.4754 Y-6.5423
X-0.5249 Y-6.532
X-0.5748 Y-6.5237
X-0.6249 Y-6.517
X-0.6752 Y-6.5116
X-0.7256 Y-6.5073
X-0.776 Y-6.5038
X-0.8265 Y-6.501
X-0.877 Y-6.4987
X-0.9781 Y-6.4954
X-1.0792 Y-6.4932
X-1.2309 Y-6.4913
X-1.4837 Y-6.4899
X-2.0905 Y-6.4892
X-2.1916
X-4.1637
X-5.8829
X-5.9331 Y-6.4826
X-5.9809 Y-6.4661
X-6.0248 Y-6.441
X-6.0641 Y-6.4092
X-6.0986 Y-6.3723
X-6.1286 Y-6.3315
X-6.1542 Y-6.288
X-6.1762 Y-6.2424
X-6.1947 Y-6.1954
X-6.2104 Y-6.1473
X-6.2236 Y-6.0985
X-6.2347 Y-6.0491
X-6.2439 Y-5.9994
X-6.2516 Y-5.9494
X-6.2581 Y-5.8993
X-6.2634 Y-5.849
X-6.2679 Y-5.7986
X-6.2716 Y-5.7482
X-6.2746 Y-5.6977
X-6.2772 Y-5.6472
X-6.281 Y-5.5462
X-6.2836 Y-5.4451
X-6.2861 Y-5.2934
X-6.2878 Y-5.0911
X-6.2888 Y-4.7372
X-6.2891 Y-4.4338
X-6.2892 Y-2.4617
X-6.2893 Y-0.5908
X-6.2902 Y-0.5402
X-6.2932 Y-0.4897
X-6.2989 Y-0.4447
X-6.3072 Y-0.4057
X-6.3132 Y-0.39
X-6.3216 Y-0.3753
X-6.3321 Y-0.3621
X-6.3445 Y-0.3506
X-6.3586 Y-0.3412
X-6.3739 Y-0.334
X-6.3901 Y-0.3293
X-6.4069 Y-0.3271
X-6.4368 Y-0.3243
X-6.4668 Y-0.3202
X-6.4818 Y-0.317
X-6.4968 Y-0.3132
X-6.535 Y-0.3015
X-6.5454 Y-0.2978
X-6.5567 Y-0.293
G3 X-6.576 Y-0.2899 I-0.0176 J-0.0468
G1 X-6.5788 Y-0.29 Z-0.3932
X-6.5816 Y-0.2901 Z-0.393
X-6.5843 Z-0.3926
X-6.5871 Y-0.2902 Z-0.3921
X-6.5898 Y-0.2903 Z-0.3914
X-6.5925 Y-0.2904 Z-0.3905
X-6.5951 Y-0.2905 Z-0.3895
X-6.5977 Y-0.2906 Z-0.3884
X-6.6001 Y-0.2907 Z-0.3871
X-6.6026 Z-0.3856
X-6.6049 Y-0.2908 Z-0.3841
X-6.6071 Y-0.2909 Z-0.3824
X-6.6093 Y-0.291 Z-0.3806
X-6.6113 Z-0.3787
X-6.6132 Y-0.2911 Z-0.3766
X-6.615 Z-0.3745
X-6.6167 Y-0.2912 Z-0.3722
X-6.6183 Y-0.2913 Z-0.3699
X-6.6197 Z-0.3675
X-6.621 Z-0.365
X-6.6221 Y-0.2914 Z-0.3624
X-6.6231 Z-0.3598
X-6.624 Z-0.3571
X-6.6247 Y-0.2915 Z-0.3544
X-6.6252 Z-0.3517
X-6.6256 Z-0.3489
X-6.6259 Z-0.3461
Z-0.3433
G0 Z0.2
X-6.7345 Y0.2064
Z-0.2933
G1 Z-0.3433 F20.
Z-0.3461
X-6.7342 Y0.2065 Z-0.3489
X-6.7338 Z-0.3517
X-6.7333 Y0.2066 Z-0.3544
X-6.7326 Y0.2068 Z-0.3571
X-6.7318 Y0.2069 Z-0.3598
X-6.7308 Y0.2071 Z-0.3624
X-6.7297 Y0.2073 Z-0.365
X-6.7284 Y0.2075 Z-0.3675
X-6.727 Y0.2078 Z-0.3699
X-6.7255 Y0.2081 Z-0.3722
X-6.7238 Y0.2084 Z-0.3745
X-6.722 Y0.2087 Z-0.3766
X-6.7201 Y0.209 Z-0.3787
X-6.7181 Y0.2094 Z-0.3806
X-6.716 Y0.2098 Z-0.3824
X-6.7138 Y0.2102 Z-0.3841
X-6.7115 Y0.2106 Z-0.3856
X-6.7091 Y0.211 Z-0.3871
X-6.7067 Y0.2115 Z-0.3884
X-6.7042 Y0.2119 Z-0.3895
X-6.7016 Y0.2124 Z-0.3905
X-6.699 Y0.2129 Z-0.3914
X-6.6963 Y0.2134 Z-0.3921
X-6.6936 Y0.2138 Z-0.3926
X-6.6908 Y0.2143 Z-0.393
X-6.6881 Y0.2148 Z-0.3932
X-6.6853 Y0.2153 Z-0.3933
G3 X-6.6675 Y0.2235 I-0.0071 J0.0389
G1 X-6.64 Y0.2473
X-6.6017 Y0.2715
X-6.5867 Y0.28
X-6.5717 Y0.2877
X-6.5607 Y0.2922
X-6.5474 Y0.2985
X-6.5334 Y0.3065
X-6.5181 Y0.3169
X-6.5018 Y0.33
X-6.4843 Y0.3466
X-6.4656 Y0.3674
X-6.4463 Y0.3928
X-6.4259 Y0.4245
X-6.4048 Y0.4641
X-6.3846 Y0.5105
X-6.3679 Y0.5582
X-6.3542 Y0.6069
X-6.3428 Y0.6561
X-6.3334 Y0.7058
X-6.3256 Y0.7558
X-6.3192 Y0.8059
X-6.3139 Y0.8562
X-6.3095 Y0.9066
X-6.3059 Y0.957
X-6.303 Y1.0075
X-6.3005 Y1.058
X-6.2968 Y1.1591
X-6.2943 Y1.2602
X-6.292 Y1.4119
X-6.2904 Y1.6141
X-6.2894 Y2.0187
X-6.2893 Y2.2209
X-6.2892 Y4.193
Y5.8617
X-6.2849 Y5.9121
X-6.2713 Y5.9608
X-6.2488 Y6.006
X-6.2191 Y6.0469
X-6.1838 Y6.0832
X-6.1443 Y6.1148
X-6.1018 Y6.1421
X-6.057 Y6.1655
X-6.0105 Y6.1855
X-5.9628 Y6.2024
X-5.9143 Y6.2167
X-5.8652 Y6.2287
X-5.8157 Y6.2388
X-5.7658 Y6.2472
X-5.7157 Y6.2543
X-5.6655 Y6.2602
X-5.6152 Y6.2651
X-5.5648 Y6.2692
X-5.5143 Y6.2726
X-5.4639 Y6.2755
X-5.4134 Y6.2778
X-5.3123 Y6.2814
X-5.2112 Y6.2839
X-5.0595 Y6.2862
X-4.8572 Y6.2878
X-4.5033 Y6.2888
X-4.1999 Y6.2891
X-2.2278 Y6.2892
X-0.6097 Y6.2893
X-0.5591 Y6.2897
X-0.5086 Y6.2917
X-0.4597 Y6.2965
X-0.4201 Y6.3037
X-0.4084 Y6.3067
X-0.3922 Y6.3124
X-0.377 Y6.3206
X-0.3634 Y6.3311
X-0.3515 Y6.3436
X-0.3417 Y6.3577
X-0.3343 Y6.3733
X-0.3294 Y6.3898
X-0.3271 Y6.4069
X-0.3243 Y6.4368
X-0.3202 Y6.4668
X-0.317 Y6.4818
X-0.3132 Y6.4968
X-0.3017 Y6.5345
X-0.2983 Y6.5442
X-0.2925 Y6.5579
G3 X-0.2894 Y6.5772 I-0.0468 J0.0176
G1 X-0.2895 Y6.58 Z-0.3932
X-0.2896 Y6.5828 Z-0.393
Y6.5856 Z-0.3926
X-0.2897 Y6.5883 Z-0.3921
X-0.2898 Y6.591 Z-0.3914
X-0.2899 Y6.5937 Z-0.3905
X-0.29 Y6.5963 Z-0.3895
X-0.2901 Y6.5989 Z-0.3884
X-0.2902 Y6.6014 Z-0.3871
Y6.6038 Z-0.3856
X-0.2903 Y6.6061 Z-0.3841
X-0.2904 Y6.6083 Z-0.3824
X-0.2905 Y6.6105 Z-0.3806
Y6.6125 Z-0.3787
X-0.2906 Y6.6144 Z-0.3766
Y6.6163 Z-0.3745
X-0.2907 Y6.6179 Z-0.3722
Y6.6195 Z-0.3699
X-0.2908 Y6.6209 Z-0.3675
Y6.6222 Z-0.365
X-0.2909 Y6.6233 Z-0.3624
Y6.6243 Z-0.3598
Y6.6252 Z-0.3571
X-0.291 Y6.6259 Z-0.3544
Y6.6264 Z-0.3517
Y6.6268 Z-0.3489
Y6.6271 Z-0.3461
Y6.6272 Z-0.3433
G0 Z0.2
X0.2064 Y6.7345
Z-0.2933
G1 Z-0.3433 F20.
Z-0.3461
X0.2065 Y6.7342 Z-0.3489
Y6.7338 Z-0.3517
X0.2066 Y6.7333 Z-0.3544
X0.2068 Y6.7326 Z-0.3571
X0.2069 Y6.7318 Z-0.3598
X0.2071 Y6.7308 Z-0.3624
X0.2073 Y6.7297 Z-0.365
X0.2075 Y6.7284 Z-0.3675
X0.2078 Y6.727 Z-0.3699
X0.2081 Y6.7255 Z-0.3722
X0.2084 Y6.7238 Z-0.3745
X0.2087 Y6.722 Z-0.3766
X0.209 Y6.7201 Z-0.3787
X0.2094 Y6.7181 Z-0.3806
X0.2098 Y6.716 Z-0.3824
X0.2102 Y6.7138 Z-0.3841
X0.2106 Y6.7115 Z-0.3856
X0.211 Y6.7091 Z-0.3871
X0.2115 Y6.7067 Z-0.3884
X0.2119 Y6.7042 Z-0.3895
X0.2124 Y6.7016 Z-0.3905
X0.2129 Y6.699 Z-0.3914
X0.2134 Y6.6963 Z-0.3921
X0.2138 Y6.6936 Z-0.3926
X0.2143 Y6.6908 Z-0.393
X0.2148 Y6.6881 Z-0.3932
X0.2153 Y6.6853 Z-0.3933
G3 X0.2235 Y6.6675 I0.0389 J0.0071
G1 X0.2473 Y6.64
X0.2715 Y6.6017
X0.28 Y6.5867
X0.2877 Y6.5717
X0.2922 Y6.5607
X0.2985 Y6.5474
X0.3065 Y6.5334
X0.3169 Y6.5181
X0.33 Y6.5018
X0.3466 Y6.4843
X0.3674 Y6.4656
X0.3928 Y6.4463
X0.4245 Y6.4259
X0.4641 Y6.4048
X0.5105 Y6.3846
X0.5582 Y6.3679
X0.6069 Y6.3542
X0.6561 Y6.3428
X0.7058 Y6.3334
X0.7558 Y6.3256
X0.8059 Y6.3192
X0.8562 Y6.3139
X0.9066 Y6.3095
X0.957 Y6.3059
X1.0075 Y6.303
X1.058 Y6.3005
X1.1591 Y6.2968
X1.2602 Y6.2943
X1.4119 Y6.292
X1.6141 Y6.2904
X2.0187 Y6.2894
X2.2209 Y6.2893
X4.193 Y6.2892
X5.8617
X5.9121 Y6.2849
X5.9608 Y6.2713
X6.006 Y6.2488
X6.0469 Y6.219
X6.0831 Y6.1837
X6.1148 Y6.1443
X6.1421 Y6.1017
X6.1655 Y6.0569
X6.1855 Y6.0105
X6.2024 Y5.9628
X6.2166 Y5.9143
X6.2287 Y5.8652
X6.2387 Y5.8156
X6.2472 Y5.7658
X6.2543 Y5.7157
X6.2602 Y5.6655
X6.2651 Y5.6152
X6.2692 Y5.5648
X6.2726 Y5.5143
X6.2755 Y5.4638
X6.2778 Y5.4133
X6.2814 Y5.3122
X6.2839 Y5.2111
X6.2862 Y5.0595
X6.2878 Y4.8572
X6.2888 Y4.5032
X6.2891 Y4.1998
X6.2892 Y2.2278
X6.2893 Y0.6097
X6.2897 Y0.5591
X6.2917 Y0.5086
X6.2965 Y0.4597
X6.3037 Y0.42
X6.3067 Y0.4084
X6.3124 Y0.3922
X6.3206 Y0.377
X6.3311 Y0.3634
X6.3436 Y0.3515
X6.3577 Y0.3417
X6.3733 Y0.3343
X6.3898 Y0.3294
X6.4069 Y0.3271
X6.4368 Y0.3243
X6.4668 Y0.3202
X6.4818 Y0.317
X6.4968 Y0.3132
X6.5345 Y0.3017
X6.5442 Y0.2983
X6.5579 Y0.2926
G3 X6.5771 Y0.2894 I0.0176 J0.0468
G1 X6.5799 Y0.2895 Z-0.3932
X6.5827 Y0.2896 Z-0.393
X6.5855 Y0.2897 Z-0.3926
X6.5882 Y0.2898 Z-0.3921
X6.591 Z-0.3914
X6.5936 Y0.2899 Z-0.3905
X6.5962 Y0.29 Z-0.3895
X6.5988 Y0.2901 Z-0.3884
X6.6013 Y0.2902 Z-0.3871
X6.6037 Y0.2903 Z-0.3856
X6.606 Z-0.3841
X6.6083 Y0.2904 Z-0.3824
X6.6104 Y0.2905 Z-0.3806
X6.6125 Z-0.3787
X6.6144 Y0.2906 Z-0.3766
X6.6162 Y0.2907 Z-0.3745
X6.6179 Z-0.3722
X6.6194 Y0.2908 Z-0.3699
X6.6209 Z-0.3675
X6.6221 Y0.2909 Z-0.365
X6.6233 Z-0.3624
X6.6243 Z-0.3598
X6.6251 Y0.291 Z-0.3571
X6.6258 Z-0.3544
X6.6264 Z-0.3517
X6.6268 Z-0.3489
X6.627 Z-0.3461
X6.6271 Z-0.3433
G0 Z0.2
X6.7345 Y-0.2064
Z-0.2933
G1 Z-0.3433 F20.
Z-0.3461
X6.7342 Y-0.2065 Z-0.3489
X6.7338 Z-0.3517
X6.7333 Y-0.2066 Z-0.3544
X6.7326 Y-0.2068 Z-0.3571
X6.7318 Y-0.2069 Z-0.3598
X6.7308 Y-0.2071 Z-0.3624
X6.7297 Y-0.2073 Z-0.365
X6.7284 Y-0.2075 Z-0.3675
X6.727 Y-0.2078 Z-0.3699
X6.7255 Y-0.2081 Z-0.3722
X6.7238 Y-0.2084 Z-0.3745
X6.722 Y-0.2087 Z-0.3766
X6.7201 Y-0.209 Z-0.3787
X6.7181 Y-0.2094 Z-0.3806
X6.716 Y-0.2098 Z-0.3824
X6.7138 Y-0.2102 Z-0.3841
X6.7115 Y-0.2106 Z-0.3856
X6.7091 Y-0.211 Z-0.3871
X6.7067 Y-0.2115 Z-0.3884
X6.7042 Y-0.2119 Z-0.3895
X6.7016 Y-0.2124 Z-0.3905
X6.699 Y-0.2129 Z-0.3914
X6.6963 Y-0.2134 Z-0.3921
X6.6936 Y-0.2138 Z-0.3926
X6.6908 Y-0.2143 Z-0.393
X6.6881 Y-0.2148 Z-0.3932
X6.6853 Y-0.2153 Z-0.3933
G3 X6.6675 Y-0.2235 I0.0071 J-0.0389
G1 X6.64 Y-0.2473
X6.6017 Y-0.2715
X6.5867 Y-0.28
X6.5717 Y-0.2877
X6.5607 Y-0.2922
X6.5474 Y-0.2985
X6.5334 Y-0.3065
X6.5181 Y-0.3169
X6.5018 Y-0.33
X6.4843 Y-0.3466
X6.4656 Y-0.3674
X6.4463 Y-0.3928
X6.4259 Y-0.4245
X6.4048 Y-0.4641
X6.3846 Y-0.5105
X6.3679 Y-0.5582
X6.3542 Y-0.6069
X6.3428 Y-0.6561
X6.3334 Y-0.7058
X6.3256 Y-0.7558
X6.3192 Y-0.8059
X6.3139 Y-0.8562
X6.3095 Y-0.9066
X6.3059 Y-0.957
X6.303 Y-1.0075
X6.3005 Y-1.058
X6.2968 Y-1.1591
X6.2943 Y-1.2602
X6.292 Y-1.4119
X6.2904 Y-1.6141
X6.2894 Y-2.0187
X6.2893 Y-2.2209
X6.2892 Y-4.193
Y-5.8617
X6.2849 Y-5.9121
X6.2713 Y-5.9608
X6.2488 Y-6.006
X6.219 Y-6.0469
X6.1837 Y-6.0831
X6.1443 Y-6.1148
X6.1018 Y-6.1421
X6.0569 Y-6.1655
X6.0105 Y-6.1855
X5.9628 Y-6.2024
X5.9143 Y-6.2166
X5.8652 Y-6.2287
X5.8156 Y-6.2387
X5.7658 Y-6.2472
X5.7157 Y-6.2543
X5.6655 Y-6.2602
X5.6152 Y-6.2651
X5.5648 Y-6.2692
X5.5143 Y-6.2726
X5.4638 Y-6.2755
X5.4133 Y-6.2778
X5.3122 Y-6.2814
X5.2111 Y-6.2839
X5.0595 Y-6.2862
X4.8572 Y-6.2878
X4.5032 Y-6.2888
X4.1999 Y-6.2891
X2.2278 Y-6.2892
X0.6097 Y-6.2893
X0.5591 Y-6.2897
X0.5086 Y-6.2917
X0.4597 Y-6.2965
X0.42 Y-6.3037
X0.4084 Y-6.3067
X0.3922 Y-6.3124
X0.377 Y-6.3206
X0.3634 Y-6.3311
X0.3515 Y-6.3436
X0.3417 Y-6.3577
X0.3343 Y-6.3733
X0.3294 Y-6.3898
X0.3271 Y-6.4069
X0.3243 Y-6.4368
X0.3202 Y-6.4668
X0.317 Y-6.4818
X0.3132 Y-6.4968
X0.3017 Y-6.5345
X0.2983 Y-6.5442
X0.2926 Y-6.5579
G3 X0.2894 Y-6.5771 I0.0468 J-0.0176
G1 X0.2895 Y-6.5799 Z-0.3932
X0.2896 Y-6.5827 Z-0.393
X0.2897 Y-6.5855 Z-0.3926
Y-6.5883 Z-0.3921
X0.2898 Y-6.591 Z-0.3914
X0.2899 Y-6.5936 Z-0.3905
X0.29 Y-6.5963 Z-0.3895
X0.2901 Y-6.5988 Z-0.3884
X0.2902 Y-6.6013 Z-0.3871
X0.2903 Y-6.6037 Z-0.3856
Y-6.6061 Z-0.3841
X0.2904 Y-6.6083 Z-0.3824
X0.2905 Y-6.6104 Z-0.3806
Y-6.6125 Z-0.3787
X0.2906 Y-6.6144 Z-0.3766
X0.2907 Y-6.6162 Z-0.3745
Y-6.6179 Z-0.3722
X0.2908 Y-6.6194 Z-0.3699
Y-6.6209 Z-0.3675
X0.2909 Y-6.6222 Z-0.365
Y-6.6233 Z-0.3624
Y-6.6243 Z-0.3598
X0.291 Y-6.6252 Z-0.3571
Y-6.6259 Z-0.3544
Y-6.6264 Z-0.3517
Y-6.6268 Z-0.3489
Y-6.627 Z-0.3461
Y-6.6271 Z-0.3433
G0 Z0.2
X-0.2064 Y-6.7345
Z-0.2933
G1 Z-0.3433 F20.
Z-0.3461
X-0.2065 Y-6.7342 Z-0.3489
Y-6.7338 Z-0.3517
X-0.2066 Y-6.7333 Z-0.3544
X-0.2068 Y-6.7326 Z-0.3571
X-0.2069 Y-6.7318 Z-0.3598
X-0.2071 Y-6.7308 Z-0.3624
X-0.2073 Y-6.7297 Z-0.365
X-0.2075 Y-6.7284 Z-0.3675
X-0.2078 Y-6.727 Z-0.3699
X-0.2081 Y-6.7255 Z-0.3722
X-0.2084 Y-6.7238 Z-0.3745
X-0.2087 Y-6.722 Z-0.3766
X-0.209 Y-6.7201 Z-0.3787
X-0.2094 Y-6.7181 Z-0.3806
X-0.2098 Y-6.716 Z-0.3824
X-0.2102 Y-6.7138 Z-0.3841
X-0.2106 Y-6.7115 Z-0.3856
X-0.211 Y-6.7091 Z-0.3871
X-0.2115 Y-6.7067 Z-0.3884
X-0.2119 Y-6.7042 Z-0.3895
X-0.2124 Y-6.7016 Z-0.3905
X-0.2129 Y-6.699 Z-0.3914
X-0.2134 Y-6.6963 Z-0.3921
X-0.2138 Y-6.6936 Z-0.3926
X-0.2143 Y-6.6908 Z-0.393
X-0.2148 Y-6.6881 Z-0.3932
X-0.2153 Y-6.6853 Z-0.3933
G3 X-0.2235 Y-6.6675 I-0.0389 J-0.0071
G1 X-0.2473 Y-6.64
X-0.2715 Y-6.6017
X-0.28 Y-6.5867
X-0.2877 Y-6.5717
X-0.2922 Y-6.5607
X-0.2985 Y-6.5474
X-0.3065 Y-6.5334
X-0.3169 Y-6.5181
X-0.33 Y-6.5018
X-0.3466 Y-6.4843
X-0.3674 Y-6.4656
X-0.3928 Y-6.4463
X-0.4245 Y-6.4259
X-0.4641 Y-6.4048
X-0.5105 Y-6.3846
X-0.5582 Y-6.3679
X-0.6069 Y-6.3542
X-0.6561 Y-6.3428
X-0.7058 Y-6.3334
X-0.7558 Y-6.3256
X-0.8059 Y-6.3192
X-0.8562 Y-6.3139
X-0.9066 Y-6.3095
X-0.957 Y-6.3059
X-1.0075 Y-6.303
X-1.058 Y-6.3005
X-1.1591 Y-6.2968
X-1.2602 Y-6.2943
X-1.4119 Y-6.292
X-1.6141 Y-6.2904
X-2.0187 Y-6.2894
X-2.2209 Y-6.2893
X-4.193 Y-6.2892
X-5.6594
X-5.7098 Y-6.285
X-5.7585 Y-6.2716
X-5.8039 Y-6.2493
X-5.845 Y-6.2197
X-5.8813 Y-6.1846
X-5.9131 Y-6.1453
X-5.9406 Y-6.1028
X-5.9642 Y-6.0581
X-5.9843 Y-6.0117
X-6.0013 Y-5.9641
X-6.0157 Y-5.9156
X-6.0278 Y-5.8665
X-6.038 Y-5.817
X-6.0466 Y-5.7671
X-6.0537 Y-5.7171
X-6.0597 Y-5.6669
X-6.0647 Y-5.6166
X-6.0688 Y-5.5662
X-6.0723 Y-5.5157
X-6.0752 Y-5.4652
X-6.0776 Y-5.4147
X-6.0812 Y-5.3137
X-6.0837 Y-5.2126
X-6.0861 Y-5.0609
X-6.0877 Y-4.8586
X-6.0888 Y-4.5047
X-6.0891 Y-3.999
X-6.0892 Y-2.0269
X-6.0893 Y-0.7628
X-6.0897 Y-0.7122
X-6.0906 Y-0.6617
X-6.0927 Y-0.6111
X-6.0964 Y-0.5607
X-6.1023 Y-0.5105
X-6.1106 Y-0.4669
X-6.1208 Y-0.4301
X-6.1333 Y-0.3964
X-6.1413 Y-0.3818
X-6.1513 Y-0.3685
X-6.163 Y-0.3568
X-6.1763 Y-0.3468
X-6.1909 Y-0.3389
X-6.2065 Y-0.3331
X-6.2228 Y-0.3296
X-6.2393 Y-0.3284
X-6.3769 Y-0.3282
X-6.3932 Y-0.3278
X-6.4069 Y-0.3271
G3 X-6.4261 Y-0.3306 I-0.0009 J-0.05
G1 X-6.4287 Y-0.3316 Z-0.3932
X-6.4313 Y-0.3327 Z-0.393
X-6.4339 Y-0.3337 Z-0.3926
X-6.4364 Y-0.3347 Z-0.3921
X-6.4389 Y-0.3357 Z-0.3914
X-6.4414 Y-0.3367 Z-0.3905
X-6.4439 Y-0.3376 Z-0.3895
X-6.4462 Y-0.3386 Z-0.3884
X-6.4486 Y-0.3395 Z-0.3871
X-6.4508 Y-0.3404 Z-0.3856
X-6.453 Y-0.3412 Z-0.3841
X-6.4551 Y-0.342 Z-0.3824
X-6.4571 Y-0.3428 Z-0.3806
X-6.459 Y-0.3436 Z-0.3787
X-6.4607 Y-0.3443 Z-0.3766
X-6.4624 Y-0.3449 Z-0.3745
X-6.464 Y-0.3455 Z-0.3722
X-6.4654 Y-0.3461 Z-0.3699
X-6.4668 Y-0.3466 Z-0.3675
X-6.468 Y-0.3471 Z-0.365
X-6.469 Y-0.3475 Z-0.3624
X-6.47 Y-0.3479 Z-0.3598
X-6.4708 Y-0.3482 Z-0.3571
X-6.4714 Y-0.3485 Z-0.3544
X-6.4719 Y-0.3487 Z-0.3517
X-6.4723 Y-0.3488 Z-0.3489
X-6.4725 Y-0.3489 Z-0.3461
X-6.4726 Z-0.3433
G0 Z0.2
X-6.6297 Y0.2977
Z-0.2933
G1 Z-0.3433 F20.
X-6.6296 Z-0.3461
X-6.6294 Y0.2976 Z-0.3489
X-6.629 Z-0.3517
X-6.6284 Y0.2975 Z-0.3544
X-6.6277 Y0.2974 Z-0.3571
X-6.6269 Y0.2972 Z-0.3598
X-6.6259 Y0.2971 Z-0.3624
X-6.6248 Y0.2969 Z-0.365
X-6.6235 Y0.2967 Z-0.3675
X-6.6221 Y0.2965 Z-0.3699
X-6.6206 Y0.2963 Z-0.3722
X-6.6189 Y0.296 Z-0.3745
X-6.6171 Y0.2958 Z-0.3766
X-6.6152 Y0.2955 Z-0.3787
X-6.6132 Y0.2952 Z-0.3806
X-6.6111 Y0.2949 Z-0.3824
X-6.6088 Y0.2945 Z-0.3841
X-6.6065 Y0.2942 Z-0.3856
X-6.6042 Y0.2938 Z-0.3871
X-6.6017 Y0.2935 Z-0.3884
X-6.5992 Y0.2931 Z-0.3895
X-6.5966 Y0.2927 Z-0.3905
X-6.5939 Y0.2923 Z-0.3914
X-6.5912 Y0.2919 Z-0.3921
X-6.5885 Y0.2915 Z-0.3926
X-6.5858 Y0.2911 Z-0.393
X-6.583 Y0.2907 Z-0.3932
X-6.5802 Y0.2902 Z-0.3933
G3 X-6.5607 Y0.2922 I0.0059 J0.0391
G1 X-6.5417 Y0.3
X-6.5118 Y0.3091
X-6.4968 Y0.3134
X-6.4818 Y0.3171
X-6.4668 Y0.3203
X-6.4529 Y0.3222
X-6.4367 Y0.3252
X-6.4229 Y0.3289
X-6.4084 Y0.3341
X-6.3915 Y0.3418
X-6.3746 Y0.3511
X-6.3555 Y0.3638
X-6.3361 Y0.379
X-6.3147 Y0.3987
X-6.2933 Y0.422
X-6.2705 Y0.4511
X-6.2468 Y0.4869
X-6.2226 Y0.5308
X-6.2019 Y0.5769
X-6.1842 Y0.6243
X-6.1693 Y0.6726
X-6.1566 Y0.7216
X-6.1459 Y0.771
X-6.1369 Y0.8207
X-6.1292 Y0.8707
X-6.1228 Y0.9209
X-6.1173 Y0.9711
X-6.1128 Y1.0215
X-6.1089 Y1.0719
X-6.1057 Y1.1224
X-6.1029 Y1.1729
X-6.0988 Y1.2739
X-6.0958 Y1.375
X-6.093 Y1.5267
X-6.091 Y1.7289
X-6.0897 Y2.0323
X-6.0895 Y2.184
X-6.0892 Y4.1561
Y5.6225
X-6.0889 Y5.6731
X-6.0813 Y5.7231
X-6.0646 Y5.7708
X-6.0397 Y5.8148
X-6.0082 Y5.8544
X-5.9717 Y5.8893
X-5.9313 Y5.9198
X-5.8882 Y5.9461
X-5.8429 Y5.9687
X-5.7961 Y5.9879
X-5.7483 Y6.0043
X-5.6996 Y6.0181
X-5.6504 Y6.0297
X-5.6008 Y6.0395
X-5.5509 Y6.0477
X-5.5008 Y6.0546
X-5.4506 Y6.0604
X-5.4003 Y6.0652
X-5.3499 Y6.0692
X-5.2994 Y6.0726
X-5.2489 Y6.0754
X-5.1479 Y6.0797
X-5.0468 Y6.0826
X-4.8951 Y6.0854
X-4.6929 Y6.0874
X-4.3895 Y6.0886
X-3.8332 Y6.0891
X-1.8612 Y6.0892
X-0.7487 Y6.0893
X-0.6982 Y6.0898
X-0.6476 Y6.0911
X-0.5971 Y6.0936
X-0.5467 Y6.0977
X-0.4966 Y6.1045
X-0.4557 Y6.1134
X-0.4211 Y6.1238
X-0.3901 Y6.136
X-0.375 Y6.1449
X-0.3615 Y6.156
X-0.35 Y6.1692
X-0.3407 Y6.1841
X-0.3339 Y6.2002
X-0.3298 Y6.2172
X-0.3284 Y6.2347
X-0.3282 Y6.3769
X-0.3278 Y6.3932
X-0.3271 Y6.4069
G3 X-0.3306 Y6.4261 I-0.05 J0.0009
G1 X-0.3316 Y6.4287 Z-0.3932
X-0.3327 Y6.4313 Z-0.393
X-0.3337 Y6.4339 Z-0.3926
X-0.3347 Y6.4364 Z-0.3921
X-0.3357 Y6.4389 Z-0.3914
X-0.3367 Y6.4414 Z-0.3905
X-0.3376 Y6.4439 Z-0.3895
X-0.3386 Y6.4462 Z-0.3884
X-0.3395 Y6.4486 Z-0.3871
X-0.3404 Y6.4508 Z-0.3856
X-0.3412 Y6.453 Z-0.3841
X-0.342 Y6.4551 Z-0.3824
X-0.3428 Y6.4571 Z-0.3806
X-0.3436 Y6.459 Z-0.3787
X-0.3443 Y6.4607 Z-0.3766
X-0.3449 Y6.4624 Z-0.3745
X-0.3455 Y6.464 Z-0.3722
X-0.3461 Y6.4654 Z-0.3699
X-0.3466 Y6.4668 Z-0.3675
X-0.3471 Y6.468 Z-0.365
X-0.3475 Y6.469 Z-0.3624
X-0.3479 Y6.47 Z-0.3598
X-0.3482 Y6.4708 Z-0.3571
X-0.3485 Y6.4714 Z-0.3544
X-0.3487 Y6.4719 Z-0.3517
X-0.3488 Y6.4723 Z-0.3489
X-0.3489 Y6.4725 Z-0.3461
Y6.4726 Z-0.3433
G0 Z0.2
X0.2977 Y6.6297
Z-0.2933
G1 Z-0.3433 F20.
Y6.6296 Z-0.3461
X0.2976 Y6.6294 Z-0.3489
Y6.629 Z-0.3517
X0.2975 Y6.6284 Z-0.3544
X0.2974 Y6.6277 Z-0.3571
X0.2972 Y6.6269 Z-0.3598
X0.2971 Y6.6259 Z-0.3624
X0.2969 Y6.6248 Z-0.365
X0.2967 Y6.6235 Z-0.3675
X0.2965 Y6.6221 Z-0.3699
X0.2963 Y6.6206 Z-0.3722
X0.296 Y6.6189 Z-0.3745
X0.2958 Y6.6171 Z-0.3766
X0.2955 Y6.6152 Z-0.3787
X0.2952 Y6.6132 Z-0.3806
X0.2949 Y6.6111 Z-0.3824
X0.2945 Y6.6088 Z-0.3841
X0.2942 Y6.6065 Z-0.3856
X0.2938 Y6.6042 Z-0.3871
X0.2935 Y6.6017 Z-0.3884
X0.2931 Y6.5992 Z-0.3895
X0.2927 Y6.5966 Z-0.3905
X0.2923 Y6.5939 Z-0.3914
X0.2919 Y6.5912 Z-0.3921
X0.2915 Y6.5885 Z-0.3926
X0.2911 Y6.5858 Z-0.393
X0.2907 Y6.583 Z-0.3932
X0.2902 Y6.5802 Z-0.3933
G3 X0.2922 Y6.5607 I0.0391 J-0.0059
G1 X0.3 Y6.5417
X0.3091 Y6.5118
X0.3134 Y6.4968
X0.3171 Y6.4818
X0.3203 Y6.4668
X0.3222 Y6.4529
X0.3252 Y6.4367
X0.3289 Y6.4229
X0.3341 Y6.4084
X0.3418 Y6.3915
X0.3511 Y6.3746
X0.3638 Y6.3555
X0.379 Y6.3361
X0.3987 Y6.3147
X0.422 Y6.2933
X0.4511 Y6.2705
X0.4869 Y6.2468
X0.5308 Y6.2226
X0.5769 Y6.2019
X0.6243 Y6.1842
X0.6726 Y6.1693
X0.7216 Y6.1566
X0.771 Y6.1459
X0.8207 Y6.1369
X0.8707 Y6.1292
X0.9209 Y6.1228
X0.9711 Y6.1173
X1.0215 Y6.1128
X1.0719 Y6.1089
X1.1224 Y6.1057
X1.1729 Y6.1029
X1.2739 Y6.0988
X1.375 Y6.0958
X1.5267 Y6.093
X1.7289 Y6.091
X2.0323 Y6.0897
X2.184 Y6.0895
X4.1561 Y6.0892
X5.6225
X5.6731 Y6.0889
X5.7231 Y6.0813
X5.7708 Y6.0646
X5.8148 Y6.0397
X5.8544 Y6.0082
X5.8893 Y5.9717
X5.9198 Y5.9313
X5.9461 Y5.8881
X5.9687 Y5.8429
X5.9879 Y5.7961
X6.0042 Y5.7483
X6.0181 Y5.6996
X6.0297 Y5.6504
X6.0395 Y5.6008
X6.0477 Y5.5509
X6.0546 Y5.5008
X6.0604 Y5.4506
X6.0652 Y5.4002
X6.0692 Y5.3498
X6.0726 Y5.2994
X6.0754 Y5.2489
X6.0797 Y5.1479
X6.0826 Y5.0468
X6.0854 Y4.8951
X6.0874 Y4.6928
X6.0886 Y4.3894
X6.0891 Y3.8332
X6.0892 Y1.8611
X6.0893 Y0.7487
X6.0898 Y0.6981
X6.0911 Y0.6476
X6.0936 Y0.5971
X6.0977 Y0.5467
X6.1045 Y0.4966
X6.1134 Y0.4557
X6.1238 Y0.4211
X6.136 Y0.3901
X6.1449 Y0.375
X6.156 Y0.3615
X6.1692 Y0.35
X6.1841 Y0.3407
X6.2002 Y0.3339
X6.2172 Y0.3298
X6.2347 Y0.3284
X6.3769 Y0.3282
X6.3932 Y0.3278
X6.4069 Y0.3271
G3 X6.4261 Y0.3306 I0.0009 J0.05
G1 X6.4287 Y0.3316 Z-0.3932
X6.4313 Y0.3327 Z-0.393
X6.4339 Y0.3337 Z-0.3926
X6.4364 Y0.3347 Z-0.3921
X6.4389 Y0.3357 Z-0.3914
X6.4414 Y0.3367 Z-0.3905
X6.4439 Y0.3376 Z-0.3895
X6.4462 Y0.3386 Z-0.3884
X6.4486 Y0.3395 Z-0.3871
X6.4508 Y0.3404 Z-0.3856
X6.453 Y0.3412 Z-0.3841
X6.4551 Y0.342 Z-0.3824
X6.4571 Y0.3428 Z-0.3806
X6.459 Y0.3436 Z-0.3787
X6.4607 Y0.3443 Z-0.3766
X6.4624 Y0.3449 Z-0.3745
X6.464 Y0.3455 Z-0.3722
X6.4654 Y0.3461 Z-0.3699
X6.4668 Y0.3466 Z-0.3675
X6.468 Y0.3471 Z-0.365
X6.469 Y0.3475 Z-0.3624
X6.47 Y0.3479 Z-0.3598
X6.4708 Y0.3482 Z-0.3571
X6.4714 Y0.3485 Z-0.3544
X6.4719 Y0.3487 Z-0.3517
X6.4723 Y0.3488 Z-0.3489
X6.4725 Y0.3489 Z-0.3461
X6.4726 Z-0.3433
G0 Z0.2
X6.6297 Y-0.2977
Z-0.2933
G1 Z-0.3433 F20.
X6.6296 Z-0.3461
X6.6294 Y-0.2976 Z-0.3489
X6.629 Z-0.3517
X6.6284 Y-0.2975 Z-0.3544
X6.6277 Y-0.2974 Z-0.3571
X6.6269 Y-0.2972 Z-0.3598
X6.6259 Y-0.2971 Z-0.3624
X6.6248 Y-0.2969 Z-0.365
X6.6235 Y-0.2967 Z-0.3675
X6.6221 Y-0.2965 Z-0.3699
X6.6206 Y-0.2963 Z-0.3722
X6.6189 Y-0.296 Z-0.3745
X6.6171 Y-0.2958 Z-0.3766
X6.6152 Y-0.2955 Z-0.3787
X6.6132 Y-0.2952 Z-0.3806
X6.6111 Y-0.2949 Z-0.3824
X6.6088 Y-0.2945 Z-0.3841
X6.6065 Y-0.2942 Z-0.3856
X6.6042 Y-0.2938 Z-0.3871
X6.6017 Y-0.2935 Z-0.3884
X6.5992 Y-0.2931 Z-0.3895
X6.5966 Y-0.2927 Z-0.3905
X6.5939 Y-0.2923 Z-0.3914
X6.5912 Y-0.2919 Z-0.3921
X6.5885 Y-0.2915 Z-0.3926
X6.5858 Y-0.2911 Z-0.393
X6.583 Y-0.2907 Z-0.3932
X6.5802 Y-0.2902 Z-0.3933
G3 X6.5607 Y-0.2922 I-0.0059 J-0.0391
G1 X6.5417 Y-0.3
X6.5118 Y-0.3091
X6.4968 Y-0.3134
X6.4818 Y-0.3171
X6.4668 Y-0.3203
X6.4529 Y-0.3222
X6.4367 Y-0.3252
X6.4229 Y-0.3289
X6.4084 Y-0.3341
X6.3915 Y-0.3418
X6.3746 Y-0.3511
X6.3555 Y-0.3638
X6.3361 Y-0.379
X6.3147 Y-0.3987
X6.2933 Y-0.422
X6.2705 Y-0.4511
X6.2468 Y-0.4869
X6.2226 Y-0.5308
X6.2019 Y-0.5769
X6.1842 Y-0.6243
X6.1693 Y-0.6726
X6.1566 Y-0.7216
X6.1459 Y-0.771
X6.1369 Y-0.8207
X6.1292 Y-0.8707
X6.1228 Y-0.9209
X6.1173 Y-0.9711
X6.1128 Y-1.0215
X6.1089 Y-1.0719
X6.1057 Y-1.1224
X6.1029 Y-1.1729
X6.0988 Y-1.2739
X6.0958 Y-1.375
X6.093 Y-1.5267
X6.091 Y-1.7289
X6.0897 Y-2.0323
X6.0895 Y-2.184
X6.0892 Y-4.1561
Y-5.6225
X6.0889 Y-5.6731
X6.0813 Y-5.7231
X6.0646 Y-5.7708
X6.0397 Y-5.8148
X6.0082 Y-5.8544
X5.9717 Y-5.8893
X5.9313 Y-5.9198
X5.8881 Y-5.9461
X5.8429 Y-5.9687
X5.7961 Y-5.9879
X5.7483 Y-6.0042
X5.6996 Y-6.0181
X5.6504 Y-6.0297
X5.6008 Y-6.0395
X5.5509 Y-6.0477
X5.5008 Y-6.0546
X5.4506 Y-6.0604
X5.4002 Y-6.0652
X5.3498 Y-6.0692
X5.2994 Y-6.0726
X5.2489 Y-6.0754
X5.1479 Y-6.0797
X5.0468 Y-6.0826
X4.8951 Y-6.0854
X4.6928 Y-6.0874
X4.3895 Y-6.0886
X3.8332 Y-6.0891
X1.8612 Y-6.0892
X0.7487 Y-6.0893
X0.6981 Y-6.0898
X0.6476 Y-6.0911
X0.5971 Y-6.0936
X0.5467 Y-6.0977
X0.4966 Y-6.1045
X0.4557 Y-6.1134
X0.4211 Y-6.1238
X0.3901 Y-6.136
X0.375 Y-6.1449
X0.3615 Y-6.156
X0.35 Y-6.1692
X0.3407 Y-6.1841
X0.3339 Y-6.2002
X0.3298 Y-6.2172
X0.3284 Y-6.2347
X0.3282 Y-6.3769
X0.3278 Y-6.3932
X0.3271 Y-6.4069
G3 X0.3306 Y-6.4261 I0.05 J-0.0009
G1 X0.3316 Y-6.4287 Z-0.3932
X0.3327 Y-6.4313 Z-0.393
X0.3337 Y-6.4339 Z-0.3926
X0.3347 Y-6.4364 Z-0.3921
X0.3357 Y-6.4389 Z-0.3914
X0.3367 Y-6.4414 Z-0.3905
X0.3376 Y-6.4439 Z-0.3895
X0.3386 Y-6.4462 Z-0.3884
X0.3395 Y-6.4486 Z-0.3871
X0.3404 Y-6.4508 Z-0.3856
X0.3412 Y-6.453 Z-0.3841
X0.342 Y-6.4551 Z-0.3824
X0.3428 Y-6.4571 Z-0.3806
X0.3436 Y-6.459 Z-0.3787
X0.3443 Y-6.4607 Z-0.3766
X0.3449 Y-6.4624 Z-0.3745
X0.3455 Y-6.464 Z-0.3722
X0.3461 Y-6.4654 Z-0.3699
X0.3466 Y-6.4668 Z-0.3675
X0.3471 Y-6.468 Z-0.365
X0.3475 Y-6.469 Z-0.3624
X0.3479 Y-6.47 Z-0.3598
X0.3482 Y-6.4708 Z-0.3571
X0.3485 Y-6.4714 Z-0.3544
X0.3487 Y-6.4719 Z-0.3517
X0.3488 Y-6.4723 Z-0.3489
X0.3489 Y-6.4725 Z-0.3461
Y-6.4726 Z-0.3433
G0 Z0.2
X-0.2977 Y-6.6297
Z-0.2933
G1 Z-0.3433 F20.
Y-6.6296 Z-0.3461
X-0.2976 Y-6.6294 Z-0.3489
Y-6.629 Z-0.3517
X-0.2975 Y-6.6284 Z-0.3544
X-0.2974 Y-6.6277 Z-0.3571
X-0.2972 Y-6.6269 Z-0.3598
X-0.2971 Y-6.6259 Z-0.3624
X-0.2969 Y-6.6248 Z-0.365
X-0.2967 Y-6.6235 Z-0.3675
X-0.2965 Y-6.6221 Z-0.3699
X-0.2963 Y-6.6206 Z-0.3722
X-0.296 Y-6.6189 Z-0.3745
X-0.2958 Y-6.6171 Z-0.3766
X-0.2955 Y-6.6152 Z-0.3787
X-0.2952 Y-6.6132 Z-0.3806
X-0.2949 Y-6.6111 Z-0.3824
X-0.2945 Y-6.6088 Z-0.3841
X-0.2942 Y-6.6065 Z-0.3856
X-0.2938 Y-6.6042 Z-0.3871
X-0.2935 Y-6.6017 Z-0.3884
X-0.2931 Y-6.5992 Z-0.3895
X-0.2927 Y-6.5966 Z-0.3905
X-0.2923 Y-6.5939 Z-0.3914
X-0.2919 Y-6.5912 Z-0.3921
X-0.2915 Y-6.5885 Z-0.3926
X-0.2911 Y-6.5858 Z-0.393
X-0.2907 Y-6.583 Z-0.3932
X-0.2902 Y-6.5802 Z-0.3933
G3 X-0.2922 Y-6.5607 I-0.0391 J0.0059
G1 X-0.3 Y-6.5417
X-0.3091 Y-6.5118
X-0.3134 Y-6.4968
X-0.3171 Y-6.4818
X-0.3203 Y-6.4668
X-0.3222 Y-6.4529
X-0.3252 Y-6.4367
X-0.3289 Y-6.4229
X-0.3341 Y-6.4084
X-0.3418 Y-6.3915
X-0.3511 Y-6.3746
X-0.3638 Y-6.3555
X-0.379 Y-6.3361
X-0.3987 Y-6.3147
X-0.422 Y-6.2933
X-0.4511 Y-6.2705
X-0.4869 Y-6.2468
X-0.5308 Y-6.2226
X-0.5769 Y-6.2019
X-0.6243 Y-6.1842
X-0.6726 Y-6.1693
X-0.7216 Y-6.1566
X-0.771 Y-6.1459
X-0.8207 Y-6.1369
X-0.8707 Y-6.1292
X-0.9209 Y-6.1228
X-0.9711 Y-6.1173
X-1.0215 Y-6.1128
X-1.0719 Y-6.1089
X-1.1224 Y-6.1057
X-1.1729 Y-6.1029
X-1.2739 Y-6.0988
X-1.375 Y-6.0958
X-1.5267 Y-6.093
X-1.7289 Y-6.091
X-2.0323 Y-6.0897
X-2.184 Y-6.0895
X-4.1561 Y-6.0892
X-5.4202
X-5.4708 Y-6.0889
X-5.5208 Y-6.0816
X-5.5687 Y-6.0651
X-5.6128 Y-6.0404
X-5.6525 Y-6.0092
X-5.6877 Y-5.9728
X-5.7183 Y-5.9326
X-5.7448 Y-5.8895
X-5.7675 Y-5.8443
X-5.7869 Y-5.7976
X-5.8033 Y-5.7498
X-5.8173 Y-5.7012
X-5.829 Y-5.652
X-5.8389 Y-5.6024
X-5.8472 Y-5.5525
X-5.8542 Y-5.5025
X-5.86 Y-5.4522
X-5.8649 Y-5.4019
X-5.869 Y-5.3515
X-5.8724 Y-5.301
X-5.8752 Y-5.2506
X-5.8795 Y-5.1495
X-5.8825 Y-5.0484
X-5.8854 Y-4.8968
X-5.8874 Y-4.6945
X-5.8886 Y-4.3911
X-5.8891 Y-3.6326
X-5.8892 Y-1.6605
X-5.8893 Y-0.9021
X-5.8902 Y-0.8009
X-5.8914 Y-0.7504
X-5.8935 Y-0.6999
X-5.8966 Y-0.6494
X-5.9013 Y-0.599
X-5.908 Y-0.5489
X-5.9171 Y-0.4992
X-5.9284 Y-0.4549
X-5.941 Y-0.4182
X-5.9547 Y-0.3867
X-5.9638 Y-0.3724
X-5.9751 Y-0.3596
X-5.9881 Y-0.3487
X-6.0027 Y-0.34
X-6.0185 Y-0.3336
X-6.035 Y-0.3297
X-6.052 Y-0.3284
X-6.2393
G3 X-6.2583 Y-0.3328 I0.0017 J-0.05
G1 X-6.2609 Y-0.334 Z-0.3932
X-6.2634 Y-0.3352 Z-0.393
X-6.2659 Y-0.3363 Z-0.3926
X-6.2684 Y-0.3375 Z-0.3921
X-6.2709 Y-0.3386 Z-0.3914
X-6.2733 Y-0.3397 Z-0.3905
X-6.2757 Y-0.3408 Z-0.3895
X-6.2781 Y-0.3418 Z-0.3884
X-6.2803 Y-0.3429 Z-0.3871
X-6.2825 Y-0.3439 Z-0.3856
X-6.2846 Y-0.3448 Z-0.3841
X-6.2867 Y-0.3458 Z-0.3824
X-6.2886 Y-0.3467 Z-0.3806
X-6.2905 Y-0.3475 Z-0.3787
X-6.2922 Y-0.3483 Z-0.3766
X-6.2939 Y-0.349 Z-0.3745
X-6.2954 Y-0.3497 Z-0.3722
X-6.2968 Y-0.3504 Z-0.3699
X-6.2981 Y-0.351 Z-0.3675
X-6.2993 Y-0.3515 Z-0.365
X-6.3004 Y-0.352 Z-0.3624
X-6.3013 Y-0.3524 Z-0.3598
X-6.302 Y-0.3528 Z-0.3571
X-6.3027 Y-0.3531 Z-0.3544
X-6.3032 Y-0.3533 Z-0.3517
X-6.3035 Y-0.3534 Z-0.3489
X-6.3037 Y-0.3535 Z-0.3461
X-6.3038 Y-0.3536 Z-0.3433
G0 Z0.2
X-6.5183 Y0.3448
Z-0.2933
G1 Z-0.3433 F20.
X-6.5182 Z-0.3461
X-6.518 Y0.3447 Z-0.3489
X-6.5176 Y0.3445 Z-0.3517
X-6.5171 Y0.3443 Z-0.3544
X-6.5165 Y0.344 Z-0.3571
X-6.5157 Y0.3437 Z-0.3598
X-6.5148 Y0.3433 Z-0.3624
X-6.5137 Y0.3429 Z-0.365
X-6.5125 Y0.3424 Z-0.3675
X-6.5112 Y0.3418 Z-0.3699
X-6.5098 Y0.3412 Z-0.3722
X-6.5083 Y0.3405 Z-0.3745
X-6.5066 Y0.3398 Z-0.3766
X-6.5048 Y0.3391 Z-0.3787
X-6.5029 Y0.3383 Z-0.3806
X-6.501 Y0.3374 Z-0.3824
X-6.4989 Y0.3365 Z-0.3841
X-6.4968 Y0.3356 Z-0.3856
X-6.4945 Y0.3347 Z-0.3871
X-6.4923 Y0.3337 Z-0.3884
X-6.4899 Y0.3327 Z-0.3895
X-6.4875 Y0.3317 Z-0.3905
X-6.485 Y0.3306 Z-0.3914
X-6.4825 Y0.3296 Z-0.3921
X-6.48 Y0.3285 Z-0.3926
X-6.4774 Y0.3274 Z-0.393
X-6.4749 Y0.3263 Z-0.3932
X-6.4723 Y0.3252 Z-0.3933
G3 X-6.4529 Y0.3222 I0.0155 J0.0364
G1 X-6.4368 Y0.3244
X-6.4069 Y0.3271
X-6.3919 Y0.3279
X-6.3469 Y0.3284
X-6.3319
X-6.3124 Y0.3293
X-6.2985 Y0.3312
X-6.2822 Y0.3347
X-6.2656 Y0.3396
X-6.2465 Y0.3471
X-6.2268 Y0.3566
X-6.2054 Y0.3692
X-6.1831 Y0.3849
X-6.1591 Y0.4048
X-6.1349 Y0.4284
X-6.1093 Y0.4578
X-6.0828 Y0.4936
X-6.056 Y0.5366
X-6.0328 Y0.5815
X-6.0126 Y0.6279
X-5.9952 Y0.6753
X-5.98 Y0.7236
X-5.967 Y0.7724
X-5.9557 Y0.8217
X-5.946 Y0.8713
X-5.9377 Y0.9212
X-5.9305 Y0.9713
X-5.9244 Y1.0215
X-5.9191 Y1.0717
X-5.9146 Y1.1221
X-5.9107 Y1.1725
X-5.9074 Y1.223
X-5.9046 Y1.2735
X-5.9002 Y1.3745
X-5.897 Y1.4756
X-5.8939 Y1.6273
X-5.8915 Y1.8295
X-5.89 Y2.1329
X-5.8892 Y2.7903
Y4.105
Y5.4197
X-5.8887 Y5.4703
X-5.8809 Y5.5202
X-5.8641 Y5.5679
X-5.8392 Y5.6119
X-5.8078 Y5.6516
X-5.7714 Y5.6866
X-5.7312 Y5.7173
X-5.6881 Y5.7437
X-5.6429 Y5.7665
X-5.5962 Y5.7859
X-5.5484 Y5.8024
X-5.4998 Y5.8164
X-5.4507 Y5.8282
X-5.4011 Y5.8381
X-5.3512 Y5.8465
X-5.3011 Y5.8535
X-5.2509 Y5.8594
X-5.2006 Y5.8644
X-5.1502 Y5.8685
X-5.0998 Y5.8719
X-5.0493 Y5.8748
X-4.9482 Y5.8792
X-4.8472 Y5.8823
X-4.6955 Y5.8852
X-4.4932 Y5.8873
X-4.1898 Y5.8886
X-3.4819 Y5.8891
X-1.5098 Y5.8892
X-0.903 Y5.8893
X-0.8019 Y5.8903
X-0.7514 Y5.8915
X-0.7008 Y5.8934
X-0.6504 Y5.8965
X-0.6 Y5.9011
X-0.5499 Y5.9078
X-0.5002 Y5.9169
X-0.455 Y5.9283
X-0.4177 Y5.9409
X-0.3855 Y5.9548
X-0.3715 Y5.9636
X-0.359 Y5.9746
X-0.3483 Y5.9873
X-0.3397 Y6.0016
X-0.3335 Y6.017
X-0.3297 Y6.0331
X-0.3284 Y6.0497
Y6.2347
G3 X-0.3328 Y6.2537 I-0.05 J-0.0017
G1 X-0.334 Y6.2562 Z-0.3932
X-0.3352 Y6.2588 Z-0.393
X-0.3363 Y6.2613 Z-0.3926
X-0.3375 Y6.2638 Z-0.3921
X-0.3386 Y6.2663 Z-0.3914
X-0.3397 Y6.2687 Z-0.3905
X-0.3408 Y6.2711 Z-0.3895
X-0.3418 Y6.2734 Z-0.3884
X-0.3429 Y6.2757 Z-0.3871
X-0.3439 Y6.2779 Z-0.3856
X-0.3448 Y6.28 Z-0.3841
X-0.3458 Y6.282 Z-0.3824
X-0.3467 Y6.284 Z-0.3806
X-0.3475 Y6.2858 Z-0.3787
X-0.3483 Y6.2876 Z-0.3766
X-0.349 Y6.2892 Z-0.3745
X-0.3497 Y6.2908 Z-0.3722
X-0.3504 Y6.2922 Z-0.3699
X-0.351 Y6.2935 Z-0.3675
X-0.3515 Y6.2947 Z-0.365
X-0.352 Y6.2957 Z-0.3624
X-0.3524 Y6.2966 Z-0.3598
X-0.3528 Y6.2974 Z-0.3571
X-0.3531 Y6.298 Z-0.3544
X-0.3533 Y6.2985 Z-0.3517
X-0.3534 Y6.2989 Z-0.3489
X-0.3535 Y6.2991 Z-0.3461
X-0.3536 Y6.2992 Z-0.3433
G0 Z0.2
X0.3448 Y6.5183
Z-0.2933
G1 Z-0.3433 F20.
Y6.5182 Z-0.3461
X0.3447 Y6.518 Z-0.3489
X0.3445 Y6.5176 Z-0.3517
X0.3443 Y6.5171 Z-0.3544
X0.344 Y6.5165 Z-0.3571
X0.3437 Y6.5157 Z-0.3598
X0.3433 Y6.5148 Z-0.3624
X0.3429 Y6.5137 Z-0.365
X0.3424 Y6.5125 Z-0.3675
X0.3418 Y6.5112 Z-0.3699
X0.3412 Y6.5098 Z-0.3722
X0.3405 Y6.5083 Z-0.3745
X0.3398 Y6.5066 Z-0.3766
X0.3391 Y6.5048 Z-0.3787
X0.3383 Y6.5029 Z-0.3806
X0.3374 Y6.501 Z-0.3824
X0.3365 Y6.4989 Z-0.3841
X0.3356 Y6.4968 Z-0.3856
X0.3347 Y6.4945 Z-0.3871
X0.3337 Y6.4923 Z-0.3884
X0.3327 Y6.4899 Z-0.3895
X0.3317 Y6.4875 Z-0.3905
X0.3306 Y6.485 Z-0.3914
X0.3296 Y6.4825 Z-0.3921
X0.3285 Y6.48 Z-0.3926
X0.3274 Y6.4774 Z-0.393
X0.3263 Y6.4749 Z-0.3932
X0.3252 Y6.4723 Z-0.3933
G3 X0.3222 Y6.4529 I0.0364 J-0.0155
G1 X0.3244 Y6.4368
X0.3271 Y6.4069
X0.3279 Y6.3919
X0.3284 Y6.3469
Y6.3319
X0.3293 Y6.3124
X0.3312 Y6.2985
X0.3347 Y6.2822
X0.3396 Y6.2656
X0.3471 Y6.2465
X0.3566 Y6.2268
X0.3692 Y6.2054
X0.3849 Y6.1831
X0.4048 Y6.1591
X0.4284 Y6.1349
X0.4578 Y6.1093
X0.4936 Y6.0828
X0.5366 Y6.056
X0.5815 Y6.0328
X0.6279 Y6.0126
X0.6753 Y5.9952
X0.7236 Y5.98
X0.7724 Y5.967
X0.8217 Y5.9557
X0.8713 Y5.946
X0.9212 Y5.9377
X0.9713 Y5.9305
X1.0215 Y5.9244
X1.0717 Y5.9191
X1.1221 Y5.9146
X1.1725 Y5.9107
X1.223 Y5.9074
X1.2735 Y5.9046
X1.3745 Y5.9002
X1.4756 Y5.897
X1.6273 Y5.8939
X1.8295 Y5.8915
X2.1329 Y5.89
X2.7903 Y5.8892
X4.105
X5.4197
X5.4703 Y5.8887
X5.5202 Y5.8809
X5.5679 Y5.8641
X5.6119 Y5.8392
X5.6515 Y5.8078
X5.6866 Y5.7714
X5.7172 Y5.7311
X5.7437 Y5.6881
X5.7665 Y5.6429
X5.7859 Y5.5962
X5.8024 Y5.5484
X5.8164 Y5.4998
X5.8282 Y5.4506
X5.8381 Y5.4011
X5.8465 Y5.3512
X5.8535 Y5.3011
X5.8594 Y5.2509
X5.8643 Y5.2006
X5.8685 Y5.1502
X5.8719 Y5.0997
X5.8748 Y5.0493
X5.8792 Y4.9482
X5.8823 Y4.8471
X5.8852 Y4.6955
X5.8873 Y4.4932
X5.8886 Y4.1898
X5.8891 Y3.4819
X5.8892 Y1.5098
X5.8893 Y0.903
X5.8903 Y0.8019
X5.8915 Y0.7513
X5.8934 Y0.7008
X5.8965 Y0.6503
X5.9011 Y0.6
X5.9078 Y0.5499
X5.9169 Y0.5001
X5.9283 Y0.455
X5.9409 Y0.4177
X5.9548 Y0.3855
X5.9636 Y0.3715
X5.9746 Y0.359
X5.9873 Y0.3483
X6.0016 Y0.3397
X6.0169 Y0.3335
X6.0331 Y0.3297
X6.0497 Y0.3284
X6.2347
G3 X6.2536 Y0.3328 I-0.0017 J0.05
G1 X6.2562 Y0.334 Z-0.3932
X6.2587 Y0.3352 Z-0.393
X6.2613 Y0.3363 Z-0.3926
X6.2638 Y0.3375 Z-0.3921
X6.2662 Y0.3386 Z-0.3914
X6.2687 Y0.3397 Z-0.3905
X6.2711 Y0.3408 Z-0.3895
X6.2734 Y0.3418 Z-0.3884
X6.2757 Y0.3429 Z-0.3871
X6.2779 Y0.3439 Z-0.3856
X6.28 Y0.3448 Z-0.3841
X6.282 Y0.3458 Z-0.3824
X6.284 Y0.3467 Z-0.3806
X6.2858 Y0.3475 Z-0.3787
X6.2876 Y0.3483 Z-0.3766
X6.2892 Y0.349 Z-0.3745
X6.2908 Y0.3497 Z-0.3722
X6.2922 Y0.3504 Z-0.3699
X6.2935 Y0.351 Z-0.3675
X6.2946 Y0.3515 Z-0.365
X6.2957 Y0.352 Z-0.3624
X6.2966 Y0.3524 Z-0.3598
X6.2974 Y0.3528 Z-0.3571
X6.298 Y0.3531 Z-0.3544
X6.2985 Y0.3533 Z-0.3517
X6.2989 Y0.3534 Z-0.3489
X6.2991 Y0.3535 Z-0.3461
Y0.3536 Z-0.3433
G0 Z0.2
X6.5183 Y-0.3448
Z-0.2933
G1 Z-0.3433 F20.
X6.5182 Z-0.3461
X6.518 Y-0.3447 Z-0.3489
X6.5176 Y-0.3445 Z-0.3517
X6.5171 Y-0.3443 Z-0.3544
X6.5165 Y-0.344 Z-0.3571
X6.5157 Y-0.3437 Z-0.3598
X6.5148 Y-0.3433 Z-0.3624
X6.5137 Y-0.3429 Z-0.365
X6.5125 Y-0.3424 Z-0.3675
X6.5112 Y-0.3418 Z-0.3699
X6.5098 Y-0.3412 Z-0.3722
X6.5083 Y-0.3405 Z-0.3745
X6.5066 Y-0.3398 Z-0.3766
X6.5048 Y-0.3391 Z-0.3787
X6.5029 Y-0.3383 Z-0.3806
X6.501 Y-0.3374 Z-0.3824
X6.4989 Y-0.3365 Z-0.3841
X6.4968 Y-0.3356 Z-0.3856
X6.4945 Y-0.3347 Z-0.3871
X6.4923 Y-0.3337 Z-0.3884
X6.4899 Y-0.3327 Z-0.3895
X6.4875 Y-0.3317 Z-0.3905
X6.485 Y-0.3306 Z-0.3914
X6.4825 Y-0.3296 Z-0.3921
X6.48 Y-0.3285 Z-0.3926
X6.4774 Y-0.3274 Z-0.393
X6.4749 Y-0.3263 Z-0.3932
X6.4723 Y-0.3252 Z-0.3933
G3 X6.4529 Y-0.3222 I-0.0155 J-0.0364
G1 X6.4368 Y-0.3244
X6.4069 Y-0.3271
X6.3919 Y-0.3279
X6.3469 Y-0.3284
X6.3319
X6.3124 Y-0.3293
X6.2985 Y-0.3312
X6.2822 Y-0.3347
X6.2656 Y-0.3396
X6.2465 Y-0.3471
X6.2268 Y-0.3566
X6.2054 Y-0.3692
X6.1831 Y-0.3849
X6.1591 Y-0.4048
X6.1349 Y-0.4284
X6.1093 Y-0.4578
X6.0828 Y-0.4936
X6.056 Y-0.5366
X6.0328 Y-0.5815
X6.0126 Y-0.6279
X5.9952 Y-0.6753
X5.98 Y-0.7236
X5.967 Y-0.7724
X5.9557 Y-0.8217
X5.946 Y-0.8713
X5.9377 Y-0.9212
X5.9305 Y-0.9713
X5.9244 Y-1.0215
X5.9191 Y-1.0717
X5.9146 Y-1.1221
X5.9107 Y-1.1725
X5.9074 Y-1.223
X5.9046 Y-1.2735
X5.9002 Y-1.3745
X5.897 Y-1.4756
X5.8939 Y-1.6273
X5.8915 Y-1.8295
X5.89 Y-2.1329
X5.8892 Y-2.7903
Y-4.105
Y-5.4197
X5.8887 Y-5.4703
X5.8809 Y-5.5202
X5.8641 Y-5.5679
X5.8392 Y-5.6119
X5.8078 Y-5.6515
X5.7714 Y-5.6866
X5.7311 Y-5.7172
X5.6881 Y-5.7437
X5.6429 Y-5.7665
X5.5962 Y-5.7859
X5.5484 Y-5.8024
X5.4998 Y-5.8164
X5.4507 Y-5.8282
X5.4011 Y-5.8381
X5.3512 Y-5.8465
X5.3011 Y-5.8535
X5.2509 Y-5.8594
X5.2006 Y-5.8643
X5.1502 Y-5.8685
X5.0997 Y-5.8719
X5.0493 Y-5.8748
X4.9482 Y-5.8792
X4.8471 Y-5.8823
X4.6955 Y-5.8852
X4.4932 Y-5.8873
X4.1898 Y-5.8886
X3.4819 Y-5.8891
X1.5098 Y-5.8892
X0.903 Y-5.8893
X0.8019 Y-5.8903
X0.7514 Y-5.8915
X0.7008 Y-5.8934
X0.6503 Y-5.8965
X0.6 Y-5.9011
X0.5499 Y-5.9078
X0.5001 Y-5.9169
X0.455 Y-5.9283
X0.4177 Y-5.9409
X0.3855 Y-5.9548
X0.3715 Y-5.9636
X0.359 Y-5.9746
X0.3483 Y-5.9873
X0.3397 Y-6.0016
X0.3335 Y-6.0169
X0.3297 Y-6.0331
X0.3284 Y-6.0497
Y-6.2347
G3 X0.3328 Y-6.2536 I0.05 J0.0017
G1 X0.334 Y-6.2562 Z-0.3932
X0.3352 Y-6.2587 Z-0.393
X0.3363 Y-6.2613 Z-0.3926
X0.3375 Y-6.2638 Z-0.3921
X0.3386 Y-6.2662 Z-0.3914
X0.3397 Y-6.2687 Z-0.3905
X0.3408 Y-6.2711 Z-0.3895
X0.3418 Y-6.2734 Z-0.3884
X0.3429 Y-6.2757 Z-0.3871
X0.3439 Y-6.2779 Z-0.3856
X0.3448 Y-6.28 Z-0.3841
X0.3458 Y-6.282 Z-0.3824
X0.3467 Y-6.284 Z-0.3806
X0.3475 Y-6.2858 Z-0.3787
X0.3483 Y-6.2876 Z-0.3766
X0.349 Y-6.2892 Z-0.3745
X0.3497 Y-6.2908 Z-0.3722
X0.3504 Y-6.2922 Z-0.3699
X0.351 Y-6.2935 Z-0.3675
X0.3515 Y-6.2946 Z-0.365
X0.352 Y-6.2957 Z-0.3624
X0.3524 Y-6.2966 Z-0.3598
X0.3528 Y-6.2974 Z-0.3571
X0.3531 Y-6.298 Z-0.3544
X0.3533 Y-6.2985 Z-0.3517
X0.3534 Y-6.2989 Z-0.3489
X0.3535 Y-6.2991 Z-0.3461
X0.3536 Z-0.3433
G0 Z0.2
X-0.3448 Y-6.5183
Z-0.2933
G1 Z-0.3433 F20.
Y-6.5182 Z-0.3461
X-0.3447 Y-6.518 Z-0.3489
X-0.3445 Y-6.5176 Z-0.3517
X-0.3443 Y-6.5171 Z-0.3544
X-0.344 Y-6.5165 Z-0.3571
X-0.3437 Y-6.5157 Z-0.3598
X-0.3433 Y-6.5148 Z-0.3624
X-0.3429 Y-6.5137 Z-0.365
X-0.3424 Y-6.5125 Z-0.3675
X-0.3418 Y-6.5112 Z-0.3699
X-0.3412 Y-6.5098 Z-0.3722
X-0.3405 Y-6.5083 Z-0.3745
X-0.3398 Y-6.5066 Z-0.3766
X-0.3391 Y-6.5048 Z-0.3787
X-0.3383 Y-6.5029 Z-0.3806
X-0.3374 Y-6.501 Z-0.3824
X-0.3365 Y-6.4989 Z-0.3841
X-0.3356 Y-6.4968 Z-0.3856
X-0.3347 Y-6.4945 Z-0.3871
X-0.3337 Y-6.4923 Z-0.3884
X-0.3327 Y-6.4899 Z-0.3895
X-0.3317 Y-6.4875 Z-0.3905
X-0.3306 Y-6.485 Z-0.3914
X-0.3296 Y-6.4825 Z-0.3921
X-0.3285 Y-6.48 Z-0.3926
X-0.3274 Y-6.4774 Z-0.393
X-0.3263 Y-6.4749 Z-0.3932
X-0.3252 Y-6.4723 Z-0.3933
G3 X-0.3222 Y-6.4529 I-0.0364 J0.0155
G1 X-0.3244 Y-6.4368
X-0.3271 Y-6.4069
X-0.3279 Y-6.3919
X-0.3284 Y-6.3469
Y-6.3319
X-0.3293 Y-6.3124
X-0.3312 Y-6.2985
X-0.3347 Y-6.2822
X-0.3396 Y-6.2656
X-0.3471 Y-6.2465
X-0.3566 Y-6.2268
X-0.3692 Y-6.2054
X-0.3849 Y-6.1831
X-0.4048 Y-6.1591
X-0.4284 Y-6.1349
X-0.4578 Y-6.1093
X-0.4936 Y-6.0828
X-0.5366 Y-6.056
X-0.5815 Y-6.0328
X-0.6279 Y-6.0126
X-0.6753 Y-5.9952
X-0.7236 Y-5.98
X-0.7724 Y-5.967
X-0.8217 Y-5.9557
X-0.8713 Y-5.946
X-0.9212 Y-5.9377
X-0.9713 Y-5.9305
X-1.0215 Y-5.9244
X-1.0717 Y-5.9191
X-1.1221 Y-5.9146
X-1.1725 Y-5.9107
X-1.223 Y-5.9074
X-1.2735 Y-5.9046
X-1.3745 Y-5.9002
X-1.4756 Y-5.897
X-1.6273 Y-5.8939
X-1.8295 Y-5.8915
X-2.1329 Y-5.89
X-2.7903 Y-5.8892
X-4.105
X-5.2174
X-5.268 Y-5.8888
X-5.318 Y-5.8813
X-5.3658 Y-5.8648
X-5.41 Y-5.8401
X-5.4498 Y-5.809
X-5.485 Y-5.7727
X-5.5158 Y-5.7326
X-5.5425 Y-5.6896
X-5.5653 Y-5.6446
X-5.5849 Y-5.5979
X-5.6015 Y-5.5502
X-5.6156 Y-5.5016
X-5.6275 Y-5.4525
X-5.6376 Y-5.4029
X-5.646 Y-5.353
X-5.6531 Y-5.303
X-5.6591 Y-5.2528
X-5.664 Y-5.2024
X-5.6682 Y-5.152
X-5.6717 Y-5.1016
X-5.6746 Y-5.0511
X-5.677 Y-5.0006
X-5.6808 Y-4.8996
X-5.6834 Y-4.7985
X-5.6858 Y-4.6468
X-5.6876 Y-4.4445
X-5.6887 Y-4.0906
X-5.6892 Y-3.2815
Y-1.3094
X-5.6894 Y-1.006
X-5.6904 Y-0.9049
X-5.6915 Y-0.8544
X-5.6931 Y-0.8038
X-5.6955 Y-0.7533
X-5.6988 Y-0.7028
X-5.7034 Y-0.6525
X-5.7096 Y-0.6023
X-5.7176 Y-0.5524
X-5.728 Y-0.5029
X-5.7409 Y-0.4547
X-5.7547 Y-0.416
X-5.7641 Y-0.3951
X-5.7731 Y-0.3789
X-5.7846 Y-0.3643
X-5.7983 Y-0.3518
X-5.8139 Y-0.3418
X-5.8309 Y-0.3344
X-5.8489 Y-0.3299
X-5.8673 Y-0.3284
X-6.052
G3 X-6.071 Y-0.3328 I0.0017 J-0.05
G1 X-6.0735 Y-0.334 Z-0.3932
X-6.0761 Y-0.3352 Z-0.393
X-6.0786 Y-0.3363 Z-0.3926
X-6.0811 Y-0.3375 Z-0.3921
X-6.0836 Y-0.3386 Z-0.3914
X-6.086 Y-0.3397 Z-0.3905
X-6.0884 Y-0.3408 Z-0.3895
X-6.0907 Y-0.3418 Z-0.3884
X-6.093 Y-0.3429 Z-0.3871
X-6.0952 Y-0.3439 Z-0.3856
X-6.0973 Y-0.3448 Z-0.3841
X-6.0993 Y-0.3458 Z-0.3824
X-6.1013 Y-0.3467 Z-0.3806
X-6.1031 Y-0.3475 Z-0.3787
X-6.1049 Y-0.3483 Z-0.3766
X-6.1065 Y-0.349 Z-0.3745
X-6.1081 Y-0.3497 Z-0.3722
X-6.1095 Y-0.3504 Z-0.3699
X-6.1108 Y-0.351 Z-0.3675
X-6.112 Y-0.3515 Z-0.365
X-6.113 Y-0.352 Z-0.3624
X-6.1139 Y-0.3524 Z-0.3598
X-6.1147 Y-0.3528 Z-0.3571
X-6.1153 Y-0.3531 Z-0.3544
X-6.1158 Y-0.3533 Z-0.3517
X-6.1162 Y-0.3534 Z-0.3489
X-6.1164 Y-0.3535 Z-0.3461
X-6.1165 Y-0.3536 Z-0.3433
G0 Z0.2
X-6.3937 Y0.3595
Z-0.2933
G1 Z-0.3433 F20.
Y0.3594 Z-0.3461
X-6.3935 Y0.3593 Z-0.3489
X-6.3931 Y0.3591 Z-0.3517
X-6.3927 Y0.3588 Z-0.3544
X-6.3921 Y0.3585 Z-0.3571
X-6.3913 Y0.358 Z-0.3598
X-6.3905 Y0.3575 Z-0.3624
X-6.3895 Y0.3569 Z-0.365
X-6.3884 Y0.3563 Z-0.3675
X-6.3872 Y0.3555 Z-0.3699
X-6.3858 Y0.3547 Z-0.3722
X-6.3844 Y0.3539 Z-0.3745
X-6.3828 Y0.353 Z-0.3766
X-6.3812 Y0.352 Z-0.3787
X-6.3794 Y0.3509 Z-0.3806
X-6.3776 Y0.3498 Z-0.3824
X-6.3756 Y0.3487 Z-0.3841
X-6.3736 Y0.3475 Z-0.3856
X-6.3716 Y0.3463 Z-0.3871
X-6.3694 Y0.345 Z-0.3884
X-6.3672 Y0.3437 Z-0.3895
X-6.365 Y0.3423 Z-0.3905
X-6.3627 Y0.341 Z-0.3914
X-6.3603 Y0.3396 Z-0.3921
X-6.358 Y0.3382 Z-0.3926
X-6.3556 Y0.3368 Z-0.393
X-6.3532 Y0.3353 Z-0.3932
X-6.3508 Y0.3339 Z-0.3933
G3 X-6.3319 Y0.3284 I0.0202 J0.034
G1 X-6.1671
X-6.1561 Y0.3289
X-6.1404 Y0.331
X-6.1222 Y0.3349
X-6.1037 Y0.3404
X-6.0822 Y0.3488
X-6.0608 Y0.3592
X-6.0366 Y0.3734
X-6.0124 Y0.3904
X-5.986 Y0.4123
X-5.9586 Y0.4391
X-5.9307 Y0.4711
X-5.9016 Y0.5104
X-5.8749 Y0.5533
X-5.8513 Y0.5981
X-5.8305 Y0.6442
X-5.8122 Y0.6913
X-5.7962 Y0.7393
X-5.7821 Y0.7878
X-5.7698 Y0.8369
X-5.759 Y0.8863
X-5.7496 Y0.9359
X-5.7413 Y0.9858
X-5.7342 Y1.0359
X-5.7279 Y1.0861
X-5.7225 Y1.1363
X-5.7178 Y1.1867
X-5.7138 Y1.2371
X-5.7103 Y1.2875
X-5.7072 Y1.338
X-5.7024 Y1.439
X-5.6988 Y1.5401
X-5.6951 Y1.6917
X-5.6928 Y1.8434
X-5.691 Y2.0457
X-5.6905 Y2.1468
X-5.6894 Y2.6019
X-5.6892 Y4.1189
Y5.2313
X-5.6872 Y5.2819
X-5.6769 Y5.3314
X-5.6578 Y5.3782
X-5.631 Y5.4211
X-5.5982 Y5.4596
X-5.5607 Y5.4935
X-5.5197 Y5.5231
X-5.476 Y5.5486
X-5.4305 Y5.5705
X-5.3835 Y5.5892
X-5.3355 Y5.6051
X-5.2868 Y5.6186
X-5.2375 Y5.63
X-5.1878 Y5.6396
X-5.1379 Y5.6477
X-5.0878 Y5.6545
X-5.0376 Y5.6602
X-4.9872 Y5.665
X-4.9368 Y5.669
X-4.8864 Y5.6723
X-4.8359 Y5.6751
X-4.7348 Y5.6794
X-4.6338 Y5.6824
X-4.4821 Y5.6853
X-4.2798 Y5.6873
X-3.9764 Y5.6886
X-3.1674 Y5.6891
X-3.0663 Y5.6892
X-1.0942
X-0.9425 Y5.6899
X-0.8919 Y5.6906
X-0.8414 Y5.6918
X-0.7908 Y5.6936
X-0.7403 Y5.6962
X-0.6899 Y5.6999
X-0.6396 Y5.7048
X-0.5894 Y5.7113
X-0.5396 Y5.7199
X-0.4902 Y5.7308
X-0.4447 Y5.7439
X-0.4078 Y5.7578
X-0.3953 Y5.7636
X-0.379 Y5.773
X-0.3644 Y5.7849
X-0.3519 Y5.799
X-0.3418 Y5.8148
X-0.3344 Y5.8322
X-0.3299 Y5.8504
X-0.3284 Y5.8692
Y6.0497
G3 X-0.3328 Y6.0687 I-0.05 J-0.0017
G1 X-0.334 Y6.0712 Z-0.3932
X-0.3352 Y6.0738 Z-0.393
X-0.3363 Y6.0763 Z-0.3926
X-0.3375 Y6.0788 Z-0.3921
X-0.3386 Y6.0813 Z-0.3914
X-0.3397 Y6.0837 Z-0.3905
X-0.3408 Y6.0861 Z-0.3895
X-0.3418 Y6.0884 Z-0.3884
X-0.3429 Y6.0907 Z-0.3871
X-0.3439 Y6.0929 Z-0.3856
X-0.3448 Y6.095 Z-0.3841
X-0.3458 Y6.097 Z-0.3824
X-0.3467 Y6.099 Z-0.3806
X-0.3475 Y6.1008 Z-0.3787
X-0.3483 Y6.1026 Z-0.3766
X-0.349 Y6.1042 Z-0.3745
X-0.3497 Y6.1058 Z-0.3722
X-0.3504 Y6.1072 Z-0.3699
X-0.351 Y6.1085 Z-0.3675
X-0.3515 Y6.1097 Z-0.365
X-0.352 Y6.1107 Z-0.3624
X-0.3524 Y6.1116 Z-0.3598
X-0.3528 Y6.1124 Z-0.3571
X-0.3531 Y6.113 Z-0.3544
X-0.3533 Y6.1135 Z-0.3517
X-0.3534 Y6.1139 Z-0.3489
X-0.3535 Y6.1141 Z-0.3461
X-0.3536 Y6.1142 Z-0.3433
G0 Z0.2
X0.3595 Y6.3937
Z-0.2933
G1 Z-0.3433 F20.
X0.3594 Z-0.3461
X0.3593 Y6.3935 Z-0.3489
X0.3591 Y6.3931 Z-0.3517
X0.3588 Y6.3927 Z-0.3544
X0.3585 Y6.3921 Z-0.3571
X0.358 Y6.3913 Z-0.3598
X0.3575 Y6.3905 Z-0.3624
X0.3569 Y6.3895 Z-0.365
X0.3563 Y6.3884 Z-0.3675
X0.3555 Y6.3872 Z-0.3699
X0.3547 Y6.3858 Z-0.3722
X0.3539 Y6.3844 Z-0.3745
X0.353 Y6.3828 Z-0.3766
X0.352 Y6.3812 Z-0.3787
X0.3509 Y6.3794 Z-0.3806
X0.3498 Y6.3776 Z-0.3824
X0.3487 Y6.3756 Z-0.3841
X0.3475 Y6.3736 Z-0.3856
X0.3463 Y6.3716 Z-0.3871
X0.345 Y6.3694 Z-0.3884
X0.3437 Y6.3672 Z-0.3895
X0.3423 Y6.365 Z-0.3905
X0.341 Y6.3627 Z-0.3914
X0.3396 Y6.3603 Z-0.3921
X0.3382 Y6.358 Z-0.3926
X0.3368 Y6.3556 Z-0.393
X0.3353 Y6.3532 Z-0.3932
X0.3339 Y6.3508 Z-0.3933
G3 X0.3284 Y6.3319 I0.034 J-0.0202
G1 Y6.1671
X0.3289 Y6.1561
X0.331 Y6.1404
X0.3349 Y6.1222
X0.3404 Y6.1037
X0.3488 Y6.0822
X0.3592 Y6.0608
X0.3734 Y6.0366
X0.3904 Y6.0124
X0.4123 Y5.986
X0.4391 Y5.9586
X0.4711 Y5.9307
X0.5104 Y5.9016
X0.5533 Y5.8749
X0.5981 Y5.8513
X0.6442 Y5.8305
X0.6913 Y5.8122
X0.7393 Y5.7962
X0.7878 Y5.7821
X0.8369 Y5.7698
X0.8863 Y5.759
X0.9359 Y5.7496
X0.9858 Y5.7413
X1.0359 Y5.7342
X1.0861 Y5.7279
X1.1363 Y5.7225
X1.1867 Y5.7178
X1.2371 Y5.7138
X1.2875 Y5.7103
X1.338 Y5.7072
X1.439 Y5.7024
X1.5401 Y5.6988
X1.6917 Y5.6951
X1.8434 Y5.6928
X2.0457 Y5.691
X2.1468 Y5.6905
X2.6019 Y5.6894
X4.1189 Y5.6892
X5.2313
X5.2819 Y5.6871
X5.3314 Y5.6769
X5.3782 Y5.6578
X5.4211 Y5.631
X5.4596 Y5.5982
X5.4935 Y5.5607
X5.523 Y5.5197
X5.5486 Y5.476
X5.5705 Y5.4305
X5.5892 Y5.3835
X5.6051 Y5.3355
X5.6186 Y5.2867
X5.63 Y5.2375
X5.6396 Y5.1878
X5.6477 Y5.1379
X5.6545 Y5.0878
X5.6602 Y5.0376
X5.665 Y4.9872
X5.669 Y4.9368
X5.6723 Y4.8864
X5.6751 Y4.8359
X5.6794 Y4.7348
X5.6824 Y4.6337
X5.6853 Y4.4821
X5.6873 Y4.2798
X5.6886 Y3.9764
X5.6891 Y3.1674
X5.6892 Y3.0662
Y1.0942
X5.6899 Y0.9425
X5.6906 Y0.8919
X5.6918 Y0.8414
X5.6936 Y0.7908
X5.6962 Y0.7403
X5.6999 Y0.6899
X5.7048 Y0.6396
X5.7113 Y0.5894
X5.7199 Y0.5396
X5.7308 Y0.4902
X5.7439 Y0.4447
X5.7578 Y0.4078
X5.7636 Y0.3953
X5.773 Y0.379
X5.7849 Y0.3644
X5.799 Y0.3519
X5.8148 Y0.3418
X5.8321 Y0.3344
X5.8504 Y0.3299
X5.8692 Y0.3284
X6.0497
G3 X6.0687 Y0.3328 I-0.0017 J0.05
G1 X6.0712 Y0.334 Z-0.3932
X6.0737 Y0.3352 Z-0.393
X6.0763 Y0.3363 Z-0.3926
X6.0788 Y0.3375 Z-0.3921
X6.0813 Y0.3386 Z-0.3914
X6.0837 Y0.3397 Z-0.3905
X6.0861 Y0.3408 Z-0.3895
X6.0884 Y0.3418 Z-0.3884
X6.0907 Y0.3429 Z-0.3871
X6.0929 Y0.3439 Z-0.3856
X6.095 Y0.3448 Z-0.3841
X6.097 Y0.3458 Z-0.3824
X6.099 Y0.3467 Z-0.3806
X6.1008 Y0.3475 Z-0.3787
X6.1026 Y0.3483 Z-0.3766
X6.1042 Y0.349 Z-0.3745
X6.1058 Y0.3497 Z-0.3722
X6.1072 Y0.3504 Z-0.3699
X6.1085 Y0.351 Z-0.3675
X6.1096 Y0.3515 Z-0.365
X6.1107 Y0.352 Z-0.3624
X6.1116 Y0.3524 Z-0.3598
X6.1124 Y0.3528 Z-0.3571
X6.113 Y0.3531 Z-0.3544
X6.1135 Y0.3533 Z-0.3517
X6.1139 Y0.3534 Z-0.3489
X6.1141 Y0.3535 Z-0.3461
X6.1142 Y0.3536 Z-0.3433
G0 Z0.2
X6.3937 Y-0.3595
Z-0.2933
G1 Z-0.3433 F20.
Y-0.3594 Z-0.3461
X6.3935 Y-0.3593 Z-0.3489
X6.3931 Y-0.3591 Z-0.3517
X6.3927 Y-0.3588 Z-0.3544
X6.3921 Y-0.3585 Z-0.3571
X6.3913 Y-0.358 Z-0.3598
X6.3905 Y-0.3575 Z-0.3624
X6.3895 Y-0.3569 Z-0.365
X6.3884 Y-0.3563 Z-0.3675
X6.3872 Y-0.3555 Z-0.3699
X6.3858 Y-0.3547 Z-0.3722
X6.3844 Y-0.3539 Z-0.3745
X6.3828 Y-0.353 Z-0.3766
X6.3812 Y-0.352 Z-0.3787
X6.3794 Y-0.3509 Z-0.3806
X6.3776 Y-0.3498 Z-0.3824
X6.3756 Y-0.3487 Z-0.3841
X6.3736 Y-0.3475 Z-0.3856
X6.3716 Y-0.3463 Z-0.3871
X6.3694 Y-0.345 Z-0.3884
X6.3672 Y-0.3437 Z-0.3895
X6.365 Y-0.3423 Z-0.3905
X6.3627 Y-0.341 Z-0.3914
X6.3603 Y-0.3396 Z-0.3921
X6.358 Y-0.3382 Z-0.3926
X6.3556 Y-0.3368 Z-0.393
X6.3532 Y-0.3353 Z-0.3932
X6.3508 Y-0.3339 Z-0.3933
G3 X6.3319 Y-0.3284 I-0.0202 J-0.034
G1 X6.1671
X6.1561 Y-0.3289
X6.1404 Y-0.331
X6.1222 Y-0.3349
X6.1037 Y-0.3404
X6.0822 Y-0.3488
X6.0608 Y-0.3592
X6.0366 Y-0.3734
X6.0124 Y-0.3904
X5.986 Y-0.4123
X5.9586 Y-0.4391
X5.9307 Y-0.4711
X5.9016 Y-0.5104
X5.8749 Y-0.5533
X5.8513 Y-0.5981
X5.8305 Y-0.6442
X5.8122 Y-0.6913
X5.7962 Y-0.7393
X5.7821 Y-0.7878
X5.7698 Y-0.8369
X5.759 Y-0.8863
X5.7496 Y-0.9359
X5.7413 Y-0.9858
X5.7342 Y-1.0359
X5.7279 Y-1.0861
X5.7225 Y-1.1363
X5.7178 Y-1.1867
X5.7138 Y-1.2371
X5.7103 Y-1.2875
X5.7072 Y-1.338
X5.7024 Y-1.439
X5.6988 Y-1.5401
X5.6951 Y-1.6917
X5.6928 Y-1.8434
X5.691 Y-2.0457
X5.6905 Y-2.1468
X5.6894 Y-2.6019
X5.6892 Y-4.1189
Y-5.2313
X5.6871 Y-5.2819
X5.6769 Y-5.3314
X5.6578 Y-5.3782
X5.631 Y-5.4211
X5.5982 Y-5.4596
X5.5607 Y-5.4935
X5.5197 Y-5.523
X5.476 Y-5.5486
X5.4305 Y-5.5705
X5.3835 Y-5.5892
X5.3355 Y-5.6051
X5.2867 Y-5.6186
X5.2375 Y-5.63
X5.1878 Y-5.6396
X5.1379 Y-5.6477
X5.0878 Y-5.6545
X5.0376 Y-5.6602
X4.9872 Y-5.665
X4.9368 Y-5.669
X4.8864 Y-5.6723
X4.8359 Y-5.6751
X4.7348 Y-5.6794
X4.6338 Y-5.6824
X4.4821 Y-5.6853
X4.2798 Y-5.6873
X3.9764 Y-5.6886
X3.1674 Y-5.6891
X3.0662 Y-5.6892
X1.0942
X0.9425 Y-5.6899
X0.8919 Y-5.6906
X0.8414 Y-5.6918
X0.7908 Y-5.6936
X0.7403 Y-5.6962
X0.6899 Y-5.6999
X0.6396 Y-5.7048
X0.5894 Y-5.7113
X0.5396 Y-5.7199
X0.4902 Y-5.7308
X0.4447 Y-5.7439
X0.4078 Y-5.7578
X0.3953 Y-5.7636
X0.379 Y-5.773
X0.3644 Y-5.7849
X0.3519 Y-5.799
X0.3418 Y-5.8148
X0.3344 Y-5.8321
X0.3299 Y-5.8504
X0.3284 Y-5.8692
Y-6.0497
G3 X0.3328 Y-6.0687 I0.05 J0.0017
G1 X0.334 Y-6.0712 Z-0.3932
X0.3352 Y-6.0738 Z-0.393
X0.3363 Y-6.0763 Z-0.3926
X0.3375 Y-6.0788 Z-0.3921
X0.3386 Y-6.0813 Z-0.3914
X0.3397 Y-6.0837 Z-0.3905
X0.3408 Y-6.0861 Z-0.3895
X0.3418 Y-6.0884 Z-0.3884
X0.3429 Y-6.0907 Z-0.3871
X0.3439 Y-6.0929 Z-0.3856
X0.3448 Y-6.095 Z-0.3841
X0.3458 Y-6.097 Z-0.3824
X0.3467 Y-6.099 Z-0.3806
X0.3475 Y-6.1008 Z-0.3787
X0.3483 Y-6.1026 Z-0.3766
X0.349 Y-6.1042 Z-0.3745
X0.3497 Y-6.1058 Z-0.3722
X0.3504 Y-6.1072 Z-0.3699
X0.351 Y-6.1085 Z-0.3675
X0.3515 Y-6.1097 Z-0.365
X0.352 Y-6.1107 Z-0.3624
X0.3524 Y-6.1116 Z-0.3598
X0.3528 Y-6.1124 Z-0.3571
X0.3531 Y-6.113 Z-0.3544
X0.3533 Y-6.1135 Z-0.3517
X0.3534 Y-6.1139 Z-0.3489
X0.3535 Y-6.1141 Z-0.3461
X0.3536 Y-6.1142 Z-0.3433
G0 Z0.2
X-0.3595 Y-6.3937
Z-0.2933
G1 Z-0.3433 F20.
X-0.3594 Z-0.3461
X-0.3593 Y-6.3935 Z-0.3489
X-0.3591 Y-6.3931 Z-0.3517
X-0.3588 Y-6.3927 Z-0.3544
X-0.3585 Y-6.3921 Z-0.3571
X-0.358 Y-6.3913 Z-0.3598
X-0.3575 Y-6.3905 Z-0.3624
X-0.3569 Y-6.3895 Z-0.365
X-0.3563 Y-6.3884 Z-0.3675
X-0.3555 Y-6.3872 Z-0.3699
X-0.3547 Y-6.3858 Z-0.3722
X-0.3539 Y-6.3844 Z-0.3745
X-0.353 Y-6.3828 Z-0.3766
X-0.352 Y-6.3812 Z-0.3787
X-0.3509 Y-6.3794 Z-0.3806
X-0.3498 Y-6.3776 Z-0.3824
X-0.3487 Y-6.3756 Z-0.3841
X-0.3475 Y-6.3736 Z-0.3856
X-0.3463 Y-6.3716 Z-0.3871
X-0.345 Y-6.3694 Z-0.3884
X-0.3437 Y-6.3672 Z-0.3895
X-0.3423 Y-6.365 Z-0.3905
X-0.341 Y-6.3627 Z-0.3914
X-0.3396 Y-6.3603 Z-0.3921
X-0.3382 Y-6.358 Z-0.3926
X-0.3368 Y-6.3556 Z-0.393
X-0.3353 Y-6.3532 Z-0.3932
X-0.3339 Y-6.3508 Z-0.3933
G3 X-0.3284 Y-6.3319 I-0.034 J0.0202
G1 Y-6.1671
X-0.3289 Y-6.1561
X-0.331 Y-6.1404
X-0.3349 Y-6.1222
X-0.3404 Y-6.1037
X-0.3488 Y-6.0822
X-0.3592 Y-6.0608
X-0.3734 Y-6.0366
X-0.3904 Y-6.0124
X-0.4123 Y-5.986
X-0.4391 Y-5.9586
X-0.4711 Y-5.9307
X-0.5104 Y-5.9016
X-0.5533 Y-5.8749
X-0.5981 Y-5.8513
X-0.6442 Y-5.8305
X-0.6913 Y-5.8122
X-0.7393 Y-5.7962
X-0.7878 Y-5.7821
X-0.8369 Y-5.7698
X-0.8863 Y-5.759
X-0.9359 Y-5.7496
X-0.9858 Y-5.7413
X-1.0359 Y-5.7342
X-1.0861 Y-5.7279
X-1.1363 Y-5.7225
X-1.1867 Y-5.7178
X-1.2371 Y-5.7138
X-1.2875 Y-5.7103
X-1.338 Y-5.7072
X-1.439 Y-5.7024
X-1.5401 Y-5.6988
X-1.6917 Y-5.6951
X-1.8434 Y-5.6928
X-2.0457 Y-5.691
X-2.1468 Y-5.6905
X-2.6019 Y-5.6894
X-4.1189 Y-5.6892
X-5.0291
X-5.0796 Y-5.6874
X-5.1292 Y-5.6774
X-5.1761 Y-5.6587
X-5.2192 Y-5.6322
X-5.2579 Y-5.5996
X-5.292 Y-5.5622
X-5.3217 Y-5.5213
X-5.3474 Y-5.4778
X-5.3695 Y-5.4323
X-5.3883 Y-5.3854
X-5.4044 Y-5.3374
X-5.418 Y-5.2887
X-5.4294 Y-5.2395
X-5.4391 Y-5.1898
X-5.4473 Y-5.1399
X-5.4541 Y-5.0898
X-5.4599 Y-5.0396
X-5.4647 Y-4.9893
X-5.4687 Y-4.9389
X-5.4721 Y-4.8884
X-5.4749 Y-4.8379
X-5.4793 Y-4.7369
X-5.4823 Y-4.6358
X-5.4852 Y-4.4841
X-5.4873 Y-4.2819
X-5.4885 Y-3.9785
X-5.4891 Y-3.1694
X-5.4892 Y-2.866
X-5.4894 Y-1.1468
X-5.49 Y-1.0457
X-5.4916 Y-0.9445
X-5.4931 Y-0.894
X-5.4951 Y-0.8435
X-5.4978 Y-0.793
X-5.5015 Y-0.7425
X-5.5061 Y-0.6922
X-5.5121 Y-0.642
X-5.5195 Y-0.592
X-5.5289 Y-0.5423
X-5.5404 Y-0.493
X-5.5545 Y-0.4461
X-5.569 Y-0.4086
X-5.576 Y-0.3942
X-5.5854 Y-0.3781
X-5.5973 Y-0.3638
X-5.6113 Y-0.3515
X-5.6271 Y-0.3416
X-5.6443 Y-0.3343
X-5.6624 Y-0.3299
X-5.681 Y-0.3284
X-5.8673
G3 X-5.8863 Y-0.3328 I0.0017 J-0.05
G1 X-5.8889 Y-0.334 Z-0.3932
X-5.8914 Y-0.3352 Z-0.393
X-5.8939 Y-0.3363 Z-0.3926
X-5.8964 Y-0.3375 Z-0.3921
X-5.8989 Y-0.3386 Z-0.3914
X-5.9014 Y-0.3397 Z-0.3905
X-5.9037 Y-0.3408 Z-0.3895
X-5.9061 Y-0.3418 Z-0.3884
X-5.9083 Y-0.3429 Z-0.3871
X-5.9105 Y-0.3439 Z-0.3856
X-5.9127 Y-0.3448 Z-0.3841
X-5.9147 Y-0.3458 Z-0.3824
X-5.9166 Y-0.3467 Z-0.3806
X-5.9185 Y-0.3475 Z-0.3787
X-5.9202 Y-0.3483 Z-0.3766
X-5.9219 Y-0.349 Z-0.3745
X-5.9234 Y-0.3497 Z-0.3722
X-5.9248 Y-0.3504 Z-0.3699
X-5.9261 Y-0.351 Z-0.3675
X-5.9273 Y-0.3515 Z-0.365
X-5.9284 Y-0.352 Z-0.3624
X-5.9293 Y-0.3524 Z-0.3598
X-5.93 Y-0.3528 Z-0.3571
X-5.9307 Y-0.3531 Z-0.3544
X-5.9312 Y-0.3533 Z-0.3517
X-5.9315 Y-0.3534 Z-0.3489
X-5.9318 Y-0.3535 Z-0.3461
Y-0.3536 Z-0.3433
G0 Z0.2
X-6.2289 Y0.3595
Z-0.2933
G1 Z-0.3433 F20.
X-6.2288 Y0.3594 Z-0.3461
X-6.2286 Y0.3593 Z-0.3489
X-6.2283 Y0.3591 Z-0.3517
X-6.2278 Y0.3588 Z-0.3544
X-6.2272 Y0.3585 Z-0.3571
X-6.2265 Y0.358 Z-0.3598
X-6.2256 Y0.3575 Z-0.3624
X-6.2246 Y0.3569 Z-0.365
X-6.2235 Y0.3563 Z-0.3675
X-6.2223 Y0.3555 Z-0.3699
X-6.221 Y0.3547 Z-0.3722
X-6.2195 Y0.3539 Z-0.3745
X-6.218 Y0.353 Z-0.3766
X-6.2163 Y0.352 Z-0.3787
X-6.2145 Y0.3509 Z-0.3806
X-6.2127 Y0.3498 Z-0.3824
X-6.2108 Y0.3487 Z-0.3841
X-6.2088 Y0.3475 Z-0.3856
X-6.2067 Y0.3463 Z-0.3871
X-6.2046 Y0.345 Z-0.3884
X-6.2024 Y0.3437 Z-0.3895
X-6.2001 Y0.3423 Z-0.3905
X-6.1978 Y0.341 Z-0.3914
X-6.1955 Y0.3396 Z-0.3921
X-6.1931 Y0.3382 Z-0.3926
X-6.1907 Y0.3368 Z-0.393
X-6.1883 Y0.3353 Z-0.3932
X-6.1859 Y0.3339 Z-0.3933
G3 X-6.1671 Y0.3284 I0.0202 J0.034
G1 X-6.0022
X-5.9877 Y0.3291
X-5.9714 Y0.3312
X-5.9526 Y0.3353
X-5.9324 Y0.3413
X-5.9108 Y0.3497
X-5.8872 Y0.3612
X-5.8624 Y0.3758
X-5.8362 Y0.3942
X-5.808 Y0.4176
X-5.7792 Y0.4457
X-5.7493 Y0.48
X-5.7192 Y0.5207
X-5.6923 Y0.5635
X-5.6684 Y0.6081
X-5.6471 Y0.6539
X-5.6282 Y0.7008
X-5.6114 Y0.7485
X-5.5965 Y0.7968
X-5.5833 Y0.8456
X-5.5716 Y0.8948
X-5.5612 Y0.9443
X-5.5521 Y0.9941
X-5.5441 Y1.044
X-5.537 Y1.0941
X-5.5308 Y1.1442
X-5.5253 Y1.1945
X-5.5206 Y1.2448
X-5.5164 Y1.2952
X-5.5127 Y1.3457
X-5.5095 Y1.3961
X-5.5043 Y1.4971
X-5.5004 Y1.5982
X-5.4975 Y1.6993
X-5.4944 Y1.8509
X-5.4919 Y2.0532
X-5.4915 Y2.1038
X-5.4901 Y2.4072
X-5.4893 Y3.0645
X-5.4892 Y4.0758
X-5.4891 Y5.0366
X-5.4861 Y5.0871
X-5.4746 Y5.1363
X-5.4544 Y5.1827
X-5.4268 Y5.225
X-5.3933 Y5.263
X-5.3554 Y5.2964
X-5.314 Y5.3254
X-5.2701 Y5.3506
X-5.2244 Y5.3721
X-5.1773 Y5.3905
X-5.1292 Y5.4062
X-5.0804 Y5.4195
X-5.0311 Y5.4307
X-4.9814 Y5.4401
X-4.9315 Y5.4481
X-4.8814 Y5.4548
X-4.8311 Y5.4604
X-4.7808 Y5.4651
X-4.7304 Y5.4691
X-4.6799 Y5.4724
X-4.6294 Y5.4752
X-4.5284 Y5.4794
X-4.4273 Y5.4824
X-4.2756 Y5.4852
X-4.0734 Y5.4873
X-3.77 Y5.4885
X-2.9609 Y5.4891
X-2.7081 Y5.4892
X-1.1405 Y5.4894
X-1.0394 Y5.49
X-0.9383 Y5.4918
X-0.8878 Y5.4933
X-0.8372 Y5.4954
X-0.7867 Y5.4982
X-0.7363 Y5.5019
X-0.686 Y5.5067
X-0.6358 Y5.5128
X-0.5858 Y5.5205
X-0.5361 Y5.53
X-0.487 Y5.5419
X-0.4418 Y5.5558
X-0.4052 Y5.5704
X-0.3932 Y5.5764
X-0.3773 Y5.5859
X-0.3632 Y5.5978
X-0.3511 Y5.6118
X-0.3413 Y5.6275
X-0.3342 Y5.6445
X-0.3298 Y5.6625
X-0.3284 Y5.6809
Y5.8692
G3 X-0.3328 Y5.8882 I-0.05 J-0.0017
G1 X-0.334 Y5.8907 Z-0.3932
X-0.3352 Y5.8933 Z-0.393
X-0.3363 Y5.8958 Z-0.3926
X-0.3375 Y5.8983 Z-0.3921
X-0.3386 Y5.9008 Z-0.3914
X-0.3397 Y5.9032 Z-0.3905
X-0.3408 Y5.9056 Z-0.3895
X-0.3418 Y5.9079 Z-0.3884
X-0.3429 Y5.9102 Z-0.3871
X-0.3439 Y5.9124 Z-0.3856
X-0.3448 Y5.9145 Z-0.3841
X-0.3458 Y5.9165 Z-0.3824
X-0.3467 Y5.9185 Z-0.3806
X-0.3475 Y5.9203 Z-0.3787
X-0.3483 Y5.9221 Z-0.3766
X-0.349 Y5.9237 Z-0.3745
X-0.3497 Y5.9253 Z-0.3722
X-0.3504 Y5.9267 Z-0.3699
X-0.351 Y5.928 Z-0.3675
X-0.3515 Y5.9292 Z-0.365
X-0.352 Y5.9302 Z-0.3624
X-0.3524 Y5.9311 Z-0.3598
X-0.3528 Y5.9319 Z-0.3571
X-0.3531 Y5.9325 Z-0.3544
X-0.3533 Y5.933 Z-0.3517
X-0.3534 Y5.9334 Z-0.3489
X-0.3535 Y5.9336 Z-0.3461
X-0.3536 Y5.9337 Z-0.3433
G0 Z0.2
X0.3595 Y6.2289
Z-0.2933
G1 Z-0.3433 F20.
X0.3594 Y6.2288 Z-0.3461
X0.3593 Y6.2286 Z-0.3489
X0.3591 Y6.2283 Z-0.3517
X0.3588 Y6.2278 Z-0.3544
X0.3585 Y6.2272 Z-0.3571
X0.358 Y6.2265 Z-0.3598
X0.3575 Y6.2256 Z-0.3624
X0.3569 Y6.2246 Z-0.365
X0.3563 Y6.2235 Z-0.3675
X0.3555 Y6.2223 Z-0.3699
X0.3547 Y6.221 Z-0.3722
X0.3539 Y6.2195 Z-0.3745
X0.353 Y6.218 Z-0.3766
X0.352 Y6.2163 Z-0.3787
X0.3509 Y6.2145 Z-0.3806
X0.3498 Y6.2127 Z-0.3824
X0.3487 Y6.2108 Z-0.3841
X0.3475 Y6.2088 Z-0.3856
X0.3463 Y6.2067 Z-0.3871
X0.345 Y6.2046 Z-0.3884
X0.3437 Y6.2024 Z-0.3895
X0.3423 Y6.2001 Z-0.3905
X0.341 Y6.1978 Z-0.3914
X0.3396 Y6.1955 Z-0.3921
X0.3382 Y6.1931 Z-0.3926
X0.3368 Y6.1907 Z-0.393
X0.3353 Y6.1883 Z-0.3932
X0.3339 Y6.1859 Z-0.3933
G3 X0.3284 Y6.1671 I0.034 J-0.0202
G1 Y6.0022
X0.3291 Y5.9877
X0.3312 Y5.9714
X0.3353 Y5.9526
X0.3413 Y5.9324
X0.3497 Y5.9108
X0.3612 Y5.8872
X0.3758 Y5.8624
X0.3942 Y5.8362
X0.4176 Y5.808
X0.4457 Y5.7792
X0.48 Y5.7493
X0.5207 Y5.7192
X0.5635 Y5.6923
X0.6081 Y5.6684
X0.6539 Y5.6471
X0.7008 Y5.6282
X0.7485 Y5.6114
X0.7968 Y5.5965
X0.8456 Y5.5833
X0.8948 Y5.5716
X0.9443 Y5.5612
X0.9941 Y5.5521
X1.044 Y5.5441
X1.0941 Y5.537
X1.1442 Y5.5308
X1.1945 Y5.5253
X1.2448 Y5.5206
X1.2952 Y5.5164
X1.3457 Y5.5127
X1.3961 Y5.5095
X1.4971 Y5.5043
X1.5982 Y5.5004
X1.6993 Y5.4975
X1.8509 Y5.4944
X2.0532 Y5.4919
X2.1038 Y5.4915
X2.4072 Y5.4901
X3.0645 Y5.4893
X4.0758 Y5.4892
X5.0366 Y5.4891
X5.0871 Y5.4861
X5.1363 Y5.4746
X5.1827 Y5.4544
X5.225 Y5.4268
X5.263 Y5.3933
X5.2964 Y5.3554
X5.3254 Y5.314
X5.3506 Y5.2701
X5.3721 Y5.2244
X5.3905 Y5.1773
X5.4062 Y5.1292
X5.4194 Y5.0804
X5.4307 Y5.0311
X5.4401 Y4.9814
X5.4481 Y4.9315
X5.4548 Y4.8814
X5.4604 Y4.8311
X5.4651 Y4.7808
X5.4691 Y4.7304
X5.4724 Y4.6799
X5.4752 Y4.6294
X5.4794 Y4.5284
X5.4824 Y4.4273
X5.4852 Y4.2756
X5.4873 Y4.0734
X5.4885 Y3.77
X5.4891 Y2.9609
X5.4892 Y2.7081
X5.4894 Y1.1405
X5.49 Y1.0394
X5.4918 Y0.9383
X5.4933 Y0.8877
X5.4954 Y0.8372
X5.4982 Y0.7867
X5.5019 Y0.7363
X5.5067 Y0.686
X5.5128 Y0.6358
X5.5205 Y0.5858
X5.53 Y0.5361
X5.5419 Y0.487
X5.5558 Y0.4418
X5.5704 Y0.4052
X5.5764 Y0.3932
X5.5859 Y0.3773
X5.5978 Y0.3632
X5.6118 Y0.3511
X5.6275 Y0.3413
X5.6445 Y0.3342
X5.6625 Y0.3298
X5.6809 Y0.3284
X5.8692
G3 X5.8882 Y0.3328 I-0.0017 J0.05
G1 X5.8907 Y0.334 Z-0.3932
X5.8933 Y0.3352 Z-0.393
X5.8958 Y0.3363 Z-0.3926
X5.8983 Y0.3375 Z-0.3921
X5.9008 Y0.3386 Z-0.3914
X5.9032 Y0.3397 Z-0.3905
X5.9056 Y0.3408 Z-0.3895
X5.9079 Y0.3418 Z-0.3884
X5.9102 Y0.3429 Z-0.3871
X5.9124 Y0.3439 Z-0.3856
X5.9145 Y0.3448 Z-0.3841
X5.9165 Y0.3458 Z-0.3824
X5.9185 Y0.3467 Z-0.3806
X5.9203 Y0.3475 Z-0.3787
X5.9221 Y0.3483 Z-0.3766
X5.9237 Y0.349 Z-0.3745
X5.9253 Y0.3497 Z-0.3722
X5.9267 Y0.3504 Z-0.3699
X5.928 Y0.351 Z-0.3675
X5.9292 Y0.3515 Z-0.365
X5.9302 Y0.352 Z-0.3624
X5.9311 Y0.3524 Z-0.3598
X5.9319 Y0.3528 Z-0.3571
X5.9325 Y0.3531 Z-0.3544
X5.933 Y0.3533 Z-0.3517
X5.9334 Y0.3534 Z-0.3489
X5.9336 Y0.3535 Z-0.3461
X5.9337 Y0.3536 Z-0.3433
G0 Z0.2
X6.2289 Y-0.3595
Z-0.2933
G1 Z-0.3433 F20.
X6.2288 Y-0.3594 Z-0.3461
X6.2286 Y-0.3593 Z-0.3489
X6.2283 Y-0.3591 Z-0.3517
X6.2278 Y-0.3588 Z-0.3544
X6.2272 Y-0.3585 Z-0.3571
X6.2265 Y-0.358 Z-0.3598
X6.2256 Y-0.3575 Z-0.3624
X6.2246 Y-0.3569 Z-0.365
X6.2235 Y-0.3563 Z-0.3675
X6.2223 Y-0.3555 Z-0.3699
X6.221 Y-0.3547 Z-0.3722
X6.2195 Y-0.3539 Z-0.3745
X6.218 Y-0.353 Z-0.3766
X6.2163 Y-0.352 Z-0.3787
X6.2145 Y-0.3509 Z-0.3806
X6.2127 Y-0.3498 Z-0.3824
X6.2108 Y-0.3487 Z-0.3841
X6.2088 Y-0.3475 Z-0.3856
X6.2067 Y-0.3463 Z-0.3871
X6.2046 Y-0.345 Z-0.3884
X6.2024 Y-0.3437 Z-0.3895
X6.2001 Y-0.3423 Z-0.3905
X6.1978 Y-0.341 Z-0.3914
X6.1955 Y-0.3396 Z-0.3921
X6.1931 Y-0.3382 Z-0.3926
X6.1907 Y-0.3368 Z-0.393
X6.1883 Y-0.3353 Z-0.3932
X6.1859 Y-0.3339 Z-0.3933
G3 X6.1671 Y-0.3284 I-0.0202 J-0.034
G1 X6.0022
X5.9877 Y-0.3291
X5.9714 Y-0.3312
X5.9526 Y-0.3353
X5.9324 Y-0.3413
X5.9108 Y-0.3497
X5.8872 Y-0.3612
X5.8624 Y-0.3758
X5.8362 Y-0.3942
X5.808 Y-0.4176
X5.7792 Y-0.4457
X5.7493 Y-0.48
X5.7192 Y-0.5207
X5.6923 Y-0.5635
X5.6684 Y-0.6081
X5.6471 Y-0.6539
X5.6282 Y-0.7008
X5.6114 Y-0.7485
X5.5965 Y-0.7968
X5.5833 Y-0.8456
X5.5716 Y-0.8948
X5.5612 Y-0.9443
X5.5521 Y-0.9941
X5.5441 Y-1.044
X5.537 Y-1.0941
X5.5308 Y-1.1442
X5.5253 Y-1.1945
X5.5206 Y-1.2448
X5.5164 Y-1.2952
X5.5127 Y-1.3457
X5.5095 Y-1.3961
X5.5043 Y-1.4971
X5.5004 Y-1.5982
X5.4975 Y-1.6993
X5.4944 Y-1.8509
X5.4919 Y-2.0532
X5.4915 Y-2.1038
X5.4901 Y-2.4072
X5.4893 Y-3.0645
X5.4892 Y-4.0758
X5.4891 Y-5.0366
X5.4861 Y-5.0871
X5.4746 Y-5.1363
X5.4544 Y-5.1827
X5.4268 Y-5.225
X5.3933 Y-5.263
X5.3554 Y-5.2964
X5.314 Y-5.3254
X5.2701 Y-5.3506
X5.2244 Y-5.3721
X5.1773 Y-5.3905
X5.1292 Y-5.4062
X5.0804 Y-5.4194
X5.0311 Y-5.4307
X4.9814 Y-5.4401
X4.9315 Y-5.4481
X4.8814 Y-5.4548
X4.8311 Y-5.4604
X4.7808 Y-5.4651
X4.7304 Y-5.4691
X4.6799 Y-5.4724
X4.6294 Y-5.4752
X4.5284 Y-5.4794
X4.4273 Y-5.4824
X4.2756 Y-5.4852
X4.0734 Y-5.4873
X3.77 Y-5.4885
X2.9609 Y-5.4891
X2.7081 Y-5.4892
X1.1405 Y-5.4894
X1.0394 Y-5.49
X0.9383 Y-5.4918
X0.8877 Y-5.4933
X0.8372 Y-5.4954
X0.7867 Y-5.4982
X0.7363 Y-5.5019
X0.686 Y-5.5067
X0.6358 Y-5.5128
X0.5858 Y-5.5205
X0.5361 Y-5.53
X0.487 Y-5.5419
X0.4418 Y-5.5558
X0.4052 Y-5.5704
X0.3932 Y-5.5764
X0.3773 Y-5.5859
X0.3632 Y-5.5978
X0.3511 Y-5.6118
X0.3413 Y-5.6275
X0.3342 Y-5.6445
X0.3298 Y-5.6625
X0.3284 Y-5.6809
Y-5.8692
G3 X0.3328 Y-5.8882 I0.05 J0.0017
G1 X0.334 Y-5.8907 Z-0.3932
X0.3352 Y-5.8933 Z-0.393
X0.3363 Y-5.8958 Z-0.3926
X0.3375 Y-5.8983 Z-0.3921
X0.3386 Y-5.9008 Z-0.3914
X0.3397 Y-5.9032 Z-0.3905
X0.3408 Y-5.9056 Z-0.3895
X0.3418 Y-5.9079 Z-0.3884
X0.3429 Y-5.9102 Z-0.3871
X0.3439 Y-5.9124 Z-0.3856
X0.3448 Y-5.9145 Z-0.3841
X0.3458 Y-5.9165 Z-0.3824
X0.3467 Y-5.9185 Z-0.3806
X0.3475 Y-5.9203 Z-0.3787
X0.3483 Y-5.9221 Z-0.3766
X0.349 Y-5.9237 Z-0.3745
X0.3497 Y-5.9253 Z-0.3722
X0.3504 Y-5.9267 Z-0.3699
X0.351 Y-5.928 Z-0.3675
X0.3515 Y-5.9292 Z-0.365
X0.352 Y-5.9302 Z-0.3624
X0.3524 Y-5.9311 Z-0.3598
X0.3528 Y-5.9319 Z-0.3571
X0.3531 Y-5.9325 Z-0.3544
X0.3533 Y-5.933 Z-0.3517
X0.3534 Y-5.9334 Z-0.3489
X0.3535 Y-5.9336 Z-0.3461
X0.3536 Y-5.9337 Z-0.3433
G0 Z0.2
X-0.3595 Y-6.2289
Z-0.2933
G1 Z-0.3433 F20.
X-0.3594 Y-6.2288 Z-0.3461
X-0.3593 Y-6.2286 Z-0.3489
X-0.3591 Y-6.2283 Z-0.3517
X-0.3588 Y-6.2278 Z-0.3544
X-0.3585 Y-6.2272 Z-0.3571
X-0.358 Y-6.2265 Z-0.3598
X-0.3575 Y-6.2256 Z-0.3624
X-0.3569 Y-6.2246 Z-0.365
X-0.3563 Y-6.2235 Z-0.3675
X-0.3555 Y-6.2223 Z-0.3699
X-0.3547 Y-6.221 Z-0.3722
X-0.3539 Y-6.2195 Z-0.3745
X-0.353 Y-6.218 Z-0.3766
X-0.352 Y-6.2163 Z-0.3787
X-0.3509 Y-6.2145 Z-0.3806
X-0.3498 Y-6.2127 Z-0.3824
X-0.3487 Y-6.2108 Z-0.3841
X-0.3475 Y-6.2088 Z-0.3856
X-0.3463 Y-6.2067 Z-0.3871
X-0.345 Y-6.2046 Z-0.3884
X-0.3437 Y-6.2024 Z-0.3895
X-0.3423 Y-6.2001 Z-0.3905
X-0.341 Y-6.1978 Z-0.3914
X-0.3396 Y-6.1955 Z-0.3921
X-0.3382 Y-6.1931 Z-0.3926
X-0.3368 Y-6.1907 Z-0.393
X-0.3353 Y-6.1883 Z-0.3932
X-0.3339 Y-6.1859 Z-0.3933
G3 X-0.3284 Y-6.1671 I-0.034 J0.0202
G1 Y-6.0022
X-0.3291 Y-5.9877
X-0.3312 Y-5.9714
X-0.3353 Y-5.9526
X-0.3413 Y-5.9324
X-0.3497 Y-5.9108
X-0.3612 Y-5.8872
X-0.3758 Y-5.8624
X-0.3942 Y-5.8362
X-0.4176 Y-5.808
X-0.4457 Y-5.7792
X-0.48 Y-5.7493
X-0.5207 Y-5.7192
X-0.5635 Y-5.6923
X-0.6081 Y-5.6684
X-0.6539 Y-5.6471
X-0.7008 Y-5.6282
X-0.7485 Y-5.6114
X-0.7968 Y-5.5965
X-0.8456 Y-5.5833
X-0.8948 Y-5.5716
X-0.9443 Y-5.5612
X-0.9941 Y-5.5521
X-1.044 Y-5.5441
X-1.0941 Y-5.537
X-1.1442 Y-5.5308
X-1.1945 Y-5.5253
X-1.2448 Y-5.5206
X-1.2952 Y-5.5164
X-1.3457 Y-5.5127
X-1.3961 Y-5.5095
X-1.4971 Y-5.5043
X-1.5982 Y-5.5004
X-1.6993 Y-5.4975
X-1.8509 Y-5.4944
X-2.0532 Y-5.4919
X-2.1038 Y-5.4915
X-2.4072 Y-5.4901
X-3.0645 Y-5.4893
X-4.0758 Y-5.4892
X-4.8343 Y-5.4891
X-4.8848 Y-5.4864
X-4.9341 Y-5.4752
X-4.9806 Y-5.4554
X-5.0232 Y-5.428
X-5.0613 Y-5.3948
X-5.0949 Y-5.357
X-5.1241 Y-5.3158
X-5.1494 Y-5.272
X-5.1711 Y-5.2263
X-5.1897 Y-5.1793
X-5.2055 Y-5.1312
X-5.2188 Y-5.0825
X-5.2301 Y-5.0332
X-5.2397 Y-4.9835
X-5.2477 Y-4.9336
X-5.2545 Y-4.8835
X-5.2601 Y-4.8332
X-5.2649 Y-4.7829
X-5.2689 Y-4.7325
X-5.2722 Y-4.682
X-5.275 Y-4.6315
X-5.2793 Y-4.5305
X-5.2809 Y-4.4799
X-5.2834 Y-4.3788
X-5.2859 Y-4.2272
X-5.2876 Y-4.0249
X-5.2887 Y-3.671
X-5.2892 Y-2.5079
X-5.2893 Y-1.2944
X-5.29 Y-1.1427
X-5.2915 Y-1.0415
X-5.2927 Y-0.991
X-5.2943 Y-0.9404
X-5.2965 Y-0.8899
X-5.2993 Y-0.8394
X-5.3029 Y-0.789
X-5.3074 Y-0.7386
X-5.3129 Y-0.6884
X-5.3197 Y-0.6383
X-5.3281 Y-0.5884
X-5.3382 Y-0.5388
X-5.3505 Y-0.4898
X-5.3652 Y-0.4429
X-5.3804 Y-0.4055
X-5.3868 Y-0.3927
X-5.3964 Y-0.3769
X-5.4083 Y-0.3629
X-5.4222 Y-0.3509
X-5.4379 Y-0.3412
X-5.4549 Y-0.3341
X-5.4727 Y-0.3298
X-5.4911 Y-0.3284
X-5.681
G3 X-5.7 Y-0.3328 I0.0017 J-0.05
G1 X-5.7025 Y-0.334 Z-0.3932
X-5.7051 Y-0.3352 Z-0.393
X-5.7076 Y-0.3363 Z-0.3926
X-5.7101 Y-0.3375 Z-0.3921
X-5.7126 Y-0.3386 Z-0.3914
X-5.715 Y-0.3397 Z-0.3905
X-5.7174 Y-0.3408 Z-0.3895
X-5.7197 Y-0.3418 Z-0.3884
X-5.722 Y-0.3429 Z-0.3871
X-5.7242 Y-0.3439 Z-0.3856
X-5.7263 Y-0.3448 Z-0.3841
X-5.7284 Y-0.3458 Z-0.3824
X-5.7303 Y-0.3467 Z-0.3806
X-5.7322 Y-0.3475 Z-0.3787
X-5.7339 Y-0.3483 Z-0.3766
X-5.7356 Y-0.349 Z-0.3745
X-5.7371 Y-0.3497 Z-0.3722
X-5.7385 Y-0.3504 Z-0.3699
X-5.7398 Y-0.351 Z-0.3675
X-5.741 Y-0.3515 Z-0.365
X-5.742 Y-0.352 Z-0.3624
X-5.7429 Y-0.3524 Z-0.3598
X-5.7437 Y-0.3528 Z-0.3571
X-5.7443 Y-0.3531 Z-0.3544
X-5.7448 Y-0.3533 Z-0.3517
X-5.7452 Y-0.3534 Z-0.3489
X-5.7454 Y-0.3535 Z-0.3461
X-5.7455 Y-0.3536 Z-0.3433
G0 Z0.2
X-6.064 Y0.3595
Z-0.2933
G1 Z-0.3433 F20.
Y0.3594 Z-0.3461
X-6.0638 Y0.3593 Z-0.3489
X-6.0634 Y0.3591 Z-0.3517
X-6.063 Y0.3588 Z-0.3544
X-6.0624 Y0.3585 Z-0.3571
X-6.0616 Y0.358 Z-0.3598
X-6.0608 Y0.3575 Z-0.3624
X-6.0598 Y0.3569 Z-0.365
X-6.0587 Y0.3563 Z-0.3675
X-6.0574 Y0.3555 Z-0.3699
X-6.0561 Y0.3547 Z-0.3722
X-6.0547 Y0.3539 Z-0.3745
X-6.0531 Y0.353 Z-0.3766
X-6.0514 Y0.352 Z-0.3787
X-6.0497 Y0.3509 Z-0.3806
X-6.0479 Y0.3498 Z-0.3824
X-6.0459 Y0.3487 Z-0.3841
X-6.0439 Y0.3475 Z-0.3856
X-6.0418 Y0.3463 Z-0.3871
X-6.0397 Y0.345 Z-0.3884
X-6.0375 Y0.3437 Z-0.3895
X-6.0352 Y0.3423 Z-0.3905
X-6.033 Y0.341 Z-0.3914
X-6.0306 Y0.3396 Z-0.3921
X-6.0283 Y0.3382 Z-0.3926
X-6.0259 Y0.3368 Z-0.393
X-6.0235 Y0.3353 Z-0.3932
X-6.0211 Y0.3339 Z-0.3933
G3 X-6.0022 Y0.3284 I0.0202 J0.034
G1 X-5.8374
X-5.8136 Y0.3296
X-5.7962 Y0.3318
X-5.7773 Y0.3359
X-5.7558 Y0.3423
X-5.734 Y0.3508
X-5.7092 Y0.3628
X-5.6838 Y0.3778
X-5.6564 Y0.397
X-5.627 Y0.4214
X-5.597 Y0.4507
X-5.5655 Y0.4868
X-5.5354 Y0.5275
X-5.5084 Y0.5702
X-5.4842 Y0.6146
X-5.4624 Y0.6603
X-5.443 Y0.7069
X-5.4255 Y0.7544
X-5.4099 Y0.8025
X-5.396 Y0.8511
X-5.3836 Y0.9001
X-5.3725 Y0.9495
X-5.3626 Y0.9991
X-5.3538 Y1.0489
X-5.346 Y1.0988
X-5.3391 Y1.1489
X-5.3329 Y1.1991
X-5.3275 Y1.2494
X-5.3227 Y1.2997
X-5.3185 Y1.3501
X-5.3147 Y1.4005
X-5.3086 Y1.5015
X-5.3038 Y1.6025
X-5.3002 Y1.7035
X-5.2963 Y1.8552
X-5.2937 Y2.0069
X-5.2925 Y2.108
X-5.2907 Y2.3608
X-5.2896 Y2.7653
X-5.2892 Y4.0801
X-5.2891 Y4.8386
X-5.2855 Y4.889
X-5.2735 Y4.9381
X-5.2528 Y4.9843
X-5.2249 Y5.0264
X-5.1912 Y5.0641
X-5.153 Y5.0973
X-5.1115 Y5.1262
X-5.0675 Y5.1511
X-5.0217 Y5.1725
X-4.9746 Y5.1908
X-4.9265 Y5.2064
X-4.8777 Y5.2196
X-4.8283 Y5.2308
X-4.7787 Y5.2402
X-4.7287 Y5.2481
X-4.6786 Y5.2548
X-4.6283 Y5.2604
X-4.578 Y5.2651
X-4.5276 Y5.269
X-4.4771 Y5.2723
X-4.4266 Y5.2751
X-4.3256 Y5.2794
X-4.2751 Y5.281
X-4.174 Y5.2835
X-4.0223 Y5.2859
X-3.82 Y5.2876
X-3.4661 Y5.2887
X-2.303 Y5.2892
X-1.2917 Y5.2893
X-1.14 Y5.2901
X-1.0389 Y5.2915
X-0.9884 Y5.2928
X-0.9378 Y5.2944
X-0.8873 Y5.2966
X-0.8368 Y5.2995
X-0.7864 Y5.3031
X-0.736 Y5.3076
X-0.6858 Y5.3132
X-0.6357 Y5.32
X-0.5858 Y5.3284
X-0.5363 Y5.3387
X-0.4872 Y5.3511
X-0.4409 Y5.3658
X-0.4039 Y5.381
X-0.372 Y5.3972
X-0.3437 Y5.4146
X-0.3373 Y5.4205
X-0.3324 Y5.4278
X-0.3294 Y5.436
X-0.3284 Y5.4447
Y5.6809
G3 X-0.3328 Y5.6999 I-0.05 J-0.0017
G1 X-0.334 Y5.7025 Z-0.3932
X-0.3352 Y5.705 Z-0.393
X-0.3363 Y5.7075 Z-0.3926
X-0.3375 Y5.71 Z-0.3921
X-0.3386 Y5.7125 Z-0.3914
X-0.3397 Y5.7149 Z-0.3905
X-0.3408 Y5.7173 Z-0.3895
X-0.3418 Y5.7197 Z-0.3884
X-0.3429 Y5.7219 Z-0.3871
X-0.3439 Y5.7241 Z-0.3856
X-0.3448 Y5.7262 Z-0.3841
X-0.3458 Y5.7283 Z-0.3824
X-0.3467 Y5.7302 Z-0.3806
X-0.3475 Y5.7321 Z-0.3787
X-0.3483 Y5.7338 Z-0.3766
X-0.349 Y5.7355 Z-0.3745
X-0.3497 Y5.737 Z-0.3722
X-0.3504 Y5.7384 Z-0.3699
X-0.351 Y5.7397 Z-0.3675
X-0.3515 Y5.7409 Z-0.365
X-0.352 Y5.742 Z-0.3624
X-0.3524 Y5.7429 Z-0.3598
X-0.3528 Y5.7436 Z-0.3571
X-0.3531 Y5.7443 Z-0.3544
X-0.3533 Y5.7448 Z-0.3517
X-0.3534 Y5.7451 Z-0.3489
X-0.3535 Y5.7453 Z-0.3461
X-0.3536 Y5.7454 Z-0.3433
G0 Z0.2
X0.3595 Y6.064
Z-0.2933
G1 Z-0.3433 F20.
X0.3594 Z-0.3461
X0.3593 Y6.0638 Z-0.3489
X0.3591 Y6.0634 Z-0.3517
X0.3588 Y6.063 Z-0.3544
X0.3585 Y6.0624 Z-0.3571
X0.358 Y6.0616 Z-0.3598
X0.3575 Y6.0608 Z-0.3624
X0.3569 Y6.0598 Z-0.365
X0.3563 Y6.0587 Z-0.3675
X0.3555 Y6.0574 Z-0.3699
X0.3547 Y6.0561 Z-0.3722
X0.3539 Y6.0547 Z-0.3745
X0.353 Y6.0531 Z-0.3766
X0.352 Y6.0514 Z-0.3787
X0.3509 Y6.0497 Z-0.3806
X0.3498 Y6.0479 Z-0.3824
X0.3487 Y6.0459 Z-0.3841
X0.3475 Y6.0439 Z-0.3856
X0.3463 Y6.0418 Z-0.3871
X0.345 Y6.0397 Z-0.3884
X0.3437 Y6.0375 Z-0.3895
X0.3423 Y6.0352 Z-0.3905
X0.341 Y6.033 Z-0.3914
X0.3396 Y6.0306 Z-0.3921
X0.3382 Y6.0283 Z-0.3926
X0.3368 Y6.0259 Z-0.393
X0.3353 Y6.0235 Z-0.3932
X0.3339 Y6.0211 Z-0.3933
G3 X0.3284 Y6.0022 I0.034 J-0.0202
G1 Y5.8374
X0.3296 Y5.8136
X0.3318 Y5.7962
X0.3359 Y5.7773
X0.3423 Y5.7558
X0.3508 Y5.734
X0.3628 Y5.7092
X0.3778 Y5.6838
X0.397 Y5.6564
X0.4214 Y5.627
X0.4507 Y5.597
X0.4868 Y5.5655
X0.5275 Y5.5354
X0.5702 Y5.5084
X0.6146 Y5.4842
X0.6603 Y5.4624
X0.7069 Y5.443
X0.7544 Y5.4255
X0.8025 Y5.4099
X0.8511 Y5.396
X0.9001 Y5.3836
X0.9495 Y5.3725
X0.9991 Y5.3626
X1.0489 Y5.3538
X1.0988 Y5.346
X1.1489 Y5.3391
X1.1991 Y5.3329
X1.2494 Y5.3275
X1.2997 Y5.3227
X1.3501 Y5.3185
X1.4005 Y5.3147
X1.5015 Y5.3086
X1.6025 Y5.3038
X1.7035 Y5.3002
X1.8552 Y5.2963
X2.0069 Y5.2937
X2.108 Y5.2925
X2.3608 Y5.2907
X2.7653 Y5.2896
X4.0801 Y5.2892
X4.8386 Y5.2891
X4.889 Y5.2855
X4.9381 Y5.2735
X4.9843 Y5.2528
X5.0264 Y5.2249
X5.0641 Y5.1911
X5.0973 Y5.153
X5.1262 Y5.1115
X5.1511 Y5.0675
X5.1725 Y5.0217
X5.1908 Y4.9746
X5.2064 Y4.9265
X5.2196 Y4.8777
X5.2307 Y4.8283
X5.2402 Y4.7787
X5.2481 Y4.7287
X5.2548 Y4.6786
X5.2604 Y4.6283
X5.2651 Y4.578
X5.269 Y4.5276
X5.2723 Y4.4771
X5.2751 Y4.4266
X5.2794 Y4.3256
X5.281 Y4.275
X5.2835 Y4.1739
X5.2859 Y4.0223
X5.2876 Y3.82
X5.2887 Y3.4661
X5.2892 Y2.303
X5.2893 Y1.2917
X5.2901 Y1.14
X5.2915 Y1.0389
X5.2928 Y0.9883
X5.2944 Y0.9378
X5.2966 Y0.8873
X5.2995 Y0.8368
X5.3031 Y0.7864
X5.3076 Y0.736
X5.3132 Y0.6857
X5.32 Y0.6356
X5.3284 Y0.5858
X5.3387 Y0.5363
X5.3511 Y0.4872
X5.3658 Y0.4409
X5.381 Y0.4039
X5.3972 Y0.372
X5.4146 Y0.3437
X5.4205 Y0.3373
X5.4278 Y0.3324
X5.436 Y0.3294
X5.4447 Y0.3284
X5.6809
G3 X5.6999 Y0.3328 I-0.0017 J0.05
G1 X5.7025 Y0.334 Z-0.3932
X5.705 Y0.3352 Z-0.393
X5.7075 Y0.3363 Z-0.3926
X5.71 Y0.3375 Z-0.3921
X5.7125 Y0.3386 Z-0.3914
X5.7149 Y0.3397 Z-0.3905
X5.7173 Y0.3408 Z-0.3895
X5.7197 Y0.3418 Z-0.3884
X5.7219 Y0.3429 Z-0.3871
X5.7241 Y0.3439 Z-0.3856
X5.7262 Y0.3448 Z-0.3841
X5.7283 Y0.3458 Z-0.3824
X5.7302 Y0.3467 Z-0.3806
X5.7321 Y0.3475 Z-0.3787
X5.7338 Y0.3483 Z-0.3766
X5.7355 Y0.349 Z-0.3745
X5.737 Y0.3497 Z-0.3722
X5.7384 Y0.3504 Z-0.3699
X5.7397 Y0.351 Z-0.3675
X5.7409 Y0.3515 Z-0.365
X5.7419 Y0.352 Z-0.3624
X5.7429 Y0.3524 Z-0.3598
X5.7436 Y0.3528 Z-0.3571
X5.7443 Y0.3531 Z-0.3544
X5.7448 Y0.3533 Z-0.3517
X5.7451 Y0.3534 Z-0.3489
X5.7453 Y0.3535 Z-0.3461
X5.7454 Y0.3536 Z-0.3433
G0 Z0.2
X6.064 Y-0.3595
Z-0.2933
G1 Z-0.3433 F20.
Y-0.3594 Z-0.3461
X6.0638 Y-0.3593 Z-0.3489
X6.0634 Y-0.3591 Z-0.3517
X6.063 Y-0.3588 Z-0.3544
X6.0624 Y-0.3585 Z-0.3571
X6.0616 Y-0.358 Z-0.3598
X6.0608 Y-0.3575 Z-0.3624
X6.0598 Y-0.3569 Z-0.365
X6.0587 Y-0.3563 Z-0.3675
X6.0574 Y-0.3555 Z-0.3699
X6.0561 Y-0.3547 Z-0.3722
X6.0547 Y-0.3539 Z-0.3745
X6.0531 Y-0.353 Z-0.3766
X6.0514 Y-0.352 Z-0.3787
X6.0497 Y-0.3509 Z-0.3806
X6.0479 Y-0.3498 Z-0.3824
X6.0459 Y-0.3487 Z-0.3841
X6.0439 Y-0.3475 Z-0.3856
X6.0418 Y-0.3463 Z-0.3871
X6.0397 Y-0.345 Z-0.3884
X6.0375 Y-0.3437 Z-0.3895
X6.0352 Y-0.3423 Z-0.3905
X6.033 Y-0.341 Z-0.3914
X6.0306 Y-0.3396 Z-0.3921
X6.0283 Y-0.3382 Z-0.3926
X6.0259 Y-0.3368 Z-0.393
X6.0235 Y-0.3353 Z-0.3932
X6.0211 Y-0.3339 Z-0.3933
G3 X6.0022 Y-0.3284 I-0.0202 J-0.034
G1 X5.8374
X5.8136 Y-0.3296
X5.7962 Y-0.3318
X5.7773 Y-0.3359
X5.7558 Y-0.3423
X5.734 Y-0.3508
X5.7092 Y-0.3628
X5.6838 Y-0.3778
X5.6564 Y-0.397
X5.627 Y-0.4214
X5.597 Y-0.4507
X5.5655 Y-0.4868
X5.5354 Y-0.5275
X5.5084 Y-0.5702
X5.4842 Y-0.6146
X5.4624 Y-0.6603
X5.443 Y-0.7069
X5.4255 Y-0.7544
X5.4099 Y-0.8025
X5.396 Y-0.8511
X5.3836 Y-0.9001
X5.3725 Y-0.9495
X5.3626 Y-0.9991
X5.3538 Y-1.0489
X5.346 Y-1.0988
X5.3391 Y-1.1489
X5.3329 Y-1.1991
X5.3275 Y-1.2494
X5.3227 Y-1.2997
X5.3185 Y-1.3501
X5.3147 Y-1.4005
X5.3086 Y-1.5015
X5.3038 Y-1.6025
X5.3002 Y-1.7035
X5.2963 Y-1.8552
X5.2937 Y-2.0069
X5.2925 Y-2.108
X5.2907 Y-2.3608
X5.2896 Y-2.7653
X5.2892 Y-4.0801
X5.2891 Y-4.8386
X5.2855 Y-4.889
X5.2735 Y-4.9381
X5.2528 Y-4.9843
X5.2249 Y-5.0264
X5.1911 Y-5.0641
X5.153 Y-5.0973
X5.1115 Y-5.1262
X5.0675 Y-5.1511
X5.0217 Y-5.1725
X4.9746 Y-5.1908
X4.9265 Y-5.2064
X4.8777 Y-5.2196
X4.8283 Y-5.2307
X4.7787 Y-5.2402
X4.7287 Y-5.2481
X4.6786 Y-5.2548
X4.6283 Y-5.2604
X4.578 Y-5.2651
X4.5276 Y-5.269
X4.4771 Y-5.2723
X4.4266 Y-5.2751
X4.3256 Y-5.2794
X4.275 Y-5.281
X4.1739 Y-5.2835
X4.0223 Y-5.2859
X3.82 Y-5.2876
X3.4661 Y-5.2887
X2.303 Y-5.2892
X1.2917 Y-5.2893
X1.14 Y-5.2901
X1.0389 Y-5.2915
X0.9883 Y-5.2928
X0.9378 Y-5.2944
X0.8873 Y-5.2966
X0.8368 Y-5.2995
X0.7864 Y-5.3031
X0.736 Y-5.3076
X0.6857 Y-5.3132
X0.6356 Y-5.32
X0.5858 Y-5.3284
X0.5363 Y-5.3387
X0.4872 Y-5.3511
X0.4409 Y-5.3658
X0.4039 Y-5.381
X0.372 Y-5.3972
X0.3437 Y-5.4146
X0.3373 Y-5.4205
X0.3324 Y-5.4278
X0.3294 Y-5.436
X0.3284 Y-5.4447
Y-5.6809
G3 X0.3328 Y-5.6999 I0.05 J0.0017
G1 X0.334 Y-5.7025 Z-0.3932
X0.3352 Y-5.705 Z-0.393
X0.3363 Y-5.7075 Z-0.3926
X0.3375 Y-5.71 Z-0.3921
X0.3386 Y-5.7125 Z-0.3914
X0.3397 Y-5.7149 Z-0.3905
X0.3408 Y-5.7173 Z-0.3895
X0.3418 Y-5.7197 Z-0.3884
X0.3429 Y-5.7219 Z-0.3871
X0.3439 Y-5.7241 Z-0.3856
X0.3448 Y-5.7262 Z-0.3841
X0.3458 Y-5.7283 Z-0.3824
X0.3467 Y-5.7302 Z-0.3806
X0.3475 Y-5.7321 Z-0.3787
X0.3483 Y-5.7338 Z-0.3766
X0.349 Y-5.7355 Z-0.3745
X0.3497 Y-5.737 Z-0.3722
X0.3504 Y-5.7384 Z-0.3699
X0.351 Y-5.7397 Z-0.3675
X0.3515 Y-5.7409 Z-0.365
X0.352 Y-5.7419 Z-0.3624
X0.3524 Y-5.7429 Z-0.3598
X0.3528 Y-5.7436 Z-0.3571
X0.3531 Y-5.7443 Z-0.3544
X0.3533 Y-5.7448 Z-0.3517
X0.3534 Y-5.7451 Z-0.3489
X0.3535 Y-5.7453 Z-0.3461
X0.3536 Y-5.7454 Z-0.3433
G0 Z0.2
X-0.3595 Y-6.064
Z-0.2933
G1 Z-0.3433 F20.
X-0.3594 Z-0.3461
X-0.3593 Y-6.0638 Z-0.3489
X-0.3591 Y-6.0634 Z-0.3517
X-0.3588 Y-6.063 Z-0.3544
X-0.3585 Y-6.0624 Z-0.3571
X-0.358 Y-6.0616 Z-0.3598
X-0.3575 Y-6.0608 Z-0.3624
X-0.3569 Y-6.0598 Z-0.365
X-0.3563 Y-6.0587 Z-0.3675
X-0.3555 Y-6.0574 Z-0.3699
X-0.3547 Y-6.0561 Z-0.3722
X-0.3539 Y-6.0547 Z-0.3745
X-0.353 Y-6.0531 Z-0.3766
X-0.352 Y-6.0514 Z-0.3787
X-0.3509 Y-6.0497 Z-0.3806
X-0.3498 Y-6.0479 Z-0.3824
X-0.3487 Y-6.0459 Z-0.3841
X-0.3475 Y-6.0439 Z-0.3856
X-0.3463 Y-6.0418 Z-0.3871
X-0.345 Y-6.0397 Z-0.3884
X-0.3437 Y-6.0375 Z-0.3895
X-0.3423 Y-6.0352 Z-0.3905
X-0.341 Y-6.033 Z-0.3914
X-0.3396 Y-6.0306 Z-0.3921
X-0.3382 Y-6.0283 Z-0.3926
X-0.3368 Y-6.0259 Z-0.393
X-0.3353 Y-6.0235 Z-0.3932
X-0.3339 Y-6.0211 Z-0.3933
G3 X-0.3284 Y-6.0022 I-0.034 J0.0202
G1 Y-5.8374
X-0.3296 Y-5.8136
X-0.3318 Y-5.7962
X-0.3359 Y-5.7773
X-0.3423 Y-5.7558
X-0.3508 Y-5.734
X-0.3628 Y-5.7092
X-0.3778 Y-5.6838
X-0.397 Y-5.6564
X-0.4214 Y-5.627
X-0.4507 Y-5.597
X-0.4868 Y-5.5655
X-0.5275 Y-5.5354
X-0.5702 Y-5.5084
X-0.6146 Y-5.4842
X-0.6603 Y-5.4624
X-0.7069 Y-5.443
X-0.7544 Y-5.4255
X-0.8025 Y-5.4099
X-0.8511 Y-5.396
X-0.9001 Y-5.3836
X-0.9495 Y-5.3725
X-0.9991 Y-5.3626
X-1.0489 Y-5.3538
X-1.0988 Y-5.346
X-1.1489 Y-5.3391
X-1.1991 Y-5.3329
X-1.2494 Y-5.3275
X-1.2997 Y-5.3227
X-1.3501 Y-5.3185
X-1.4005 Y-5.3147
X-1.5015 Y-5.3086
X-1.6025 Y-5.3038
X-1.7035 Y-5.3002
X-1.8552 Y-5.2963
X-2.0069 Y-5.2937
X-2.108 Y-5.2925
X-2.3608 Y-5.2907
X-2.7653 Y-5.2896
X-4.0801 Y-5.2892
X-4.6363 Y-5.2891
X-4.6867 Y-5.2859
X-4.7359 Y-5.2742
X-4.7822 Y-5.2538
X-4.8246 Y-5.2262
X-4.8624 Y-5.1927
X-4.8958 Y-5.1547
X-4.9249 Y-5.1133
X-4.95 Y-5.0694
X-4.9716 Y-5.0237
X-4.99 Y-4.9766
X-5.0057 Y-4.9285
X-5.019 Y-4.8798
X-5.0302 Y-4.8305
X-5.0397 Y-4.7808
X-5.0477 Y-4.7309
X-5.0545 Y-4.6807
X-5.0601 Y-4.6305
X-5.0649 Y-4.5801
X-5.0688 Y-4.5297
X-5.0722 Y-4.4793
X-5.075 Y-4.4288
X-5.0793 Y-4.3278
X-5.0823 Y-4.2267
X-5.0852 Y-4.075
X-5.0872 Y-3.8727
X-5.0885 Y-3.5693
X-5.0891 Y-2.8109
X-5.0892 Y-2.1029
X-5.0895 Y-1.3444
X-5.0905 Y-1.1928
X-5.0922 Y-1.0916
X-5.0935 Y-1.0411
X-5.0952 Y-0.9905
X-5.0975 Y-0.94
X-5.1002 Y-0.8895
X-5.1037 Y-0.8391
X-5.1079 Y-0.7887
X-5.113 Y-0.7384
X-5.1191 Y-0.6882
X-5.1265 Y-0.6382
X-5.1354 Y-0.5884
X-5.146 Y-0.539
X-5.1587 Y-0.49
X-5.1741 Y-0.4422
X-5.1897 Y-0.4044
X-5.1961 Y-0.3919
X-5.2056 Y-0.3764
X-5.2175 Y-0.3625
X-5.2314 Y-0.3506
X-5.247 Y-0.3411
X-5.2639 Y-0.3341
X-5.2817 Y-0.3298
X-5.3 Y-0.3284
X-5.4911
G3 X-5.5101 Y-0.3328 I0.0017 J-0.05
G1 X-5.5126 Y-0.334 Z-0.3932
X-5.5152 Y-0.3352 Z-0.393
X-5.5177 Y-0.3363 Z-0.3926
X-5.5202 Y-0.3375 Z-0.3921
X-5.5227 Y-0.3386 Z-0.3914
X-5.5251 Y-0.3397 Z-0.3905
X-5.5275 Y-0.3408 Z-0.3895
X-5.5298 Y-0.3418 Z-0.3884
X-5.5321 Y-0.3429 Z-0.3871
X-5.5343 Y-0.3439 Z-0.3856
X-5.5364 Y-0.3448 Z-0.3841
X-5.5384 Y-0.3458 Z-0.3824
X-5.5404 Y-0.3467 Z-0.3806
X-5.5422 Y-0.3475 Z-0.3787
X-5.544 Y-0.3483 Z-0.3766
X-5.5456 Y-0.349 Z-0.3745
X-5.5472 Y-0.3497 Z-0.3722
X-5.5486 Y-0.3504 Z-0.3699
X-5.5499 Y-0.351 Z-0.3675
X-5.5511 Y-0.3515 Z-0.365
X-5.5521 Y-0.352 Z-0.3624
X-5.553 Y-0.3524 Z-0.3598
X-5.5538 Y-0.3528 Z-0.3571
X-5.5544 Y-0.3531 Z-0.3544
X-5.5549 Y-0.3533 Z-0.3517
X-5.5553 Y-0.3534 Z-0.3489
X-5.5555 Y-0.3535 Z-0.3461
X-5.5556 Y-0.3536 Z-0.3433
G0 Z0.2
X-5.8992 Y0.3595
Z-0.2933
G1 Z-0.3433 F20.
X-5.8991 Y0.3594 Z-0.3461
X-5.8989 Y0.3593 Z-0.3489
X-5.8986 Y0.3591 Z-0.3517
X-5.8981 Y0.3588 Z-0.3544
X-5.8975 Y0.3585 Z-0.3571
X-5.8968 Y0.358 Z-0.3598
X-5.8959 Y0.3575 Z-0.3624
X-5.8949 Y0.3569 Z-0.365
X-5.8938 Y0.3563 Z-0.3675
X-5.8926 Y0.3555 Z-0.3699
X-5.8913 Y0.3547 Z-0.3722
X-5.8898 Y0.3539 Z-0.3745
X-5.8882 Y0.353 Z-0.3766
X-5.8866 Y0.352 Z-0.3787
X-5.8848 Y0.3509 Z-0.3806
X-5.883 Y0.3498 Z-0.3824
X-5.8811 Y0.3487 Z-0.3841
X-5.8791 Y0.3475 Z-0.3856
X-5.877 Y0.3463 Z-0.3871
X-5.8748 Y0.345 Z-0.3884
X-5.8726 Y0.3437 Z-0.3895
X-5.8704 Y0.3423 Z-0.3905
X-5.8681 Y0.341 Z-0.3914
X-5.8658 Y0.3396 Z-0.3921
X-5.8634 Y0.3382 Z-0.3926
X-5.861 Y0.3368 Z-0.393
X-5.8586 Y0.3353 Z-0.3932
X-5.8562 Y0.3339 Z-0.3933
G3 X-5.8374 Y0.3284 I0.0202 J0.034
G1 X-5.6575
X-5.6359 Y0.3294
X-5.6175 Y0.3319
X-5.5986 Y0.3359
X-5.5765 Y0.3425
X-5.5541 Y0.3512
X-5.5286 Y0.3636
X-5.5027 Y0.3789
X-5.4743 Y0.3989
X-5.444 Y0.424
X-5.4129 Y0.4543
X-5.3801 Y0.4919
X-5.35 Y0.5325
X-5.3229 Y0.5752
X-5.2984 Y0.6195
X-5.2763 Y0.6649
X-5.2564 Y0.7114
X-5.2385 Y0.7587
X-5.2224 Y0.8066
X-5.2079 Y0.8551
X-5.1948 Y0.9039
X-5.1831 Y0.9531
X-5.1726 Y1.0026
X-5.1632 Y1.0523
X-5.1548 Y1.1021
X-5.1472 Y1.1521
X-5.1405 Y1.2022
X-5.1345 Y1.2524
X-5.1291 Y1.3027
X-5.1243 Y1.3531
X-5.1201 Y1.4035
X-5.1163 Y1.4539
X-5.1101 Y1.5548
X-5.1052 Y1.6558
X-5.1014 Y1.7569
X-5.0972 Y1.9085
X-5.0944 Y2.0602
X-5.0937 Y2.1108
X-5.0917 Y2.313
X-5.0902 Y2.6164
X-5.0893 Y3.2232
X-5.0892 Y4.0828
X-5.0891 Y4.6391
X-5.0853 Y4.6895
X-5.073 Y4.7385
X-5.0522 Y4.7846
X-5.0241 Y4.8266
X-4.9903 Y4.8642
X-4.952 Y4.8974
X-4.9105 Y4.9262
X-4.8665 Y4.9511
X-4.8207 Y4.9725
X-4.7735 Y4.9908
X-4.7254 Y5.0063
X-4.6766 Y5.0195
X-4.6273 Y5.0306
X-4.5776 Y5.04
X-4.5277 Y5.048
X-4.4775 Y5.0546
X-4.4273 Y5.0603
X-4.3769 Y5.065
X-4.3265 Y5.0689
X-4.2761 Y5.0722
X-4.2256 Y5.075
X-4.1245 Y5.0793
X-4.0234 Y5.0823
X-3.8718 Y5.0852
X-3.6695 Y5.0872
X-3.3661 Y5.0885
X-2.6076 Y5.0891
X-1.8997 Y5.0892
X-1.3435 Y5.0895
X-1.1918 Y5.0905
X-1.0907 Y5.0922
X-1.0401 Y5.0936
X-0.9896 Y5.0953
X-0.9391 Y5.0975
X-0.8886 Y5.1002
X-0.8381 Y5.1037
X-0.7877 Y5.1079
X-0.7374 Y5.113
X-0.6872 Y5.1192
X-0.6372 Y5.1266
X-0.5875 Y5.1355
X-0.538 Y5.1461
X-0.4891 Y5.1588
X-0.4408 Y5.174
X-0.395 Y5.1916
X-0.3787 Y5.201
X-0.3642 Y5.2128
X-0.3518 Y5.2269
X-0.3417 Y5.2427
X-0.3344 Y5.26
X-0.3299 Y5.2782
X-0.3284 Y5.297
Y5.4447
G3 X-0.3328 Y5.4637 I-0.05 J-0.0017
G1 X-0.334 Y5.4662 Z-0.3932
X-0.3352 Y5.4688 Z-0.393
X-0.3363 Y5.4713 Z-0.3926
X-0.3375 Y5.4738 Z-0.3921
X-0.3386 Y5.4763 Z-0.3914
X-0.3397 Y5.4787 Z-0.3905
X-0.3408 Y5.4811 Z-0.3895
X-0.3418 Y5.4834 Z-0.3884
X-0.3429 Y5.4857 Z-0.3871
X-0.3439 Y5.4879 Z-0.3856
X-0.3448 Y5.49 Z-0.3841
X-0.3458 Y5.4921 Z-0.3824
X-0.3467 Y5.494 Z-0.3806
X-0.3475 Y5.4959 Z-0.3787
X-0.3483 Y5.4976 Z-0.3766
X-0.349 Y5.4993 Z-0.3745
X-0.3497 Y5.5008 Z-0.3722
X-0.3504 Y5.5022 Z-0.3699
X-0.351 Y5.5035 Z-0.3675
X-0.3515 Y5.5047 Z-0.365
X-0.352 Y5.5057 Z-0.3624
X-0.3524 Y5.5066 Z-0.3598
X-0.3528 Y5.5074 Z-0.3571
X-0.3531 Y5.508 Z-0.3544
X-0.3533 Y5.5085 Z-0.3517
X-0.3534 Y5.5089 Z-0.3489
X-0.3535 Y5.5091 Z-0.3461
X-0.3536 Y5.5092 Z-0.3433
G0 Z0.2
X0.3595 Y5.8992
Z-0.2933
G1 Z-0.3433 F20.
X0.3594 Y5.8991 Z-0.3461
X0.3593 Y5.8989 Z-0.3489
X0.3591 Y5.8986 Z-0.3517
X0.3588 Y5.8981 Z-0.3544
X0.3585 Y5.8975 Z-0.3571
X0.358 Y5.8968 Z-0.3598
X0.3575 Y5.8959 Z-0.3624
X0.3569 Y5.8949 Z-0.365
X0.3563 Y5.8938 Z-0.3675
X0.3555 Y5.8926 Z-0.3699
X0.3547 Y5.8913 Z-0.3722
X0.3539 Y5.8898 Z-0.3745
X0.353 Y5.8882 Z-0.3766
X0.352 Y5.8866 Z-0.3787
X0.3509 Y5.8848 Z-0.3806
X0.3498 Y5.883 Z-0.3824
X0.3487 Y5.8811 Z-0.3841
X0.3475 Y5.8791 Z-0.3856
X0.3463 Y5.877 Z-0.3871
X0.345 Y5.8748 Z-0.3884
X0.3437 Y5.8726 Z-0.3895
X0.3423 Y5.8704 Z-0.3905
X0.341 Y5.8681 Z-0.3914
X0.3396 Y5.8658 Z-0.3921
X0.3382 Y5.8634 Z-0.3926
X0.3368 Y5.861 Z-0.393
X0.3353 Y5.8586 Z-0.3932
X0.3339 Y5.8562 Z-0.3933
G3 X0.3284 Y5.8374 I0.034 J-0.0202
G1 Y5.6575
X0.3294 Y5.6359
X0.3319 Y5.6175
X0.3359 Y5.5986
X0.3425 Y5.5765
X0.3512 Y5.5541
X0.3636 Y5.5286
X0.3789 Y5.5027
X0.3989 Y5.4743
X0.424 Y5.444
X0.4543 Y5.4129
X0.4919 Y5.3801
X0.5325 Y5.35
X0.5752 Y5.3229
X0.6195 Y5.2984
X0.6649 Y5.2763
X0.7114 Y5.2564
X0.7587 Y5.2385
X0.8066 Y5.2224
X0.8551 Y5.2079
X0.9039 Y5.1948
X0.9531 Y5.1831
X1.0026 Y5.1726
X1.0523 Y5.1632
X1.1021 Y5.1548
X1.1521 Y5.1472
X1.2022 Y5.1405
X1.2524 Y5.1345
X1.3027 Y5.1291
X1.3531 Y5.1243
X1.4035 Y5.1201
X1.4539 Y5.1163
X1.5548 Y5.1101
X1.6558 Y5.1052
X1.7569 Y5.1014
X1.9085 Y5.0972
X2.0602 Y5.0944
X2.1108 Y5.0937
X2.313 Y5.0917
X2.6164 Y5.0902
X3.2232 Y5.0893
X4.0828 Y5.0892
X4.6391 Y5.0891
X4.6895 Y5.0853
X4.7385 Y5.073
X4.7846 Y5.0522
X4.8266 Y5.0241
X4.8642 Y4.9903
X4.8974 Y4.952
X4.9262 Y4.9105
X4.9511 Y4.8665
X4.9725 Y4.8207
X4.9908 Y4.7735
X5.0063 Y4.7254
X5.0195 Y4.6766
X5.0306 Y4.6273
X5.04 Y4.5776
X5.048 Y4.5276
X5.0546 Y4.4775
X5.0603 Y4.4273
X5.065 Y4.3769
X5.0689 Y4.3265
X5.0722 Y4.2761
X5.075 Y4.2256
X5.0793 Y4.1245
X5.0823 Y4.0234
X5.0852 Y3.8718
X5.0872 Y3.6695
X5.0885 Y3.3661
X5.0891 Y2.6076
X5.0892 Y1.8997
X5.0895 Y1.3435
X5.0905 Y1.1918
X5.0922 Y1.0907
X5.0936 Y1.0401
X5.0953 Y0.9896
X5.0975 Y0.9391
X5.1002 Y0.8886
X5.1037 Y0.8381
X5.1079 Y0.7877
X5.113 Y0.7374
X5.1192 Y0.6872
X5.1266 Y0.6372
X5.1355 Y0.5875
X5.1461 Y0.538
X5.1588 Y0.4891
X5.174 Y0.4408
X5.1916 Y0.395
X5.201 Y0.3787
X5.2128 Y0.3642
X5.2269 Y0.3518
X5.2427 Y0.3417
X5.26 Y0.3344
X5.2782 Y0.3299
X5.2969 Y0.3284
X5.4447
G3 X5.4637 Y0.3328 I-0.0017 J0.05
G1 X5.4662 Y0.334 Z-0.3932
X5.4688 Y0.3352 Z-0.393
X5.4713 Y0.3363 Z-0.3926
X5.4738 Y0.3375 Z-0.3921
X5.4763 Y0.3386 Z-0.3914
X5.4787 Y0.3397 Z-0.3905
X5.4811 Y0.3408 Z-0.3895
X5.4834 Y0.3418 Z-0.3884
X5.4857 Y0.3429 Z-0.3871
X5.4879 Y0.3439 Z-0.3856
X5.49 Y0.3448 Z-0.3841
X5.492 Y0.3458 Z-0.3824
X5.494 Y0.3467 Z-0.3806
X5.4959 Y0.3475 Z-0.3787
X5.4976 Y0.3483 Z-0.3766
X5.4993 Y0.349 Z-0.3745
X5.5008 Y0.3497 Z-0.3722
X5.5022 Y0.3504 Z-0.3699
X5.5035 Y0.351 Z-0.3675
X5.5047 Y0.3515 Z-0.365
X5.5057 Y0.352 Z-0.3624
X5.5066 Y0.3524 Z-0.3598
X5.5074 Y0.3528 Z-0.3571
X5.508 Y0.3531 Z-0.3544
X5.5085 Y0.3533 Z-0.3517
X5.5089 Y0.3534 Z-0.3489
X5.5091 Y0.3535 Z-0.3461
X5.5092 Y0.3536 Z-0.3433
G0 Z0.2
X5.8992 Y-0.3595
Z-0.2933
G1 Z-0.3433 F20.
X5.8991 Y-0.3594 Z-0.3461
X5.8989 Y-0.3593 Z-0.3489
X5.8986 Y-0.3591 Z-0.3517
X5.8981 Y-0.3588 Z-0.3544
X5.8975 Y-0.3585 Z-0.3571
X5.8968 Y-0.358 Z-0.3598
X5.8959 Y-0.3575 Z-0.3624
X5.8949 Y-0.3569 Z-0.365
X5.8938 Y-0.3563 Z-0.3675
X5.8926 Y-0.3555 Z-0.3699
X5.8913 Y-0.3547 Z-0.3722
X5.8898 Y-0.3539 Z-0.3745
X5.8882 Y-0.353 Z-0.3766
X5.8866 Y-0.352 Z-0.3787
X5.8848 Y-0.3509 Z-0.3806
X5.883 Y-0.3498 Z-0.3824
X5.8811 Y-0.3487 Z-0.3841
X5.8791 Y-0.3475 Z-0.3856
X5.877 Y-0.3463 Z-0.3871
X5.8748 Y-0.345 Z-0.3884
X5.8726 Y-0.3437 Z-0.3895
X5.8704 Y-0.3423 Z-0.3905
X5.8681 Y-0.341 Z-0.3914
X5.8658 Y-0.3396 Z-0.3921
X5.8634 Y-0.3382 Z-0.3926
X5.861 Y-0.3368 Z-0.393
X5.8586 Y-0.3353 Z-0.3932
X5.8562 Y-0.3339 Z-0.3933
G3 X5.8374 Y-0.3284 I-0.0202 J-0.034
G1 X5.6575
X5.6359 Y-0.3294
X5.6175 Y-0.3319
X5.5986 Y-0.3359
X5.5765 Y-0.3425
X5.5541 Y-0.3512
X5.5286 Y-0.3636
X5.5027 Y-0.3789
X5.4743 Y-0.3989
X5.444 Y-0.424
X5.4129 Y-0.4543
X5.3801 Y-0.4919
X5.35 Y-0.5325
X5.3229 Y-0.5752
X5.2984 Y-0.6195
X5.2763 Y-0.6649
X5.2564 Y-0.7114
X5.2385 Y-0.7587
X5.2224 Y-0.8066
